; generated by PrusaSlicer 2.3.3+win64 on 2021-10-12 at 17:03:51 UTC

; 

; external perimeters extrusion width = 0.45mm
; perimeters extrusion width = 0.45mm
; infill extrusion width = 0.45mm
; solid infill extrusion width = 0.45mm
; top infill extrusion width = 0.40mm
; first layer extrusion width = 0.42mm

M73 P0 R5
M201 X1250 Y1250 Z400 E5000 ; sets maximum accelerations, mm/sec^2
M203 X180 Y180 Z12 E80 ; sets maximum feedrates, mm/sec
M204 P1250 R1250 T1250 ; sets acceleration (P, T) and retract acceleration (R), mm/sec^2
M205 X8.00 Y8.00 Z2.00 E10.00 ; sets the jerk limits, mm/sec
M205 S0 T0 ; sets the minimum extruding and travel feed rate, mm/sec
M107
;TYPE:Custom
G90 ; use absolute coordinates
M83 ; extruder relative mode
M104 S170 ; set extruder temp for bed leveling
M140 S60 ; set bed temp
M109 R170 ; wait for bed leveling temp
M190 S60 ; wait for bed temp
G28 ; home all without mesh bed level
G29 ; mesh bed leveling 
M104 S215 ; set extruder temp
G92 E0.0
G1 Y-2.0 X179 F2400
M73 P1 R5
G1 Z3 F720
M109 S215 ; wait for extruder temp

; intro line
G1 X170 F1000
G1 Z0.2 F720
G1 X110.0 E8.0 F900
M73 P3 R5
G1 X40.0 E10.0 F700
G92 E0.0

M221 S95 ; set flow
G21 ; set units to millimeters
G90 ; use absolute coordinates
M83 ; use relative distances for extrusion
M900 K0.2 ; Filament gcode LA 1.5
; ; Filament gcode LA 1.0
;LAYER_CHANGE
;Z:0.35
;HEIGHT:0.35
;BEFORE_LAYER_CHANGE
G92 E0.0
;0.35


M73 P5 R5
G1 Z0.350 F9000.000
;AFTER_LAYER_CHANGE
;0.35
G1 E-3.20000 F4200.000
G1 Z0.550 F9000.000
G1 X103.604 Y99.642
G1 Z0.350
G1 E3.20000 F2400.000
M204 S800
;TYPE:Skirt
;WIDTH:0.42
G1 F1200.000
G1 X103.787 Y99.046 E0.03127
G1 X104.131 Y98.409 E0.03635
G1 X104.595 Y97.908 E0.03427
G1 X105.168 Y97.536 E0.03427
G1 X105.850 Y97.308 E0.03610
G1 X106.532 Y97.246 E0.03434
G1 X130.849 Y97.264 E1.22041
G1 X143.367 Y97.808 E0.62881
M73 P6 R5
G1 X143.989 Y97.951 E0.03203
G1 X144.610 Y98.251 E0.03460
G1 X145.048 Y98.574 E0.02732
G1 X145.570 Y99.119 E0.03785
G1 X145.984 Y99.697 E0.03571
G1 X146.290 Y100.339 E0.03570
G1 X146.422 Y100.939 E0.03080
G1 X146.426 Y101.635 E0.03496
G1 X146.198 Y102.509 E0.04533
G1 X145.671 Y103.337 E0.04923
G1 X144.194 Y104.954 E0.10990
G1 X139.670 Y109.277 E0.31406
G1 X135.965 Y112.030 E0.23164
G1 X135.259 Y112.385 E0.03968
G1 X134.512 Y112.635 E0.03951
G1 X133.924 Y112.729 E0.02991
G1 X132.890 Y112.736 E0.05185
G1 X120.191 Y112.409 E0.63756
G1 X108.311 Y111.686 E0.59728
G1 X107.314 Y111.409 E0.05193
G1 X106.493 Y110.889 E0.04877
G1 X105.961 Y110.334 E0.03860
G1 X105.040 Y108.956 E0.08319
M73 P7 R5
G1 X104.709 Y107.746 E0.06296
G1 X103.576 Y101.370 E0.32501
G1 X103.603 Y99.702 E0.08371
M204 S1250
G1 X103.964 Y99.772 F9000.000
M204 S800
G1 F1200.000
G1 X104.104 Y99.266 E0.02633
G1 X104.401 Y98.681 E0.03291
G1 X104.803 Y98.226 E0.03050
G1 X105.311 Y97.885 E0.03069
G1 X105.923 Y97.678 E0.03239
G1 X106.531 Y97.623 E0.03068
G1 X130.842 Y97.641 E1.22007
G1 X143.300 Y98.180 E0.62578
G1 X143.853 Y98.303 E0.02842
G1 X144.409 Y98.570 E0.03097
G1 X145.264 Y99.340 E0.05772
G1 X145.648 Y99.870 E0.03288
G1 X145.924 Y100.432 E0.03142
G1 X146.044 Y100.954 E0.02690
G1 X146.054 Y101.569 E0.03084
G1 X145.857 Y102.349 E0.04036
G1 X145.380 Y103.096 E0.04449
G1 X143.928 Y104.687 E0.10807
G1 X139.410 Y109.004 E0.31364
M73 P8 R5
G1 X135.762 Y111.712 E0.22798
G1 X135.109 Y112.039 E0.03670
G1 X134.406 Y112.273 E0.03719
G1 X133.889 Y112.353 E0.02625
G1 X132.894 Y112.359 E0.04993
G1 X120.202 Y112.032 E0.63714
G1 X108.378 Y111.314 E0.59452
G1 X107.467 Y111.065 E0.04739
G1 X106.722 Y110.589 E0.04434
G1 X106.255 Y110.098 E0.03405
G1 X105.372 Y108.774 E0.07984
G1 X105.079 Y107.673 E0.05718
G1 X103.962 Y101.414 E0.31912
G1 X103.964 Y99.832 E0.07939
M204 S1250
G1 E-2.24000 F4200.000
;WIPE_START
G1 F7200.000
G1 X104.104 Y99.266 E-0.32288
G1 X104.401 Y98.681 E-0.36336
G1 X104.671 Y98.376 E-0.22577
;WIPE_END
G1 E-0.04800 F4200.000
G1 Z0.550 F9000.000
G1 X107.734 Y97.812
G1 Z0.350
G1 E3.20000 F2400.000
M204 S800
;HEIGHT:0.2
G1 F1200.000
G1 X107.844 Y97.882 E0.00409
G1 X108.043 Y97.955 E0.00664
G1 X108.267 Y98.082 E0.00809
G1 X108.491 Y98.152 E0.00734
G1 X109.056 Y98.469 E0.02033
G1 X109.525 Y98.965 E0.02139
G1 X109.597 Y99.096 E0.00471
G1 X109.667 Y99.289 E0.00642
G1 X109.854 Y99.552 E0.01014
G1 X110.026 Y100.059 E0.01678
G1 X110.107 Y101.002 E0.02968
M73 P9 R5
G1 X110.210 Y101.346 E0.01125
G1 X110.253 Y101.962 E0.01935
G1 X110.297 Y102.271 E0.00979
G1 X110.363 Y102.528 E0.00832
G1 X110.377 Y102.725 E0.00619
G1 X110.466 Y103.000 E0.00909
G1 X110.515 Y103.689 E0.02164
G1 X111.669 Y102.521 E0.05150
G1 X111.802 Y102.335 E0.00715
G1 X112.173 Y101.964 E0.01648
G1 X112.730 Y101.594 E0.02095
G1 X112.789 Y101.473 E0.00421
G1 X112.992 Y101.195 E0.01079
G1 X113.523 Y100.770 E0.02133
G1 X114.088 Y99.966 E0.03082
G1 X114.518 Y99.571 E0.01829
G1 X114.869 Y99.352 E0.01300
G1 X115.119 Y99.120 E0.01067
G1 X115.455 Y98.888 E0.01282
G1 X115.785 Y98.737 E0.01136
G1 X116.061 Y98.450 E0.01250
G1 X116.597 Y98.040 E0.02116
G1 X116.980 Y97.871 E0.01313
G1 X117.180 Y97.819 E0.00648
M204 S1250
G1 E-2.24000 F4200.000
;WIPE_START
G1 F7200.000
G1 X116.980 Y97.871 E-0.11447
G1 X116.597 Y98.040 E-0.23202
G1 X116.061 Y98.450 E-0.37407
G1 X115.822 Y98.699 E-0.19145
;WIPE_END
G1 E-0.04800 F4200.000
G1 Z0.550 F9000.000
G1 X120.206 Y97.822
G1 Z0.350
G1 E3.20000 F2400.000
M204 S800
G1 F1200.000
G1 X120.771 Y98.294 E0.02311
G1 X121.031 Y98.690 E0.01486
G1 X121.205 Y98.857 E0.00755
G1 X121.404 Y99.157 E0.01130
G1 X121.616 Y99.779 E0.02060
G1 X121.700 Y100.422 E0.02031
G1 X121.813 Y100.758 E0.01113
G1 X121.844 Y101.126 E0.01159
G1 X121.912 Y101.357 E0.00754
G1 X121.931 Y101.635 E0.00873
G1 X121.975 Y101.886 E0.00801
G1 X122.028 Y102.056 E0.00560
G1 X122.110 Y102.686 E0.01990
G1 X122.181 Y102.930 E0.00797
G1 X122.286 Y103.781 E0.02688
G1 X122.700 Y103.672 E0.01344
G1 X122.991 Y103.653 E0.00914
G1 X123.449 Y103.250 E0.01911
G1 X123.781 Y103.030 E0.01250
G1 X123.957 Y102.944 E0.00614
G1 X124.117 Y102.784 E0.00709
G1 X124.433 Y102.376 E0.01617
G1 X124.796 Y101.970 E0.01709
G1 X125.232 Y101.609 E0.01775
G1 X125.454 Y101.489 E0.00790
G1 X125.874 Y100.913 E0.02233
G1 X126.062 Y100.610 E0.01118
G1 X126.582 Y100.058 E0.02380
G1 X126.987 Y99.728 E0.01640
G1 X127.227 Y99.605 E0.00845
G1 X127.465 Y99.442 E0.00905
G1 X127.866 Y99.263 E0.01376
G1 X128.041 Y99.049 E0.00867
G1 X128.384 Y98.708 E0.01515
G1 X128.676 Y98.315 E0.01535
G1 X129.000 Y98.034 E0.01346
G1 X129.575 Y97.829 E0.01912
M204 S1250
G1 E-2.24000 F4200.000
;WIPE_START
G1 F7200.000
G1 X129.000 Y98.034 E-0.33798
G1 X128.676 Y98.315 E-0.23790
G1 X128.384 Y98.708 E-0.27138
G1 X128.301 Y98.791 E-0.06474
;WIPE_END
G1 E-0.04800 F4200.000
G1 Z0.550 F9000.000
G1 X132.271 Y97.891
G1 Z0.350
G1 E3.20000 F2400.000
M204 S800
G1 F1200.000
G1 X132.784 Y98.153 E0.01805
G1 X133.275 Y98.642 E0.02174
G1 X133.411 Y98.888 E0.00880
G1 X133.546 Y99.290 E0.01330
G1 X133.810 Y99.892 E0.02061
G1 X133.917 Y100.333 E0.01421
G1 X134.010 Y100.503 E0.00608
G1 X134.095 Y100.808 E0.00993
G1 X134.206 Y101.003 E0.00704
G1 X134.286 Y101.228 E0.00748
G1 X134.396 Y102.176 E0.02992
G1 X134.448 Y102.399 E0.00718
G1 X134.517 Y103.059 E0.02081
G1 X134.556 Y103.228 E0.00544
G1 X134.597 Y103.684 E0.01436
G1 X134.701 Y104.022 E0.01110
G1 X135.377 Y103.854 E0.02184
G1 X135.888 Y103.846 E0.01604
G1 X136.336 Y103.464 E0.01846
G1 X136.534 Y103.188 E0.01064
G1 X136.775 Y102.900 E0.01178
G1 X137.066 Y102.607 E0.01297
G1 X137.356 Y102.248 E0.01447
G1 X137.871 Y101.738 E0.02271
G1 X138.292 Y101.164 E0.02232
G1 X138.706 Y100.712 E0.01923
G1 X139.218 Y100.337 E0.01989
G1 X139.607 Y100.163 E0.01334
G1 X139.837 Y100.086 E0.00762
G1 X140.123 Y99.692 E0.01526
G1 X140.502 Y99.313 E0.01681
G1 X140.729 Y99.157 E0.00864
G1 X140.890 Y99.007 E0.00689
G1 X141.022 Y98.915 E0.00505
G1 X141.206 Y98.706 E0.00872
M73 P10 R5
G1 X141.682 Y98.339 E0.01886
G1 X141.776 Y98.303 E0.00317
M204 S1250
G1 E-2.24000 F4200.000
;WIPE_START
G1 F7200.000
G1 X141.682 Y98.339 E-0.05609
G1 X141.206 Y98.706 E-0.33326
G1 X141.022 Y98.915 E-0.15409
G1 X140.890 Y99.007 E-0.08921
G1 X140.729 Y99.157 E-0.12180
G1 X140.502 Y99.313 E-0.15277
G1 X140.496 Y99.319 E-0.00478
;WIPE_END
G1 E-0.04800 F4200.000
G1 Z0.550 F9000.000
G1 X137.865 Y109.916
G1 Z0.350
G1 E3.20000 F2400.000
M204 S800
G1 F1200.000
G1 X137.714 Y109.948 E0.00486
G1 X137.368 Y110.101 E0.01185
G1 X137.182 Y110.135 E0.00594
G1 X136.977 Y110.435 E0.01141
G1 X136.851 Y110.669 E0.00830
M204 S1250
G1 E-2.24000 F4200.000
;WIPE_START
G1 F7200.000
G1 X136.977 Y110.435 E-0.14674
G1 X137.182 Y110.135 E-0.20160
G1 X137.368 Y110.101 E-0.10493
G1 X137.714 Y109.948 E-0.20948
G1 X137.865 Y109.916 E-0.08581
;WIPE_END
G1 E-0.21144 F4200.000
G1 Z0.550 F9000.000
G1 X131.065 Y112.123
G1 Z0.350
G1 E3.20000 F2400.000
M204 S800
G1 F1200.000
G1 X130.951 Y112.066 E0.00400
G1 X129.985 Y111.148 E0.04178
G1 X129.696 Y110.675 E0.01740
G1 X129.614 Y110.378 E0.00965
G1 X129.372 Y109.760 E0.02081
G1 X129.295 Y109.075 E0.02161
G1 X129.127 Y108.379 E0.02246
G1 X128.921 Y107.823 E0.01860
G1 X128.878 Y106.794 E0.03230
G1 X128.276 Y107.292 E0.02451
G1 X127.712 Y107.839 E0.02462
G1 X127.221 Y108.159 E0.01838
G1 X127.107 Y108.493 E0.01106
G1 X126.919 Y108.914 E0.01447
G1 X126.613 Y109.416 E0.01843
G1 X125.846 Y110.249 E0.03552
G1 X125.391 Y110.490 E0.01613
G1 X124.922 Y110.606 E0.01513
G1 X124.546 Y110.624 E0.01182
G1 X124.149 Y110.679 E0.01255
G1 X123.931 Y110.967 E0.01131
G1 X123.576 Y111.236 E0.01398
G1 X123.344 Y111.338 E0.00794
G1 X123.128 Y111.527 E0.00903
G1 X122.793 Y111.695 E0.01173
G1 X122.415 Y111.815 E0.01244
G1 X122.183 Y111.851 E0.00736
G1 X121.714 Y111.851 E0.01470
G1 X121.659 Y111.881 E0.00197
M204 S1250
G1 E-2.24000 F4200.000
;WIPE_START
G1 F7200.000
G1 X121.714 Y111.851 E-0.03473
G1 X122.183 Y111.851 E-0.25979
G1 X122.415 Y111.815 E-0.13016
G1 X122.793 Y111.695 E-0.21990
G1 X123.128 Y111.527 E-0.20739
G1 X123.209 Y111.456 E-0.06003
;WIPE_END
G1 E-0.04800 F4200.000
G1 Z0.550 F9000.000
G1 X118.702 Y111.752
G1 Z0.350
G1 E3.20000 F2400.000
M204 S800
G1 F1200.000
G1 X118.276 Y111.481 E0.01585
G1 X118.076 Y111.253 E0.00950
G1 X117.499 Y110.306 E0.03479
G1 X117.373 Y109.991 E0.01064
G1 X117.085 Y109.416 E0.02016
G1 X116.823 Y108.760 E0.02216
G1 X116.663 Y108.037 E0.02319
G1 X116.495 Y106.713 E0.04187
G1 X115.966 Y106.877 E0.01737
G1 X115.811 Y107.042 E0.00709
G1 X115.591 Y107.338 E0.01157
G1 X115.272 Y107.598 E0.01290
G1 X114.563 Y108.482 E0.03552
G1 X114.447 Y108.723 E0.00841
G1 X113.984 Y109.279 E0.02266
G1 X113.774 Y109.445 E0.00840
G1 X113.358 Y109.647 E0.01450
G1 X112.977 Y109.718 E0.01216
G1 X112.715 Y109.797 E0.00858
G1 X112.184 Y109.849 E0.01675
G1 X111.509 Y109.849 E0.02115
G1 X111.099 Y109.875 E0.01288
G1 X110.907 Y110.349 E0.01602
G1 X110.719 Y110.611 E0.01012
G1 X110.136 Y111.130 E0.02448
G1 X109.906 Y111.218 E0.00771
M204 S1250
G1 E-2.24000 F4200.000
;WIPE_START
G1 F7200.000
G1 X110.136 Y111.130 E-0.13622
G1 X110.719 Y110.611 E-0.43275
M73 P11 R5
G1 X110.907 Y110.349 E-0.17894
G1 X111.018 Y110.074 E-0.16409
;WIPE_END
G1 E-0.04800 F4200.000
G1 Z0.550 F9000.000
G1 X107.888 Y110.984
G1 Z0.350
G1 E3.20000 F2400.000
M204 S800
G1 F1200.000
G1 X108.259 Y110.999 E0.01166
G1 X108.603 Y111.075 E0.01103
G1 X109.043 Y111.052 E0.01384
G1 X109.184 Y111.012 E0.00458
G1 X109.455 Y110.997 E0.00851
G1 X109.962 Y110.793 E0.01714
G1 X110.428 Y110.371 E0.01972
G1 X110.567 Y110.183 E0.00733
G1 X110.734 Y109.772 E0.01391
G1 X110.770 Y109.518 E0.00805
G1 X111.497 Y109.472 E0.02284
G1 X112.174 Y109.472 E0.02123
G1 X112.657 Y109.424 E0.01522
G1 X112.884 Y109.352 E0.00747
G1 X113.262 Y109.282 E0.01204
G1 X113.586 Y109.118 E0.01140
G1 X113.707 Y109.022 E0.00483
G1 X114.139 Y108.503 E0.02118
G1 X114.239 Y108.283 E0.00760
G1 X114.897 Y107.477 E0.03261
G1 X114.981 Y107.349 E0.00480
G1 X115.332 Y107.062 E0.01421
G1 X115.519 Y106.803 E0.01002
G1 X115.759 Y106.547 E0.01102
G1 X116.214 Y106.405 E0.01494
G1 X116.790 Y106.045 E0.02130
G1 X117.036 Y107.982 E0.06121
G1 X117.179 Y108.635 E0.02095
G1 X117.432 Y109.269 E0.02140
G1 X117.718 Y109.838 E0.01998
G1 X117.830 Y110.125 E0.00964
G1 X118.391 Y111.046 E0.03383
G1 X118.507 Y111.182 E0.00562
G1 X118.975 Y111.488 E0.01751
G1 X119.533 Y111.638 E0.01812
G1 X119.690 Y111.649 E0.00493
G1 X120.057 Y111.731 E0.01178
G1 X121.026 Y111.700 E0.03041
G1 X121.438 Y111.576 E0.01348
G1 X121.600 Y111.474 E0.00602
G1 X122.167 Y111.474 E0.01775
G1 X122.339 Y111.446 E0.00548
G1 X122.661 Y111.341 E0.01062
G1 X122.931 Y111.204 E0.00950
G1 X123.139 Y111.013 E0.00885
G1 X123.370 Y110.920 E0.00781
G1 X123.678 Y110.685 E0.01214
G1 X123.971 Y110.276 E0.01577
G1 X124.245 Y110.288 E0.00860
G1 X124.510 Y110.248 E0.00840
G1 X124.851 Y110.235 E0.01072
G1 X125.276 Y110.130 E0.01371
G1 X125.637 Y109.934 E0.01287
G1 X126.301 Y109.204 E0.03095
G1 X126.580 Y108.749 E0.01675
G1 X126.759 Y108.347 E0.01378
G1 X126.915 Y107.887 E0.01524
G1 X127.196 Y107.738 E0.00998
G1 X127.477 Y107.544 E0.01070
G1 X127.630 Y107.383 E0.00697
G1 X127.871 Y107.177 E0.00995
G1 X128.010 Y107.023 E0.00649
G1 X128.319 Y106.767 E0.01258
G1 X128.587 Y106.416 E0.01387
G1 X129.132 Y106.160 E0.01887
G1 X129.210 Y106.838 E0.02138
G1 X129.269 Y107.099 E0.00839
G1 X129.288 Y107.731 E0.01982
G1 X129.427 Y108.137 E0.01348
G1 X129.486 Y108.238 E0.00365
G1 X129.527 Y108.472 E0.00747
G1 X129.668 Y109.007 E0.01734
G1 X129.733 Y109.648 E0.02019
G1 X129.975 Y110.265 E0.02080
G1 X130.035 Y110.509 E0.00787
G1 X130.265 Y110.894 E0.01404
G1 X131.189 Y111.772 E0.03998
G1 X131.666 Y112.003 E0.01661
M73 P11 R4
G1 X131.778 Y112.024 E0.00360
G1 X132.225 Y112.029 E0.01400
G1 X132.384 Y112.058 E0.00509
G1 X134.441 Y112.044 E0.06448
G1 X134.556 Y112.025 E0.00365
M204 S1250
G1 X134.782 Y111.949 F9000.000
M204 S800
G1 F1200.000
G1 X134.946 Y111.884 E0.00555
G1 X135.064 Y111.805 E0.00444
G1 X135.340 Y111.713 E0.00912
M204 S1250
G1 X135.376 Y111.695 F9000.000
M204 S800
G1 F1200.000
G1 X135.671 Y111.533 E0.01057
G1 X135.911 Y111.356 E0.00934
G1 X136.476 Y110.575 E0.03021
G1 X136.653 Y110.240 E0.01186
G1 X136.970 Y109.775 E0.01766
G1 X137.247 Y109.742 E0.00872
G1 X137.598 Y109.587 E0.01203
G1 X138.008 Y109.501 E0.01316
G1 X138.351 Y109.321 E0.01214
G1 X138.730 Y109.237 E0.01217
G1 X138.919 Y109.134 E0.00677
M204 S1250
G1 X139.176 Y108.944 F9000.000
M204 S800
G1 F1200.000
G1 X139.551 Y108.473 E0.01888
G1 X139.700 Y108.246 E0.00849
G1 X139.887 Y108.085 E0.00775
G1 X140.029 Y107.896 E0.00741
G1 X140.225 Y107.695 E0.00881
G1 X140.703 Y107.269 E0.02007
G1 X140.901 Y106.954 E0.01165
G1 X141.226 Y106.543 E0.01645
G1 X141.514 Y106.287 E0.01207
G1 X141.639 Y106.138 E0.00609
G1 X141.810 Y106.068 E0.00577
G1 X142.108 Y105.850 E0.01160
G1 X142.508 Y105.291 E0.02154
G1 X142.714 Y105.224 E0.00680
G1 X142.953 Y105.075 E0.00883
G1 X143.256 Y104.945 E0.01032
G1 X143.434 Y104.799 E0.00724
G1 X143.674 Y104.669 E0.00854
M204 S1250
G1 X143.962 Y104.370 F9000.000
M204 S800
G1 F1200.000
G1 X144.263 Y103.818 E0.01973
G1 X144.441 Y103.542 E0.01028
G1 X144.774 Y103.340 E0.01223
G1 X144.982 Y103.127 E0.00933
G1 X145.283 Y102.885 E0.01209
M73 P12 R4
G1 X145.360 Y102.777 E0.00417
M204 S1250
G1 X145.460 Y102.620 F9000.000
M204 S800
G1 F1200.000
G1 X145.501 Y102.530 E0.00311
G1 X145.568 Y102.450 E0.00327
M204 S1250
G1 E-2.24000 F4200.000
;WIPE_START
G1 F7200.000
G1 X145.501 Y102.530 E-0.05780
G1 X145.460 Y102.620 E-0.05501
;WIPE_END
G1 E-0.84719 F4200.000
G1 Z0.550 F9000.000
G1 X145.808 Y100.771
G1 Z0.350
G1 E3.20000 F2400.000
M204 S800
G1 F1200.000
G1 X145.737 Y100.635 E0.00480
G1 X145.706 Y100.416 E0.00694
M204 S1250
G1 X145.253 Y99.646 F9000.000
M204 S800
G1 F1200.000
G1 X145.017 Y99.418 E0.01030
G1 X144.827 Y99.305 E0.00692
G1 X144.309 Y98.799 E0.02272
G1 X143.809 Y98.560 E0.01738
G1 X143.429 Y98.468 E0.01225
G1 X142.301 Y98.494 E0.03540
G1 X141.891 Y98.654 E0.01378
G1 X141.452 Y98.992 E0.01737
G1 X141.275 Y99.199 E0.00855
G1 X141.135 Y99.294 E0.00531
G1 X140.963 Y99.454 E0.00737
G1 X140.754 Y99.593 E0.00786
G1 X140.400 Y99.947 E0.01568
G1 X140.072 Y100.405 E0.01767
G1 X139.751 Y100.512 E0.01060
G1 X139.391 Y100.672 E0.01236
G1 X138.947 Y101.003 E0.01735
