; generated by PrusaSlicer 2.3.3+win64 on 2021-10-12 at 15:31:45 UTC

; 

; external perimeters extrusion width = 0.45mm
; perimeters extrusion width = 0.45mm
; infill extrusion width = 0.45mm
; solid infill extrusion width = 0.45mm
; top infill extrusion width = 0.40mm
; first layer extrusion width = 0.42mm

M73 P0 R4
M201 X1250 Y1250 Z400 E5000 ; sets maximum accelerations, mm/sec^2
M203 X180 Y180 Z12 E80 ; sets maximum feedrates, mm/sec
M204 P1250 R1250 T1250 ; sets acceleration (P, T) and retract acceleration (R), mm/sec^2
M205 X8.00 Y8.00 Z2.00 E10.00 ; sets the jerk limits, mm/sec
M205 S0 T0 ; sets the minimum extruding and travel feed rate, mm/sec
M107
;TYPE:Custom
G90 ; use absolute coordinates
M83 ; extruder relative mode
M104 S170 ; set extruder temp for bed leveling
M140 S60 ; set bed temp
M109 R170 ; wait for bed leveling temp
M190 S60 ; wait for bed temp
G28 ; home all without mesh bed level
G29 ; mesh bed leveling 
M104 S215 ; set extruder temp
G92 E0.0
G1 Y-2.0 X179 F2400
M73 P1 R4
G1 Z3 F720
M109 S215 ; wait for extruder temp

; intro line
G1 X170 F1000
M73 P2 R4
G1 Z0.2 F720
G1 X110.0 E8.0 F900
M73 P3 R4
G1 X40.0 E10.0 F700
G92 E0.0

M221 S95 ; set flow
G21 ; set units to millimeters
G90 ; use absolute coordinates
M83 ; use relative distances for extrusion
M900 K0.2 ; Filament gcode LA 1.5
; ; Filament gcode LA 1.0
;LAYER_CHANGE
;Z:0.35
;HEIGHT:0.35
;BEFORE_LAYER_CHANGE
G92 E0.0
;0.35


M73 P5 R4
G1 Z0.350 F9000.000
;AFTER_LAYER_CHANGE
;0.35
G1 E-3.20000 F4200.000
G1 Z0.550 F9000.000
G1 X104.511 Y103.879
M73 P6 R4
G1 Z0.350
G1 E3.20000 F2400.000
M204 S800
;TYPE:Skirt
;WIDTH:0.42
G1 F1200.000
G1 X104.101 Y102.909 E0.05285
G1 X104.028 Y102.235 E0.03399
G1 X104.078 Y100.899 E0.06713
G1 X104.342 Y100.096 E0.04243
G1 X104.749 Y99.468 E0.03754
G1 X105.320 Y98.930 E0.03937
G1 X106.126 Y98.447 E0.04717
G1 X108.593 Y97.709 E0.12920
G1 X115.972 Y97.268 E0.37101
G1 X136.362 Y97.267 E1.02328
M73 P7 R4
G1 X137.154 Y97.369 E0.04011
G1 X137.814 Y97.625 E0.03550
G1 X144.480 Y101.076 E0.37670
G1 X144.951 Y101.416 E0.02916
G1 X145.388 Y101.890 E0.03238
G1 X145.710 Y102.440 E0.03196
G1 X145.897 Y103.003 E0.02978
G1 X145.971 Y103.630 E0.03168
G1 X145.953 Y104.874 E0.06242
G1 X145.821 Y105.487 E0.03147
G1 X145.556 Y106.075 E0.03239
G1 X145.032 Y106.739 E0.04245
G1 X144.243 Y107.360 E0.05040
G1 X135.760 Y112.159 E0.48911
G1 X134.442 Y112.667 E0.07089
G1 X132.967 Y112.724 E0.07407
G1 X117.276 Y108.990 E0.80946
G1 X108.893 Y106.602 E0.43745
M73 P8 R4
G1 X105.207 Y104.630 E0.20982
G1 X104.552 Y103.923 E0.04839
M204 S1250
G1 X104.826 Y103.671 F9000.000
M204 S800
G1 F1200.000
G1 X104.463 Y102.795 E0.04756
G1 X104.405 Y102.217 E0.02916
G1 X104.450 Y100.956 E0.06333
G1 X104.694 Y100.234 E0.03823
G1 X105.066 Y99.679 E0.03353
G1 X105.567 Y99.216 E0.03428
G1 X106.313 Y98.777 E0.04339
G1 X108.706 Y98.070 E0.12526
G1 X115.982 Y97.645 E0.36577
G1 X136.351 Y97.644 E1.02225
G1 X137.057 Y97.734 E0.03571
G1 X137.646 Y97.962 E0.03170
G1 X144.246 Y101.378 E0.37294
M73 P9 R4
G1 X144.671 Y101.672 E0.02595
G1 X145.064 Y102.086 E0.02867
G1 X145.356 Y102.572 E0.02845
G1 X145.524 Y103.061 E0.02595
G1 X145.592 Y103.567 E0.02561
G1 X145.582 Y104.796 E0.06170
G1 X145.475 Y105.332 E0.02739
G1 X145.255 Y105.840 E0.02779
G1 X144.776 Y106.462 E0.03940
G1 X144.040 Y107.042 E0.04703
G1 X135.586 Y111.825 E0.48745
G1 X134.369 Y112.297 E0.06552
G1 X132.998 Y112.348 E0.06888
G1 X117.369 Y108.625 E0.80631
G1 X109.024 Y106.249 E0.43543
G1 X105.452 Y104.344 E0.20316
M73 P10 R4
G1 X104.867 Y103.715 E0.04312
M204 S1250
G1 E-2.24000 F4200.000
;WIPE_START
G1 F7200.000
G1 X104.463 Y102.795 E-0.55645
G1 X104.405 Y102.217 E-0.32201
G1 X104.407 Y102.157 E-0.03354
;WIPE_END
G1 E-0.04800 F4200.000
G1 Z0.550 F9000.000
G1 X110.446 Y98.157
G1 Z0.350
G1 E3.20000 F2400.000
M204 S800
;HEIGHT:0.2
G1 F1200.000
G1 X110.960 Y98.387 E0.01765
G1 X111.566 Y98.886 E0.02462
G1 X112.006 Y98.688 E0.01512
G1 X113.058 Y98.370 E0.03445
G1 X113.742 Y98.336 E0.02150
G1 X114.035 Y98.149 E0.01087
G1 X114.407 Y97.977 E0.01287
G1 X114.602 Y97.914 E0.00642
M204 S1250
G1 E-2.24000 F4200.000
;WIPE_START
G1 F7200.000
G1 X114.407 Y97.977 E-0.11355
G1 X114.035 Y98.149 E-0.22748
G1 X113.742 Y98.336 E-0.19221
G1 X113.060 Y98.370 E-0.37876
;WIPE_END
G1 E-0.04800 F4200.000
G1 Z0.550 F9000.000
G1 X117.308 Y97.833
G1 Z0.350
G1 E3.20000 F2400.000
M204 S800
G1 F1200.000
G1 X117.914 Y98.188 E0.02200
G1 X118.511 Y98.804 E0.02689
G1 X118.961 Y99.527 E0.02672
G1 X119.516 Y100.675 E0.03997
G1 X119.714 Y101.336 E0.02164
G1 X120.579 Y101.112 E0.02800
G1 X121.405 Y101.106 E0.02592
G1 X121.776 Y101.208 E0.01205
G1 X122.062 Y100.935 E0.01240
G1 X122.576 Y100.547 E0.02020
G1 X122.952 Y100.382 E0.01287
G1 X123.430 Y100.255 E0.01552
G1 X123.737 Y100.232 E0.00964
G1 X123.876 Y100.146 E0.00514
G1 X124.232 Y99.984 E0.01226
G1 X124.539 Y99.876 E0.01021
G1 X124.970 Y99.574 E0.01650
G1 X125.519 Y99.308 E0.01910
G1 X125.799 Y99.102 E0.01091
G1 X126.019 Y98.989 E0.00777
G1 X126.187 Y98.869 E0.00648
G1 X126.560 Y98.689 E0.01297
G1 X127.161 Y98.504 E0.01971
G1 X127.631 Y98.459 E0.01482
G1 X127.856 Y98.313 E0.00841
G1 X128.056 Y98.231 E0.00677
G1 X128.451 Y98.024 E0.01397
G1 X128.941 Y97.833 E0.01648
M204 S1250
G1 E-2.24000 F4200.000
;WIPE_START
G1 F7200.000
G1 X128.451 Y98.024 E-0.29135
G1 X128.056 Y98.231 E-0.24692
G1 X127.856 Y98.313 E-0.11968
G1 X127.631 Y98.459 E-0.14867
G1 X127.442 Y98.477 E-0.10537
;WIPE_END
G1 E-0.04800 F4200.000
G1 Z0.550 F9000.000
G1 X131.411 Y97.833
G1 Z0.350
G1 E3.20000 F2400.000
M204 S800
G1 F1200.000
G1 X131.950 Y98.147 E0.01955
G1 X132.615 Y98.805 E0.02934
G1 X133.120 Y99.655 E0.03102
G1 X133.501 Y99.178 E0.01913
G1 X133.760 Y98.920 E0.01146
G1 X134.038 Y98.577 E0.01387
G1 X134.650 Y98.045 E0.02540
G1 X135.094 Y97.833 E0.01545
M204 S1250
G1 E-2.24000 F4200.000
;WIPE_START
M73 P11 R4
G1 F7200.000
G1 X134.650 Y98.045 E-0.27305
G1 X134.038 Y98.577 E-0.44888
G1 X133.822 Y98.843 E-0.19006
;WIPE_END
G1 E-0.04800 F4200.000
G1 Z0.550 F9000.000
G1 X138.673 Y98.706
G1 Z0.350
G1 E3.20000 F2400.000
M204 S800
G1 F1200.000
G1 X138.726 Y98.759 E0.00236
G1 X139.070 Y99.319 E0.02060
G1 X139.934 Y101.540 E0.07472
G1 X140.475 Y101.261 E0.01909
G1 X140.803 Y101.184 E0.01056
G1 X141.227 Y101.197 E0.01330
G1 X141.524 Y101.174 E0.00934
G1 X141.926 Y101.241 E0.01277
G1 X142.296 Y101.096 E0.01245
G1 X143.047 Y100.969 E0.02387
M204 S1250
G1 E-2.24000 F4200.000
;WIPE_START
G1 F7200.000
G1 X142.296 Y101.096 E-0.42195
G1 X141.926 Y101.241 E-0.22009
G1 X141.524 Y101.174 E-0.22565
G1 X141.444 Y101.180 E-0.04432
;WIPE_END
G1 E-0.04800 F4200.000
G1 Z0.550 F9000.000
G1 X142.808 Y107.523
G1 Z0.350
G1 E3.20000 F2400.000
M204 S800
G1 F1200.000
G1 X142.355 Y107.560 E0.01426
G1 X141.944 Y108.011 E0.01914
M204 S1250
G1 X141.443 Y108.294 F9000.000
M204 S800
G1 F1200.000
G1 X141.156 Y108.402 E0.00960
G1 X140.658 Y108.438 E0.01566
G1 X140.332 Y108.499 E0.01039
G1 X140.178 Y108.589 E0.00560
G1 X139.963 Y108.650 E0.00701
G1 X139.677 Y108.823 E0.01049
G1 X139.553 Y108.871 E0.00415
G1 X139.441 Y108.953 E0.00434
G1 X139.157 Y109.093 E0.00993
G1 X138.876 Y109.176 E0.00920
G1 X138.164 Y109.228 E0.02238
G1 X137.948 Y109.208 E0.00680
G1 X137.525 Y109.085 E0.01382
G1 X137.389 Y109.909 E0.02620
G1 X137.040 Y110.688 E0.02676
G1 X136.900 Y110.865 E0.00706
M204 S1250
G1 E-2.24000 F4200.000
;WIPE_START
G1 F7200.000
G1 X137.040 Y110.688 E-0.12473
G1 X137.389 Y109.909 E-0.47305
G1 X137.481 Y109.350 E-0.31423
;WIPE_END
G1 E-0.04800 F4200.000
G1 Z0.550 F9000.000
G1 X131.099 Y111.702
G1 Z0.350
G1 E3.20000 F2400.000
M204 S800
G1 F1200.000
G1 X130.569 Y111.293 E0.02097
G1 X130.096 Y110.743 E0.02276
G1 X129.342 Y109.579 E0.04347
G1 X129.045 Y108.793 E0.02634
G1 X128.746 Y107.682 E0.03608
G1 X128.494 Y106.857 E0.02704
G1 X128.450 Y106.579 E0.00883
G1 X128.390 Y106.345 E0.00757
G1 X128.311 Y105.774 E0.01808
G1 X128.263 Y105.579 E0.00631
G1 X128.245 Y105.377 E0.00635
G1 X128.119 Y104.818 E0.01797
G1 X127.296 Y105.308 E0.03002
G1 X126.850 Y105.492 E0.01512
G1 X126.480 Y105.808 E0.01526
G1 X125.988 Y106.089 E0.01776
G1 X125.320 Y106.327 E0.02222
G1 X125.082 Y106.358 E0.00753
G1 X124.478 Y106.766 E0.02287
G1 X123.541 Y107.311 E0.03399
G1 X123.034 Y107.498 E0.01692
M73 P12 R4
G1 X122.610 Y107.571 E0.01349
G1 X122.289 Y107.577 E0.01008
G1 X122.106 Y107.797 E0.00895
G1 X121.704 Y108.179 E0.01739
G1 X120.967 Y108.622 E0.02696
G1 X120.221 Y108.825 E0.02423
G1 X119.552 Y108.843 E0.02100
G1 X119.264 Y108.800 E0.00913
G1 X119.095 Y108.842 E0.00546
M204 S1250
G1 E-2.24000 F4200.000
;WIPE_START
G1 F7200.000
G1 X119.264 Y108.800 E-0.09658
G1 X119.552 Y108.843 E-0.16135
G1 X120.221 Y108.825 E-0.37117
G1 X120.714 Y108.691 E-0.28289
;WIPE_END
G1 E-0.04800 F4200.000
G1 Z0.550 F9000.000
G1 X116.066 Y108.058
G1 Z0.350
G1 E3.20000 F2400.000
M204 S800
G1 F1200.000
G1 X115.630 Y107.632 E0.01911
G1 X115.271 Y107.111 E0.01983
G1 X114.619 Y105.807 E0.04573
G1 X114.394 Y105.216 E0.01982
G1 X114.207 Y104.426 E0.02548
G1 X113.540 Y104.761 E0.02341
G1 X113.250 Y104.862 E0.00964
G1 X112.370 Y105.512 E0.03428
G1 X111.457 Y106.119 E0.03437
G1 X110.665 Y106.409 E0.02645
G1 X110.387 Y106.441 E0.00877
M204 S1250
G1 E-2.24000 F4200.000
;WIPE_START
G1 F7200.000
G1 X110.665 Y106.409 E-0.15502
G1 X111.457 Y106.119 E-0.46756
G1 X111.892 Y105.829 E-0.28942
;WIPE_END
G1 E-0.04800 F4200.000
G1 Z0.550 F9000.000
G1 X107.557 Y105.252
G1 Z0.350
G1 E3.20000 F2400.000
M204 S800
G1 F1200.000
G1 X107.335 Y104.905 E0.01291
G1 X106.911 Y104.908 E0.01330
M204 S1250
G1 E-2.24000 F4200.000
;WIPE_START
G1 F7200.000
G1 X107.335 Y104.905 E-0.23508
G1 X107.557 Y105.252 E-0.22824
;WIPE_END
G1 E-0.49668 F4200.000
G1 Z0.550 F9000.000
G1 X129.974 Y97.948
G1 Z0.350
G1 E3.20000 F2400.000
M204 S800
G1 F1200.000
G1 X129.315 Y98.076 E0.02106
G1 X128.911 Y98.257 E0.01387
G1 X128.614 Y98.364 E0.00991
G1 X128.212 Y98.575 E0.01425
G1 X128.044 Y98.641 E0.00563
G1 X127.757 Y98.827 E0.01074
G1 X127.251 Y98.871 E0.01592
G1 X126.708 Y99.036 E0.01778
G1 X126.393 Y99.186 E0.01094
G1 X126.214 Y99.314 E0.00690
G1 X126.009 Y99.416 E0.00720
G1 X125.714 Y99.633 E0.01146
G1 X125.149 Y99.906 E0.01969
G1 X124.714 Y100.214 E0.01670
G1 X124.380 Y100.331 E0.01111
G1 X124.045 Y100.483 E0.01151
G1 X123.859 Y100.603 E0.00696
G1 X123.508 Y100.625 E0.01103
G1 X123.064 Y100.743 E0.01441
G1 X122.751 Y100.882 E0.01074
G1 X122.300 Y101.227 E0.01779
G1 X121.875 Y101.637 E0.01852
G1 X121.376 Y101.483 E0.01637
G1 X120.606 Y101.489 E0.02414
M73 P13 R4
G1 X119.905 Y101.677 E0.02275
G1 X119.443 Y101.931 E0.01656
G1 X119.384 Y101.552 E0.01203
G1 X119.170 Y100.824 E0.02378
G1 X118.626 Y99.700 E0.03914
G1 X118.201 Y99.020 E0.02515
G1 X117.698 Y98.498 E0.02273
G1 X117.064 Y98.119 E0.02316
G1 X116.471 Y97.966 E0.01921
G1 X115.564 Y97.988 E0.02843
G1 X115.153 Y98.101 E0.01339
G1 X114.853 Y98.230 E0.01022
G1 X114.554 Y98.324 E0.00983
G1 X114.206 Y98.485 E0.01204
G1 X113.860 Y98.709 E0.01289
G1 X113.143 Y98.738 E0.02251
G1 X112.128 Y99.045 E0.03327
G1 X111.455 Y99.351 E0.02316
G1 X111.289 Y99.147 E0.00822
G1 X110.779 Y98.718 E0.02091
G1 X110.137 Y98.426 E0.02211
G1 X109.496 Y98.325 E0.02036
G1 X108.741 Y98.371 E0.02371
G1 X108.296 Y98.502 E0.01453
G1 X107.913 Y98.693 E0.01342
G1 X107.526 Y98.839 E0.01297
G1 X107.099 Y98.855 E0.01340
G1 X106.536 Y99.004 E0.01829
G1 X106.050 Y99.241 E0.01692
G1 X105.553 Y99.614 E0.01950
G1 X105.172 Y100.018 E0.01743
G1 X104.966 Y100.330 E0.01169
G1 X104.724 Y101.111 E0.02564
G1 X104.729 Y102.540 E0.04482
G1 X104.874 Y103.118 E0.01868
G1 X105.140 Y103.598 E0.01721
G1 X105.707 Y104.157 E0.02497
G1 X106.183 Y104.410 E0.01691
G1 X106.674 Y104.538 E0.01588
G1 X107.543 Y104.524 E0.02727
G1 X107.867 Y105.044 E0.01922
G1 X108.318 Y105.509 E0.02032
G1 X108.918 Y105.883 E0.02215
G1 X109.600 Y106.074 E0.02221
G1 X110.099 Y106.096 E0.01566
G1 X110.597 Y106.037 E0.01573
G1 X111.304 Y105.774 E0.02365
G1 X112.156 Y105.201 E0.03218
G1 X113.072 Y104.525 E0.03572
G1 X113.386 Y104.416 E0.01040
G1 X113.754 Y104.237 E0.01282
G1 X114.060 Y104.046 E0.01131
G1 X114.512 Y104.071 E0.01419
G1 X114.751 Y105.094 E0.03295
G1 X114.961 Y105.647 E0.01852
G1 X115.603 Y106.931 E0.04503
G1 X115.908 Y107.377 E0.01695
G1 X116.334 Y107.798 E0.01877
G1 X116.856 Y108.125 E0.01931
G1 X117.732 Y108.405 E0.02882
G1 X118.391 Y108.518 E0.02098
G1 X118.934 Y108.497 E0.01704
G1 X119.245 Y108.414 E0.01006
G1 X119.560 Y108.466 E0.01003
G1 X120.187 Y108.449 E0.01966
G1 X120.840 Y108.266 E0.02126
G1 X121.459 Y107.892 E0.02268
G1 X121.838 Y107.532 E0.01637
G1 X122.109 Y107.201 E0.01342
G1 X122.562 Y107.197 E0.01421
G1 X122.953 Y107.129 E0.01245
G1 X123.365 Y106.977 E0.01378
G1 X124.283 Y106.444 E0.03327
G1 X124.951 Y105.992 E0.02529
G1 X125.218 Y105.963 E0.00844
G1 X125.816 Y105.753 E0.01986
G1 X126.276 Y105.490 E0.01662
G1 X126.649 Y105.167 E0.01546
G1 X127.133 Y104.967 E0.01643
G1 X127.414 Y104.786 E0.01046
G1 X127.643 Y104.666 E0.00812
G1 X127.948 Y104.455 E0.01164
G1 X128.396 Y104.235 E0.01564
M73 P14 R4
G1 X128.619 Y105.318 E0.03468
G1 X128.637 Y105.529 E0.00664
G1 X128.681 Y105.699 E0.00551
G1 X128.762 Y106.282 E0.01843
G1 X128.820 Y106.503 E0.00718
G1 X128.859 Y106.761 E0.00818
G1 X129.108 Y107.578 E0.02678
G1 X129.407 Y108.687 E0.03601
G1 X129.670 Y109.392 E0.02359
G1 X130.405 Y110.528 E0.04243
G1 X130.816 Y111.008 E0.01981
G1 X131.323 Y111.402 E0.02013
G1 X132.138 Y111.810 E0.02859
G1 X132.845 Y112.028 E0.02318
G1 X133.964 Y112.048 E0.03508
G1 X134.450 Y111.975 E0.01540
G1 X135.029 Y111.771 E0.01926
G1 X135.529 Y111.519 E0.01757
G1 X136.067 Y111.187 E0.01980
G1 X136.389 Y110.903 E0.01346
G1 X136.706 Y110.511 E0.01582
G1 X137.033 Y109.782 E0.02505
G1 X137.096 Y109.326 E0.01442
G1 X137.159 Y109.051 E0.00887
G1 X137.181 Y108.581 E0.01476
G1 X138.004 Y108.834 E0.02702
G1 X138.184 Y108.851 E0.00566
G1 X138.793 Y108.807 E0.01914
G1 X139.007 Y108.747 E0.00697
G1 X139.255 Y108.624 E0.00867
G1 X139.371 Y108.534 E0.00461
G1 X139.501 Y108.489 E0.00434
G1 X139.819 Y108.297 E0.01164
G1 X140.014 Y108.248 E0.00629
G1 X140.199 Y108.140 E0.00672
G1 X140.610 Y108.064 E0.01310
G1 X141.099 Y108.028 E0.01538
G1 X141.482 Y107.878 E0.01288
G1 X141.679 Y107.742 E0.00752
G1 X142.173 Y107.199 E0.02301
G1 X142.695 Y107.147 E0.01643
G1 X143.302 Y107.140 E0.01904
G1 X143.520 Y107.090 E0.00703
G1 X143.744 Y106.993 E0.00765
M204 S1250
G1 X144.339 Y106.567 F9000.000
M204 S800
G1 F1200.000
G1 X144.529 Y106.343 E0.00919
G1 X144.733 Y106.179 E0.00821
G1 X144.886 Y105.985 E0.00776
G1 X145.048 Y105.611 E0.01276
G1 X145.305 Y105.219 E0.01471
M204 S1250
G1 X145.396 Y104.438 F9000.000
M204 S800
G1 F1200.000
G1 X145.368 Y104.135 E0.00956
G1 X145.294 Y103.928 E0.00688
G1 X145.322 Y103.558 E0.01164
G1 X145.304 Y103.360 E0.00624
G1 X145.266 Y103.216 E0.00465
G1 X145.239 Y102.812 E0.01270
M204 S1250
G1 X144.325 Y101.661 F9000.000
M204 S800
G1 F1200.000
G1 X144.090 Y101.549 E0.00816
G1 X143.791 Y101.508 E0.00946
G1 X143.405 Y101.377 E0.01277
G1 X143.075 Y101.340 E0.01041
G1 X142.383 Y101.463 E0.02205
G1 X141.965 Y101.632 E0.01412
G1 X141.527 Y101.552 E0.01397
G1 X141.231 Y101.575 E0.00932
G1 X140.862 Y101.557 E0.01158
G1 X140.588 Y101.621 E0.00882
G1 X140.287 Y101.786 E0.01077
G1 X139.628 Y102.027 E0.02198
G1 X139.474 Y101.365 E0.02131
G1 X138.725 Y99.473 E0.06380
G1 X138.443 Y99.009 E0.01705
G1 X137.942 Y98.504 E0.02229
G1 X137.398 Y98.180 E0.01986
G1 X136.807 Y97.987 E0.01948
G1 X136.012 Y97.960 E0.02492
G1 X135.384 Y98.108 E0.02026
G1 X134.839 Y98.373 E0.01899
G1 X134.301 Y98.847 E0.02249
G1 X134.041 Y99.172 E0.01303
G1 X133.775 Y99.437 E0.01178
G1 X133.481 Y99.809 E0.01486
G1 X133.270 Y100.033 E0.00963
G1 X132.957 Y100.495 E0.01753
G1 X132.670 Y99.635 E0.02842
G1 X132.330 Y99.053 E0.02114
G1 X131.736 Y98.458 E0.02637
G1 X131.198 Y98.138 E0.01961
G1 X130.605 Y97.970 E0.01932
G1 X129.974 Y97.948 E0.01980
M204 S1250
G1 E-2.24000 F4200.000
;WIPE_START
G1 F7200.000
G1 X130.605 Y97.970 E-0.34999
G1 X131.198 Y98.138 E-0.34144
G1 X131.540 Y98.342 E-0.22057
;WIPE_END
G1 E-0.04800 F4200.000
G1 Z0.550 F9000.000
M73 P15 R4
G1 X132.751 Y101.092
G1 Z0.350
G1 E3.20000 F2400.000
M204 S800
G1 F1200.000
