; generated by PrusaSlicer 2.3.3+win64 on 2021-10-12 at 15:24:24 UTC

; 

; external perimeters extrusion width = 0.45mm
; perimeters extrusion width = 0.45mm
; infill extrusion width = 0.45mm
; solid infill extrusion width = 0.45mm
; top infill extrusion width = 0.40mm
; first layer extrusion width = 0.42mm

M73 P0 R3
M201 X1250 Y1250 Z400 E5000 ; sets maximum accelerations, mm/sec^2
M203 X180 Y180 Z12 E80 ; sets maximum feedrates, mm/sec
M204 P1250 R1250 T1250 ; sets acceleration (P, T) and retract acceleration (R), mm/sec^2
M205 X8.00 Y8.00 Z2.00 E10.00 ; sets the jerk limits, mm/sec
M205 S0 T0 ; sets the minimum extruding and travel feed rate, mm/sec
M107
;TYPE:Custom
G90 ; use absolute coordinates
M83 ; extruder relative mode
M104 S170 ; set extruder temp for bed leveling
M140 S60 ; set bed temp
M109 R170 ; wait for bed leveling temp
M190 S60 ; wait for bed temp
G28 ; home all without mesh bed level
G29 ; mesh bed leveling 
M104 S215 ; set extruder temp
G92 E0.0
G1 Y-2.0 X179 F2400
M73 P2 R3
G1 Z3 F720
M109 S215 ; wait for extruder temp

; intro line
G1 X170 F1000
G1 Z0.2 F720
G1 X110.0 E8.0 F900
M73 P5 R3
G1 X40.0 E10.0 F700
G92 E0.0

M221 S95 ; set flow
G21 ; set units to millimeters
G90 ; use absolute coordinates
M83 ; use relative distances for extrusion
M900 K0.2 ; Filament gcode LA 1.5
; ; Filament gcode LA 1.0
;LAYER_CHANGE
;Z:0.35
;HEIGHT:0.35
;BEFORE_LAYER_CHANGE
G92 E0.0
;0.35


M73 P8 R3
G1 Z0.350 F9000.000
;AFTER_LAYER_CHANGE
;0.35
G1 E-3.20000 F4200.000
G1 Z0.550 F9000.000
G1 X-13.265 Y7.426
G1 Z0.350
G1 E3.20000 F2400.000
M204 S800
;TYPE:Skirt
;WIDTH:0.42
G1 F1200.000
G1 X-14.091 Y6.827 E0.05122
G1 X-14.941 Y5.703 E0.07071
G1 X-15.344 Y4.750 E0.05195
G1 X-15.900 Y2.236 E0.12920
G1 X-15.910 Y-0.051 E0.11477
M73 P9 R3
G1 X-15.699 Y-0.959 E0.04679
G1 X-15.370 Y-1.547 E0.03385
G1 X-14.945 Y-2.018 E0.03182
G1 X-10.184 Y-5.817 E0.30568
G1 X-9.233 Y-6.168 E0.05087
G1 X0.505 Y-7.724 E0.49493
G1 X8.759 Y-7.740 E0.41423
G1 X9.393 Y-7.689 E0.03190
G1 X13.886 Y-6.821 E0.22966
G1 X14.693 Y-6.428 E0.04507
G1 X15.348 Y-5.787 E0.04599
G1 X15.690 Y-5.184 E0.03479
G1 X15.878 Y-4.515 E0.03487
G1 X15.914 Y-3.214 E0.06534
M73 P10 R3
G1 X15.844 Y-2.612 E0.03037
G1 X15.636 Y-1.987 E0.03305
G1 X15.301 Y-1.407 E0.03365
G1 X14.937 Y-0.994 E0.02761
G1 X14.169 Y-0.345 E0.05046
G1 X13.623 Y-0.013 E0.03208
G1 X3.023 Y4.998 E0.58842
G1 X2.304 Y5.245 E0.03815
G1 X-10.736 Y7.709 E0.66600
G1 X-12.350 Y7.690 E0.08103
G1 X-13.207 Y7.443 E0.04475
M204 S1250
G1 X-13.095 Y7.089 F9000.000
M204 S800
G1 F1200.000
G1 X-13.834 Y6.551 E0.04589
G1 X-14.629 Y5.487 E0.06666
G1 X-14.984 Y4.638 E0.04620
G1 X-15.525 Y2.192 E0.12572
M73 P11 R3
G1 X-15.534 Y-0.021 E0.11104
G1 X-15.343 Y-0.834 E0.04192
G1 X-15.053 Y-1.342 E0.02937
G1 X-14.687 Y-1.744 E0.02728
G1 X-9.968 Y-5.505 E0.30282
G1 X-9.160 Y-5.798 E0.04315
G1 X0.546 Y-7.349 E0.49330
G1 X8.759 Y-7.363 E0.41218
G1 X9.322 Y-7.319 E0.02830
G1 X13.686 Y-6.485 E0.22299
G1 X14.294 Y-6.237 E0.03296
G1 X14.819 Y-5.828 E0.03340
G1 X15.206 Y-5.314 E0.03227
M73 P12 R3
G1 X15.441 Y-4.754 E0.03050
G1 X15.530 Y-4.237 E0.02631
G1 X15.536 Y-3.214 E0.05131
G1 X15.475 Y-2.691 E0.02646
G1 X15.311 Y-2.184 E0.02673
G1 X15.058 Y-1.716 E0.02668
G1 X14.722 Y-1.311 E0.02642
G1 X13.987 Y-0.680 E0.04860
G1 X13.487 Y-0.366 E0.02964
G1 X2.855 Y4.661 E0.59020
G1 X2.281 Y4.864 E0.03060
G1 X-10.724 Y7.331 E0.66431
G1 X-12.286 Y7.318 E0.07839
G1 X-13.037 Y7.106 E0.03915
M204 S1250
G1 E-2.24000 F4200.000
;WIPE_START
G1 F7200.000
G1 X-13.834 Y6.551 E-0.53804
G1 X-14.238 Y6.010 E-0.37396
;WIPE_END
G1 E-0.04800 F4200.000
M73 P13 R3
G1 Z0.550 F9000.000
G1 X0.977 Y4.920
G1 Z0.350
G1 E3.20000 F2400.000
M204 S800
;HEIGHT:0.2
G1 F1200.000
G1 X0.402 Y4.736 E0.01891
G1 X-0.014 Y4.475 E0.01541
G1 X-0.449 Y4.047 E0.01914
G1 X-0.884 Y3.407 E0.02426
G1 X-1.209 Y2.572 E0.02810
G1 X-1.514 Y2.670 E0.01004
G1 X-1.718 Y3.031 E0.01302
G1 X-2.138 Y3.497 E0.01967
G1 X-2.717 Y4.062 E0.02537
G1 X-2.948 Y4.202 E0.00845
G1 X-3.115 Y4.364 E0.00732
G1 X-3.293 Y4.480 E0.00664
G1 X-3.386 Y4.571 E0.00408
G1 X-3.780 Y4.871 E0.01553
G1 X-4.692 Y5.215 E0.03056
G1 X-5.694 Y5.243 E0.03142
G1 X-6.330 Y5.097 E0.02047
G1 X-6.948 Y4.766 E0.02197
G1 X-7.433 Y4.312 E0.02085
G1 X-7.722 Y3.920 E0.01527
G1 X-8.003 Y5.051 E0.03657
G1 X-8.191 Y5.443 E0.01362
G1 X-8.301 Y5.603 E0.00608
G1 X-8.534 Y6.095 E0.01706
G1 X-9.185 Y6.847 E0.03121
M204 S1250
G1 E-2.24000 F4200.000
;WIPE_START
G1 F7200.000
G1 X-8.534 Y6.095 E-0.55154
G1 X-8.301 Y5.603 E-0.30154
G1 X-8.241 Y5.515 E-0.05892
;WIPE_END
G1 E-0.04800 F4200.000
G1 Z0.550 F9000.000
G1 X-13.504 Y-2.445
G1 Z0.350
G1 E3.20000 F2400.000
M204 S800
G1 F1200.000
G1 X-12.630 Y-2.497 E0.02746
G1 X-11.856 Y-2.294 E0.02508
G1 X-11.728 Y-2.803 E0.01645
G1 X-11.621 Y-3.040 E0.00814
G1 X-11.502 Y-3.414 E0.01232
G1 X-11.365 Y-3.721 E0.01053
G1 X-11.249 Y-4.105 E0.01257
G1 X-11.142 Y-4.328 E0.00776
M204 S1250
G1 E-2.24000 F4200.000
;WIPE_START
M73 P14 R3
G1 F7200.000
G1 X-11.249 Y-4.105 E-0.13719
G1 X-11.365 Y-3.721 E-0.22221
G1 X-11.502 Y-3.414 E-0.18617
G1 X-11.621 Y-3.040 E-0.21767
G1 X-11.728 Y-2.803 E-0.14391
G1 X-11.730 Y-2.795 E-0.00485
;WIPE_END
G1 E-0.04800 F4200.000
G1 Z0.550 F9000.000
G1 X-7.895 Y-5.810
G1 Z0.350
G1 E3.20000 F2400.000
M204 S800
G1 F1200.000
G1 X-7.275 Y-5.612 E0.02041
G1 X-6.834 Y-5.338 E0.01626
G1 X-6.415 Y-4.913 E0.01873
G1 X-5.913 Y-4.875 E0.01580
G1 X-5.102 Y-4.558 E0.02731
G1 X-4.506 Y-4.048 E0.02459
G1 X-4.060 Y-3.435 E0.02377
G1 X-3.903 Y-3.101 E0.01157
G1 X-3.215 Y-3.175 E0.02169
G1 X-2.981 Y-3.474 E0.01189
G1 X-2.860 Y-3.746 E0.00935
G1 X-2.614 Y-4.156 E0.01500
G1 X-2.521 Y-4.408 E0.00841
G1 X-2.211 Y-4.982 E0.02046
G1 X-1.934 Y-5.558 E0.02004
G1 X-1.698 Y-5.867 E0.01219
G1 X-1.527 Y-6.147 E0.01030
G1 X-1.271 Y-6.405 E0.01139
G1 X-1.044 Y-6.678 E0.01113
G1 X-0.684 Y-6.962 E0.01437
M204 S1250
G1 E-2.24000 F4200.000
;WIPE_START
G1 F7200.000
G1 X-1.044 Y-6.678 E-0.25403
G1 X-1.271 Y-6.405 E-0.19676
G1 X-1.527 Y-6.147 E-0.20130
G1 X-1.698 Y-5.867 E-0.18199
G1 X-1.784 Y-5.755 E-0.07792
;WIPE_END
G1 E-0.04800 F4200.000
G1 Z0.550 F9000.000
G1 X2.602 Y-7.164
G1 Z0.350
G1 E3.20000 F2400.000
M204 S800
G1 F1200.000
G1 X2.980 Y-6.943 E0.01371
G1 X3.469 Y-6.479 E0.02117
G1 X3.859 Y-5.798 E0.02460
G1 X4.014 Y-5.226 E0.01859
G1 X4.182 Y-3.956 E0.04016
G1 X4.862 Y-4.967 E0.03821
G1 X5.464 Y-5.533 E0.02589
G1 X5.647 Y-5.743 E0.00874
G1 X5.804 Y-5.873 E0.00640
G1 X6.036 Y-6.186 E0.01220
G1 X6.264 Y-6.419 E0.01023
G1 X6.522 Y-6.729 E0.01265
G1 X7.087 Y-7.142 E0.02195
G1 X7.163 Y-7.172 E0.00255
M204 S1250
G1 E-2.24000 F4200.000
;WIPE_START
G1 F7200.000
G1 X7.087 Y-7.142 E-0.04499
G1 X6.522 Y-6.729 E-0.38790
G1 X6.264 Y-6.419 E-0.22366
G1 X6.036 Y-6.186 E-0.18080
G1 X5.955 Y-6.077 E-0.07466
;WIPE_END
G1 E-0.04800 F4200.000
G1 Z0.550 F9000.000
M73 P15 R3
G1 X10.408 Y-6.919
G1 Z0.350
G1 E3.20000 F2400.000
M204 S800
G1 F1200.000
G1 X10.559 Y-6.780 E0.00646
G1 X10.949 Y-6.816 E0.01228
M204 S1250
G1 X12.235 Y-6.570 F9000.000
M204 S800
G1 F1200.000
G1 X12.345 Y-6.531 E0.00367
G1 X12.386 Y-6.541 E0.00133
M204 S1250
G1 E-2.24000 F4200.000
;WIPE_START
G1 F7200.000
G1 X12.345 Y-6.531 E-0.02351
G1 X12.235 Y-6.570 E-0.06485
;WIPE_END
G1 E-0.87164 F4200.000
G1 Z0.550 F9000.000
G1 X11.914 Y0.169
G1 Z0.350
G1 E3.20000 F2400.000
M204 S800
G1 F1200.000
G1 X11.297 Y0.206 E0.01938
G1 X11.008 Y0.159 E0.00918
G1 X10.785 Y0.249 E0.00752
G1 X10.150 Y0.376 E0.02030
G1 X9.421 Y0.363 E0.02288
G1 X8.793 Y0.220 E0.02019
G1 X8.416 Y0.030 E0.01322
G1 X8.242 Y0.328 E0.01081
G1 X8.088 Y0.498 E0.00721
G1 X7.852 Y0.912 E0.01495
G1 X7.647 Y1.147 E0.00977
G1 X7.519 Y1.346 E0.00744
G1 X6.780 Y2.130 E0.03375
G1 X6.291 Y2.456 E0.01843
G1 X5.777 Y2.667 E0.01745
G1 X5.187 Y2.770 E0.01876
G1 X4.823 Y2.773 E0.01143
G1 X4.588 Y2.994 E0.01012
G1 X4.449 Y3.227 E0.00849
G1 X3.839 Y3.987 E0.03058
M204 S1250
G1 E-2.24000 F4200.000
;WIPE_START
G1 F7200.000
G1 X4.449 Y3.227 E-0.54040
G1 X4.588 Y2.994 E-0.14997
G1 X4.823 Y2.773 E-0.17878
G1 X4.900 Y2.772 E-0.04285
;WIPE_END
G1 E-0.04800 F4200.000
G1 Z0.550 F9000.000
G1 X3.783 Y-3.264
G1 Z0.350
G1 E3.20000 F2400.000
M204 S800
G1 F1200.000
G1 X4.036 Y-3.176 E0.00838
G1 X4.475 Y-3.728 E0.02212
G1 X4.584 Y-3.915 E0.00677
G1 X4.860 Y-4.267 E0.01403
G1 X5.140 Y-4.710 E0.01643
G1 X5.735 Y-5.271 E0.02564
M73 P16 R3
G1 X5.919 Y-5.481 E0.00876
G1 X6.077 Y-5.609 E0.00637
G1 X6.330 Y-5.950 E0.01332
G1 X6.546 Y-6.168 E0.00962
G1 X6.765 Y-6.440 E0.01096
G1 X7.290 Y-6.823 E0.02036
G1 X7.682 Y-6.977 E0.01322
G1 X8.149 Y-7.053 E0.01483
G1 X9.052 Y-7.050 E0.02831
G1 X9.684 Y-6.903 E0.02034
G1 X10.172 Y-6.628 E0.01758
G1 X10.417 Y-6.386 E0.01078
G1 X11.101 Y-6.455 E0.02156
G1 X11.637 Y-6.389 E0.01693
G1 X12.328 Y-6.134 E0.02310
G1 X12.680 Y-6.230 E0.01143
G1 X13.094 Y-6.264 E0.01303
G1 X13.597 Y-6.198 E0.01590
G1 X14.142 Y-5.978 E0.01843
G1 X14.686 Y-5.526 E0.02219
G1 X14.970 Y-5.122 E0.01546
G1 X15.152 Y-4.669 E0.01532
G1 X15.233 Y-4.049 E0.01959
G1 X15.153 Y-2.619 E0.04492
G1 X14.923 Y-2.064 E0.01883
G1 X14.559 Y-1.570 E0.01923
G1 X13.810 Y-0.918 E0.03112
G1 X13.299 Y-0.603 E0.01883
G1 X12.807 Y-0.418 E0.01648
G1 X12.497 Y-0.374 E0.00984
G1 X12.381 Y-0.324 E0.00394
G1 X11.956 Y-0.207 E0.01383
G1 X11.301 Y-0.172 E0.02057
G1 X10.963 Y-0.234 E0.01077
G1 X10.688 Y-0.115 E0.00940
G1 X10.134 Y-0.001 E0.01775
G1 X9.484 Y-0.009 E0.02036
G1 X8.904 Y-0.141 E0.01867
G1 X8.338 Y-0.446 E0.02015
G1 X8.084 Y-0.148 E0.01227
G1 X7.929 Y0.117 E0.00962
G1 X7.768 Y0.286 E0.00733
G1 X7.680 Y0.473 E0.00647
G1 X7.542 Y0.697 E0.00826
G1 X7.343 Y0.921 E0.00938
G1 X7.229 Y1.104 E0.00676
G1 X6.551 Y1.830 E0.03116
G1 X6.130 Y2.115 E0.01594
G1 X5.654 Y2.310 E0.01613
G1 X5.142 Y2.395 E0.01626
G1 X4.674 Y2.395 E0.01469
G1 X4.289 Y2.757 E0.01656
G1 X4.145 Y3.003 E0.00893
G1 X3.447 Y3.879 E0.03513
G1 X2.951 Y4.280 E0.02000
G1 X2.375 Y4.534 E0.01974
G1 X1.345 Y4.618 E0.03239
G1 X1.240 Y4.608 E0.00330
G1 X0.579 Y4.402 E0.02172
G1 X0.233 Y4.189 E0.01272
G1 X-0.148 Y3.819 E0.01667
G1 X-0.559 Y3.214 E0.02294
G1 X-0.800 Y2.582 E0.02120
G1 X-0.849 Y1.952 E0.01980
G1 X-1.530 Y2.279 E0.02370
G1 X-1.757 Y2.327 E0.00726
G1 X-2.014 Y2.796 E0.01677
G1 X-2.415 Y3.241 E0.01878
M73 P17 R3
G1 X-2.933 Y3.751 E0.02281
G1 X-3.184 Y3.904 E0.00923
G1 X-3.339 Y4.060 E0.00689
G1 X-3.534 Y4.187 E0.00730
G1 X-3.626 Y4.280 E0.00409
G1 X-3.985 Y4.553 E0.01416
G1 X-4.791 Y4.849 E0.02691
G1 X-5.675 Y4.865 E0.02773
G1 X-6.219 Y4.736 E0.01752
G1 X-6.708 Y4.474 E0.01741
G1 X-7.156 Y4.055 E0.01923
G1 X-7.326 Y3.798 E0.00967
G1 X-7.504 Y3.578 E0.00887
G1 X-7.805 Y3.074 E0.01839
G1 X-8.034 Y3.630 E0.01885
G1 X-8.078 Y3.877 E0.00786
G1 X-8.167 Y4.147 E0.00894
G1 X-8.352 Y4.906 E0.02448
G1 X-8.524 Y5.264 E0.01246
G1 X-8.630 Y5.414 E0.00575
G1 X-8.839 Y5.872 E0.01578
G1 X-9.414 Y6.548 E0.02784
G1 X-9.874 Y6.837 E0.01703
G1 X-10.255 Y6.968 E0.01262
G1 X-10.692 Y7.026 E0.01382
G1 X-12.084 Y7.030 E0.04365
G1 X-12.515 Y6.972 E0.01363
G1 X-13.115 Y6.740 E0.02018
G1 X-13.682 Y6.270 E0.02310
G1 X-14.271 Y5.500 E0.03039
G1 X-14.642 Y4.725 E0.02694
G1 X-14.838 Y3.743 E0.03138
G1 X-14.985 Y3.321 E0.01400
G1 X-15.039 Y2.967 E0.01125
G1 X-15.226 Y2.145 E0.02642
G1 X-15.241 Y-0.088 E0.07002
G1 X-15.027 Y-0.860 E0.02513
G1 X-14.712 Y-1.320 E0.01747
G1 X-14.354 Y-1.631 E0.01489
G1 X-13.911 Y-1.916 E0.01649
G1 X-13.484 Y-2.076 E0.01430
G1 X-12.643 Y-2.119 E0.02640
G1 X-12.091 Y-1.965 E0.01797
G1 X-11.682 Y-1.731 E0.01480
G1 X-11.463 Y-2.309 E0.01938
G1 X-11.376 Y-2.665 E0.01149
G1 X-11.268 Y-2.906 E0.00828
G1 X-11.153 Y-3.271 E0.01198
G1 X-11.010 Y-3.590 E0.01098
G1 X-10.901 Y-3.958 E0.01204
G1 X-10.707 Y-4.371 E0.01431
G1 X-10.420 Y-4.767 E0.01532
G1 X-9.937 Y-5.180 E0.01992
G1 X-9.475 Y-5.408 E0.01616
G1 X-8.956 Y-5.522 E0.01666
G1 X-8.176 Y-5.512 E0.02445
G1 X-7.454 Y-5.280 E0.02376
G1 X-7.054 Y-5.031 E0.01478
G1 X-6.584 Y-4.543 E0.02126
G1 X-6.016 Y-4.511 E0.01782
G1 X-5.319 Y-4.248 E0.02337
G1 X-4.797 Y-3.808 E0.02141
G1 X-4.377 Y-3.230 E0.02238
M73 P18 R3
G1 X-4.102 Y-2.619 E0.02101
G1 X-3.675 Y-2.748 E0.01399
G1 X-3.283 Y-2.789 E0.01235
G1 X-2.980 Y-2.791 E0.00949
G1 X-2.864 Y-3.012 E0.00782
G1 X-2.654 Y-3.279 E0.01065
G1 X-2.531 Y-3.563 E0.00971
G1 X-2.271 Y-3.994 E0.01578
G1 X-2.182 Y-4.242 E0.00824
G1 X-1.875 Y-4.811 E0.02028
G1 X-1.603 Y-5.376 E0.01965
G1 X-1.389 Y-5.651 E0.01096
G1 X-1.218 Y-5.929 E0.01022
G1 X-0.993 Y-6.150 E0.00990
G1 X-0.791 Y-6.397 E0.01001
G1 X-0.382 Y-6.725 E0.01642
G1 X0.119 Y-6.960 E0.01736
G1 X1.464 Y-7.057 E0.04227
G1 X2.008 Y-6.993 E0.01719
G1 X2.363 Y-6.868 E0.01181
G1 X2.737 Y-6.653 E0.01351
G1 X3.190 Y-6.224 E0.01955
G1 X3.502 Y-5.676 E0.01977
G1 X3.645 Y-5.148 E0.01715
G1 X3.666 Y-4.880 E0.00843
G1 X3.737 Y-4.513 E0.01172
G1 X3.746 Y-3.935 E0.01814
G1 X3.782 Y-3.679 E0.00810
G1 X3.783 Y-3.324 E0.01114
M204 S1250
G1 X3.450 Y-2.524 F9000.000
M204 S800
G1 F1200.000
G1 X3.762 Y-2.551 E0.00982
G1 X4.042 Y-2.504 E0.00890
G1 X4.244 Y-2.816 E0.01164
G1 X4.364 Y-2.946 E0.00556
G1 X4.479 Y-3.146 E0.00722
G1 X4.785 Y-3.510 E0.01491
G1 X4.890 Y-3.694 E0.00664
G1 X5.170 Y-4.053 E0.01428
G1 X5.417 Y-4.454 E0.01475
G1 X6.010 Y-5.011 E0.02551
G1 X6.170 Y-5.199 E0.00777
G1 X6.334 Y-5.331 E0.00658
G1 X6.494 Y-5.515 E0.00766
G1 X6.616 Y-5.702 E0.00700
G1 X6.827 Y-5.916 E0.00942
G1 X7.042 Y-6.182 E0.01073
G1 X7.487 Y-6.501 E0.01715
G1 X7.796 Y-6.617 E0.01034
G1 X8.165 Y-6.676 E0.01172
G1 X8.993 Y-6.677 E0.02595
G1 X9.524 Y-6.560 E0.01707
G1 X9.961 Y-6.315 E0.01570
G1 X10.312 Y-5.945 E0.01599
G1 X10.566 Y-6.022 E0.00834
G1 X11.077 Y-6.078 E0.01610
G1 X11.571 Y-6.017 E0.01561
G1 X12.038 Y-5.851 E0.01554
G1 X12.245 Y-5.718 E0.00772
G1 X12.730 Y-5.856 E0.01579
G1 X13.105 Y-5.886 E0.01181
G1 X13.484 Y-5.838 E0.01198
G1 X13.926 Y-5.668 E0.01484
G1 X14.425 Y-5.253 E0.02037
G1 X14.630 Y-4.958 E0.01124
G1 X14.782 Y-4.594 E0.01236
G1 X14.857 Y-4.017 E0.01825
G1 X14.791 Y-2.730 E0.04042
G1 X14.603 Y-2.265 E0.01571
G1 X14.299 Y-1.846 E0.01625
G1 X13.856 Y-1.474 E0.01814
G1 X13.593 Y-1.227 E0.01130
G1 X13.118 Y-0.934 E0.01751
G1 X12.699 Y-0.780 E0.01399
G1 X12.392 Y-0.742 E0.00971
G1 X12.261 Y-0.682 E0.00451
G1 X11.914 Y-0.582 E0.01134
G1 X11.307 Y-0.550 E0.01905
G1 X10.920 Y-0.629 E0.01239
G1 X10.587 Y-0.479 E0.01143
G1 X10.114 Y-0.378 E0.01517
G1 X9.547 Y-0.382 E0.01777
M73 P19 R3
G1 X9.016 Y-0.502 E0.01709
G1 X8.671 Y-0.697 E0.01244
G1 X8.232 Y-0.903 E0.01519
G1 X7.772 Y-0.364 E0.02221
G1 X7.638 Y-0.125 E0.00860
G1 X7.481 Y0.040 E0.00712
G1 X7.401 Y0.162 E0.00456
G1 X7.348 Y0.294 E0.00447
G1 X7.231 Y0.484 E0.00700
G1 X7.042 Y0.691 E0.00880
G1 X6.922 Y0.883 E0.00709
G1 X6.659 Y1.146 E0.01166
G1 X6.316 Y1.534 E0.01626
G1 X5.967 Y1.774 E0.01325
G1 X5.532 Y1.953 E0.01476
G1 X5.100 Y2.020 E0.01369
G1 X4.461 Y2.016 E0.02004
G1 X4.337 Y2.194 E0.00680
G1 X3.989 Y2.522 E0.01500
G1 X3.845 Y2.774 E0.00908
G1 X3.470 Y3.224 E0.01839
G1 X3.404 Y3.341 E0.00421
M73 P19 R2
G1 X3.193 Y3.600 E0.01048
G1 X2.774 Y3.946 E0.01703
G1 X2.253 Y4.175 E0.01785
G1 X1.306 Y4.237 E0.02976
G1 X0.717 Y4.051 E0.01936
G1 X0.453 Y3.883 E0.00983
G1 X0.153 Y3.591 E0.01310
G1 X-0.234 Y3.021 E0.02161
G1 X-0.436 Y2.480 E0.01812
G1 X-0.497 Y1.377 E0.03463
G1 X-0.867 Y1.522 E0.01248
G1 X-1.048 Y1.645 E0.00687
G1 X-1.346 Y1.765 E0.01006
G1 X-1.468 Y1.842 E0.00454
G1 X-1.654 Y1.922 E0.00634
G1 X-2.071 Y1.997 E0.01328
G1 X-2.158 Y2.279 E0.00925
G1 X-2.309 Y2.561 E0.01004
G1 X-2.683 Y2.976 E0.01752
G1 X-3.179 Y3.465 E0.02182
G1 X-3.415 Y3.602 E0.00856
G1 X-3.589 Y3.777 E0.00774
G1 X-3.775 Y3.892 E0.00684
G1 X-3.868 Y3.990 E0.00424
G1 X-4.191 Y4.236 E0.01275
G1 X-4.830 Y4.473 E0.02134
G1 X-5.658 Y4.488 E0.02597
G1 X-6.066 Y4.390 E0.01317
G1 X-6.470 Y4.181 E0.01426
G1 X-6.879 Y3.798 E0.01757
G1 X-7.018 Y3.579 E0.00812
G1 X-7.201 Y3.352 E0.00914
G1 X-7.540 Y2.773 E0.02105
G1 X-7.696 Y2.297 E0.01570
G1 X-8.052 Y2.361 E0.01134
G1 X-8.195 Y2.774 E0.01371
G1 X-8.268 Y3.207 E0.01378
G1 X-8.399 Y3.526 E0.01081
G1 X-8.441 Y3.773 E0.00785
G1 X-8.531 Y4.045 E0.00899
G1 X-8.701 Y4.762 E0.02309
G1 X-8.856 Y5.084 E0.01122
G1 X-8.958 Y5.225 E0.00546
G1 X-9.147 Y5.653 E0.01466
G1 X-9.641 Y6.245 E0.02420
G1 X-10.054 Y6.505 E0.01531
