; generated by PrusaSlicer 2.3.3+win64 on 2021-10-12 at 15:37:40 UTC

; 

; external perimeters extrusion width = 0.45mm
; perimeters extrusion width = 0.45mm
; infill extrusion width = 0.45mm
; solid infill extrusion width = 0.45mm
; top infill extrusion width = 0.40mm
; first layer extrusion width = 0.42mm

M73 P0 R7
M201 X1250 Y1250 Z400 E5000 ; sets maximum accelerations, mm/sec^2
M203 X180 Y180 Z12 E80 ; sets maximum feedrates, mm/sec
M204 P1250 R1250 T1250 ; sets acceleration (P, T) and retract acceleration (R), mm/sec^2
M205 X8.00 Y8.00 Z2.00 E10.00 ; sets the jerk limits, mm/sec
M205 S0 T0 ; sets the minimum extruding and travel feed rate, mm/sec
M107
;TYPE:Custom
G90 ; use absolute coordinates
M83 ; extruder relative mode
M104 S170 ; set extruder temp for bed leveling
M140 S60 ; set bed temp
M109 R170 ; wait for bed leveling temp
M190 S60 ; wait for bed temp
G28 ; home all without mesh bed level
G29 ; mesh bed leveling 
M104 S215 ; set extruder temp
G92 E0.0
G1 Y-2.0 X179 F2400
M73 P1 R7
G1 Z3 F720
M109 S215 ; wait for extruder temp

; intro line
G1 X170 F1000
G1 Z0.2 F720
G1 X110.0 E8.0 F900
M73 P2 R6
G1 X40.0 E10.0 F700
G92 E0.0

M221 S95 ; set flow
G21 ; set units to millimeters
G90 ; use absolute coordinates
M83 ; use relative distances for extrusion
M900 K0.2 ; Filament gcode LA 1.5
; ; Filament gcode LA 1.0
;LAYER_CHANGE
;Z:0.35
;HEIGHT:0.35
;BEFORE_LAYER_CHANGE
G92 E0.0
;0.35


M73 P3 R6
G1 Z0.350 F9000.000
;AFTER_LAYER_CHANGE
;0.35
G1 E-3.20000 F4200.000
G1 Z0.550 F9000.000
G1 X102.686 Y110.421
M73 P4 R6
G1 Z0.350
G1 E3.20000 F2400.000
M204 S800
;TYPE:Skirt
;WIDTH:0.42
G1 F1200.000
G1 X102.531 Y109.547 E0.04458
G1 X102.534 Y105.876 E0.18422
G1 X102.649 Y105.203 E0.03427
G1 X102.948 Y104.506 E0.03803
G1 X103.386 Y103.925 E0.03652
G1 X108.356 Y99.020 E0.35044
G1 X108.854 Y98.648 E0.03121
G1 X109.475 Y98.367 E0.03420
G1 X109.988 Y98.243 E0.02650
G1 X117.296 Y97.261 E0.37002
G1 X140.854 Y97.257 E1.18233
G1 X141.488 Y97.309 E0.03193
G1 X142.057 Y97.480 E0.02978
G1 X142.738 Y97.841 E0.03871
G1 X143.234 Y98.260 E0.03259
G1 X146.865 Y102.800 E0.29173
G1 X147.218 Y103.420 E0.03579
G1 X147.407 Y103.995 E0.03039
G1 X147.471 Y104.658 E0.03340
G1 X147.440 Y106.660 E0.10048
G1 X147.295 Y107.252 E0.03060
G1 X146.860 Y108.246 E0.05446
G1 X146.336 Y109.187 E0.05405
G1 X145.222 Y110.557 E0.08865
M73 P5 R6
G1 X144.614 Y111.098 E0.04081
G1 X143.837 Y111.497 E0.04386
G1 X142.866 Y111.709 E0.04987
G1 X119.566 Y112.672 E1.17034
G1 X105.743 Y112.741 E0.69370
G1 X104.804 Y112.570 E0.04793
G1 X103.812 Y112.037 E0.05650
G1 X103.169 Y111.370 E0.04650
G1 X102.713 Y110.475 E0.05043
M204 S1250
G1 E-2.24000 F4200.000
;WIPE_START
G1 F7200.000
G1 X102.531 Y109.547 E-0.52410
G1 X102.532 Y108.847 E-0.38790
;WIPE_END
G1 E-0.04800 F4200.000
G1 Z0.550 F9000.000
G1 X104.032 Y111.731
G1 Z0.350
G1 E3.20000 F2400.000
M204 S800
G1 F1200.000
G1 X103.469 Y111.140 E0.04094
G1 X103.035 Y110.277 E0.04851
G1 X102.908 Y109.522 E0.03843
G1 X102.910 Y105.893 E0.18208
G1 X103.013 Y105.302 E0.03012
G1 X103.283 Y104.680 E0.03402
G1 X103.660 Y104.184 E0.03126
G1 X108.615 Y99.294 E0.34943
G1 X109.065 Y98.961 E0.02804
G1 X109.635 Y98.710 E0.03127
G1 X117.313 Y97.637 E0.38906
G1 X140.854 Y97.634 E1.18145
M73 P6 R6
G1 X141.416 Y97.679 E0.02827
G1 X141.914 Y97.829 E0.02614
G1 X142.533 Y98.158 E0.03517
G1 X142.974 Y98.533 E0.02905
G1 X146.555 Y103.016 E0.28797
G1 X146.873 Y103.571 E0.03207
G1 X147.037 Y104.069 E0.02633
G1 X147.094 Y104.666 E0.03011
G1 X147.066 Y106.608 E0.09744
G1 X146.938 Y107.132 E0.02709
G1 X146.522 Y108.077 E0.05179
G1 X146.030 Y108.966 E0.05103
G1 X144.953 Y110.293 E0.08575
G1 X144.402 Y110.786 E0.03709
G1 X143.695 Y111.146 E0.03985
G1 X142.846 Y111.333 E0.04362
G1 X119.552 Y112.295 E1.17003
G1 X105.766 Y112.365 E0.69186
G1 X104.934 Y112.216 E0.04244
G1 X104.085 Y111.759 E0.04836
M204 S1250
G1 E-2.24000 F4200.000
;WIPE_START
M73 P7 R6
G1 F7200.000
G1 X103.469 Y111.140 E-0.48384
G1 X103.122 Y110.450 E-0.42816
;WIPE_END
G1 E-0.04800 F4200.000
G1 Z0.550 F9000.000
G1 X104.617 Y103.504
G1 Z0.350
G1 E3.20000 F2400.000
M204 S800
;HEIGHT:0.2
G1 F1200.000
G1 X104.940 Y103.407 E0.01058
G1 X105.512 Y103.336 E0.01808
G1 X106.094 Y103.343 E0.01822
G1 X106.467 Y103.420 E0.01196
G1 X106.817 Y102.590 E0.02826
G1 X107.183 Y101.471 E0.03690
G1 X107.652 Y100.510 E0.03353
M204 S1250
G1 E-2.24000 F4200.000
;WIPE_START
G1 F7200.000
G1 X107.183 Y101.471 E-0.59263
G1 X107.004 Y102.019 E-0.31937
;WIPE_END
G1 E-0.04800 F4200.000
G1 Z0.550 F9000.000
G1 X112.813 Y98.457
G1 Z0.350
G1 E3.20000 F2400.000
M204 S800
G1 F1200.000
G1 X113.280 Y98.526 E0.01481
G1 X113.677 Y98.682 E0.01335
G1 X113.938 Y98.857 E0.00986
G1 X114.312 Y99.055 E0.01326
G1 X114.533 Y99.231 E0.00888
G1 X114.852 Y98.860 E0.01533
G1 X115.390 Y98.381 E0.02258
G1 X115.552 Y98.197 E0.00770
G1 X115.769 Y98.043 E0.00835
M204 S1250
G1 E-2.24000 F4200.000
;WIPE_START
G1 F7200.000
G1 X115.552 Y98.197 E-0.14759
G1 X115.390 Y98.381 E-0.13605
G1 X114.852 Y98.860 E-0.39903
G1 X114.582 Y99.174 E-0.22933
;WIPE_END
G1 E-0.04800 F4200.000
G1 Z0.550 F9000.000
G1 X119.148 Y97.826
G1 Z0.350
G1 E3.20000 F2400.000
M204 S800
G1 F1200.000
G1 X119.364 Y97.974 E0.00824
G1 X119.720 Y98.340 E0.01600
G1 X119.935 Y98.518 E0.00874
G1 X120.193 Y98.871 E0.01370
G1 X120.295 Y99.124 E0.00857
G1 X120.542 Y99.607 E0.01702
G1 X120.625 Y99.870 E0.00863
G1 X120.710 Y100.509 E0.02020
G1 X120.769 Y100.681 E0.00573
G1 X120.828 Y101.041 E0.01143
G1 X120.956 Y101.370 E0.01107
G1 X121.026 Y102.060 E0.02176
G1 X121.112 Y102.417 E0.01149
G1 X121.162 Y103.003 E0.01844
G1 X121.869 Y102.700 E0.02414
G1 X122.113 Y102.563 E0.00874
G1 X122.888 Y102.321 E0.02548
G1 X123.228 Y102.251 E0.01086
G1 X123.593 Y102.217 E0.01151
G1 X123.932 Y102.256 E0.01071
G1 X124.350 Y101.811 E0.01915
G1 X124.679 Y101.529 E0.01358
G1 X124.929 Y101.363 E0.00941
G1 X125.039 Y101.088 E0.00928
G1 X125.192 Y100.833 E0.00932
G1 X125.334 Y100.658 E0.00708
G1 X125.469 Y100.418 E0.00861
G1 X125.828 Y100.051 E0.01610
G1 X126.335 Y99.727 E0.01888
G1 X126.444 Y99.503 E0.00782
G1 X126.702 Y99.102 E0.01492
G1 X127.187 Y98.577 E0.02242
G1 X127.450 Y98.395 E0.01003
G1 X127.690 Y98.175 E0.01020
G1 X127.970 Y97.970 E0.01089
G1 X128.372 Y97.824 E0.01342
M204 S1250
G1 E-2.24000 F4200.000
;WIPE_START
G1 F7200.000
G1 X127.970 Y97.970 E-0.23726
G1 X127.690 Y98.175 E-0.19251
G1 X127.450 Y98.395 E-0.18032
G1 X127.187 Y98.577 E-0.17733
G1 X127.034 Y98.742 E-0.12458
;WIPE_END
G1 E-0.04800 F4200.000
G1 Z0.550 F9000.000
G1 X131.221 Y97.824
G1 Z0.350
G1 E3.20000 F2400.000
M204 S800
G1 F1200.000
G1 X131.439 Y97.945 E0.00781
G1 X131.933 Y98.449 E0.02214
G1 X132.045 Y98.628 E0.00661
G1 X132.357 Y98.931 E0.01366
G1 X132.595 Y99.350 E0.01512
G1 X132.658 Y99.533 E0.00606
G1 X132.712 Y100.056 E0.01648
G1 X132.790 Y100.343 E0.00933
G1 X132.799 Y100.589 E0.00770
G1 X132.848 Y100.836 E0.00789
G1 X132.968 Y101.202 E0.01210
G1 X132.995 Y101.676 E0.01489
G1 X133.028 Y101.915 E0.00755
G1 X133.159 Y102.194 E0.00968
G1 X134.211 Y101.825 E0.03494
G1 X135.228 Y101.785 E0.03193
G1 X135.616 Y101.296 E0.01956
G1 X136.036 Y100.872 E0.01872
G1 X136.226 Y100.712 E0.00778
G1 X136.543 Y100.305 E0.01618
G1 X137.186 Y99.670 E0.02833
G1 X137.378 Y99.418 E0.00995
G1 X137.630 Y99.209 E0.01025
G1 X137.761 Y99.139 E0.00466
G1 X138.204 Y98.639 E0.02093
G1 X138.895 Y98.130 E0.02692
G1 X139.540 Y97.823 E0.02239
M204 S1250
G1 E-2.24000 F4200.000
;WIPE_START
G1 F7200.000
G1 X138.895 Y98.130 E-0.39577
G1 X138.204 Y98.639 E-0.47575
G1 X138.156 Y98.694 E-0.04048
;WIPE_END
G1 E-0.04800 F4200.000
G1 Z0.550 F9000.000
G1 X143.898 Y99.993
G1 Z0.350
G1 E3.20000 F2400.000
M204 S800
G1 F1200.000
G1 X143.946 Y100.124 E0.00436
M73 P8 R6
G1 X143.978 Y100.426 E0.00953
G1 X143.968 Y100.589 E0.00513
G1 X144.008 Y100.881 E0.00922
G1 X144.075 Y101.138 E0.00835
G1 X144.114 Y101.563 E0.01337
G1 X144.219 Y101.847 E0.00947
G1 X145.188 Y101.868 E0.03040
G1 X145.438 Y101.920 E0.00800
M204 S1250
G1 E-2.24000 F4200.000
;WIPE_START
G1 F7200.000
G1 X145.188 Y101.868 E-0.14141
G1 X144.219 Y101.847 E-0.53727
G1 X144.114 Y101.563 E-0.16746
G1 X144.103 Y101.445 E-0.06587
;WIPE_END
G1 E-0.04800 F4200.000
G1 Z0.550 F9000.000
G1 X141.575 Y111.197
G1 Z0.350
G1 E3.20000 F2400.000
M204 S800
G1 F1200.000
G1 X141.366 Y111.110 E0.00709
G1 X141.083 Y111.054 E0.00907
G1 X140.621 Y110.814 E0.01631
G1 X139.603 Y109.831 E0.04437
G1 X139.436 Y109.591 E0.00918
G1 X139.293 Y109.276 E0.01085
G1 X139.245 Y109.042 E0.00748
G1 X139.154 Y108.854 E0.00654
G1 X139.088 Y108.655 E0.00657
G1 X138.817 Y108.083 E0.01986
G1 X138.243 Y108.338 E0.01969
G1 X137.740 Y108.429 E0.01603
G1 X137.579 Y108.432 E0.00505
G1 X137.466 Y108.502 E0.00416
G1 X137.018 Y108.977 E0.02047
G1 X136.483 Y109.263 E0.01902
G1 X135.906 Y109.370 E0.01840
G1 X134.754 Y109.400 E0.03616
G1 X134.458 Y109.785 E0.01522
G1 X134.301 Y109.945 E0.00704
G1 X134.078 Y110.093 E0.00839
G1 X133.767 Y110.393 E0.01353
G1 X133.555 Y110.518 E0.00772
G1 X133.311 Y110.794 E0.01155
G1 X133.022 Y110.983 E0.01083
G1 X132.789 Y111.069 E0.00780
G1 X132.540 Y111.262 E0.00987
G1 X132.088 Y111.437 E0.01519
G1 X131.662 Y111.471 E0.01339
G1 X131.320 Y111.558 E0.01107
G1 X130.893 Y111.549 E0.01338
G1 X130.672 Y111.493 E0.00715
G1 X130.393 Y111.466 E0.00879
G1 X130.102 Y111.373 E0.00959
G1 X129.545 Y111.089 E0.01958
G1 X129.011 Y110.719 E0.02037
G1 X128.575 Y110.254 E0.02000
G1 X128.301 Y109.817 E0.01615
G1 X128.088 Y109.350 E0.01611
G1 X128.005 Y109.002 E0.01120
G1 X127.894 Y108.689 E0.01044
G1 X127.850 Y108.482 E0.00662
G1 X127.664 Y107.937 E0.01805
G1 X127.265 Y108.329 E0.01754
G1 X127.039 Y108.467 E0.00829
G1 X126.902 Y108.633 E0.00675
G1 X126.753 Y108.766 E0.00626
G1 X126.598 Y108.859 E0.00567
G1 X126.303 Y109.257 E0.01551
G1 X125.813 Y109.747 E0.02173
G1 X125.660 Y109.856 E0.00589
G1 X125.022 Y110.085 E0.02123
G1 X123.917 Y110.133 E0.03470
G1 X123.631 Y110.090 E0.00907
G1 X123.315 Y110.428 E0.01450
G1 X122.882 Y110.734 E0.01661
G1 X122.732 Y110.907 E0.00718
G1 X122.482 Y111.099 E0.00988
G1 X122.172 Y111.234 E0.01061
G1 X122.069 Y111.315 E0.00411
G1 X121.793 Y111.470 E0.00992
G1 X121.514 Y111.554 E0.00913
G1 X121.002 Y112.046 E0.02229
M204 S1250
G1 E-2.24000 F4200.000
;WIPE_START
G1 F7200.000
G1 X121.514 Y111.554 E-0.39390
G1 X121.793 Y111.470 E-0.16136
G1 X122.069 Y111.315 E-0.17541
G1 X122.172 Y111.234 E-0.07268
G1 X122.352 Y111.155 E-0.10864
;WIPE_END
G1 E-0.04800 F4200.000
G1 Z0.550 F9000.000
G1 X117.936 Y112.114
G1 Z0.350
G1 E3.20000 F2400.000
M204 S800
G1 F1200.000
G1 X117.773 Y112.035 E0.00571
G1 X117.366 Y111.892 E0.01351
G1 X117.047 Y111.669 E0.01220
G1 X116.915 Y111.528 E0.00607
G1 X116.718 Y111.373 E0.00784
G1 X116.496 Y111.102 E0.01099
G1 X116.358 Y110.820 E0.00985
G1 X116.135 Y110.454 E0.01343
G1 X115.897 Y109.819 E0.02126
G1 X115.502 Y107.832 E0.06350
G1 X115.157 Y108.382 E0.02036
G1 X114.550 Y108.922 E0.02547
G1 X114.180 Y109.117 E0.01311
G1 X113.863 Y109.210 E0.01036
G1 X113.471 Y109.231 E0.01230
G1 X113.310 Y109.267 E0.00518
G1 X113.036 Y109.285 E0.00863
G1 X112.742 Y109.243 E0.00929
G1 X112.080 Y109.235 E0.02076
G1 X111.482 Y109.036 E0.01978
G1 X111.323 Y108.931 E0.00594
G1 X110.988 Y108.618 E0.01438
G1 X110.850 Y108.968 E0.01177
G1 X110.806 Y109.283 E0.00998
G1 X110.723 Y109.577 E0.00958
G1 X110.396 Y110.221 E0.02266
G1 X110.095 Y110.659 E0.01665
G1 X109.527 Y111.223 E0.02512
G1 X109.211 Y111.637 E0.01633
G1 X108.845 Y111.910 E0.01431
G1 X108.385 Y112.163 E0.01647
M204 S1250
G1 E-2.24000 F4200.000
;WIPE_START
G1 F7200.000
G1 X108.845 Y111.910 E-0.29108
G1 X109.211 Y111.637 E-0.25288
G1 X109.527 Y111.223 E-0.28861
G1 X109.628 Y111.122 E-0.07942
;WIPE_END
G1 E-0.04800 F4200.000
G1 Z0.550 F9000.000
G1 X129.708 Y97.855
G1 Z0.350
G1 E3.20000 F2400.000
M204 S800
G1 F1200.000
G1 X130.072 Y97.869 E0.01143
G1 X130.345 Y97.961 E0.00903
G1 X130.802 Y98.022 E0.01445
G1 X131.230 Y98.260 E0.01536
G1 X131.644 Y98.692 E0.01876
G1 X131.747 Y98.866 E0.00636
G1 X132.044 Y99.144 E0.01274
G1 X132.257 Y99.519 E0.01352
G1 X132.293 Y99.628 E0.00361
G1 X132.340 Y100.128 E0.01574
G1 X132.414 Y100.382 E0.00828
M73 P9 R6
G1 X132.423 Y100.632 E0.00787
G1 X132.483 Y100.936 E0.00972
G1 X132.593 Y101.252 E0.01047
G1 X132.619 Y101.713 E0.01449
G1 X132.663 Y102.023 E0.00982
G1 X132.760 Y102.231 E0.00719
G1 X132.801 Y102.383 E0.00493
G1 X132.834 Y102.877 E0.01554
G1 X133.478 Y102.482 E0.02370
G1 X134.255 Y102.200 E0.02593
G1 X135.168 Y102.165 E0.02865
G1 X135.350 Y102.197 E0.00580
G1 X135.587 Y101.944 E0.01084
G1 X135.660 Y101.828 E0.00430
G1 X135.897 Y101.548 E0.01152
G1 X136.297 Y101.144 E0.01781
G1 X136.498 Y100.976 E0.00821
G1 X136.833 Y100.547 E0.01707
G1 X137.473 Y99.917 E0.02816
G1 X137.638 Y99.692 E0.00874
G1 X137.850 Y99.516 E0.00865
G1 X138.039 Y99.424 E0.00659
G1 X138.115 Y99.300 E0.00456
G1 X138.444 Y98.931 E0.01548
G1 X139.104 Y98.444 E0.02575
G1 X139.782 Y98.121 E0.02354
G1 X140.449 Y97.949 E0.02160
G1 X141.324 Y97.950 E0.02742
G1 X141.608 Y98.002 E0.00905
G1 X141.990 Y98.162 E0.01300
G1 X142.374 Y98.389 E0.01399
G1 X143.032 Y98.908 E0.02628
M204 S1250
G1 X143.134 Y99.035 F9000.000
M204 S800
G1 F1200.000
G1 X143.334 Y99.327 E0.01109
G1 X143.388 Y99.469 E0.00478
G1 X143.455 Y99.878 E0.01297
G1 X143.573 Y100.189 E0.01045
G1 X143.601 Y100.447 E0.00812
G1 X143.589 Y100.599 E0.00479
G1 X143.638 Y100.957 E0.01133
G1 X143.701 Y101.190 E0.00759
G1 X143.744 Y101.647 E0.01438
G1 X143.823 Y101.863 E0.00722
G1 X143.881 Y102.292 E0.01356
G1 X144.241 Y102.224 E0.01150
G1 X145.161 Y102.244 E0.02885
G1 X145.397 Y102.296 E0.00759
G1 X145.872 Y102.558 E0.01701
G1 X146.306 Y103.006 E0.01955
M204 S1250
G1 X146.764 Y103.843 F9000.000
M204 S800
G1 F1200.000
G1 X146.791 Y104.670 E0.02595
G1 X146.791 Y105.623 E0.02989
G1 X146.885 Y106.111 E0.01557
M204 S1250
G1 X146.880 Y106.472 F9000.000
M204 S800
G1 F1200.000
G1 X146.856 Y106.642 E0.00541
G1 X146.583 Y107.199 E0.01944
G1 X146.490 Y107.475 E0.00913
G1 X146.297 Y107.844 E0.01304
G1 X146.219 Y108.060 E0.00722
G1 X146.086 Y108.273 E0.00787
G1 X145.835 Y108.763 E0.01728
G1 X145.428 Y109.207 E0.01885
G1 X145.295 Y109.385 E0.00699
G1 X145.139 Y109.513 E0.00632
G1 X145.075 Y109.700 E0.00619
G1 X144.780 Y110.195 E0.01805
M204 S1250
G1 X144.379 Y110.553 F9000.000
M204 S800
G1 F1200.000
G1 X144.149 Y110.647 E0.00781
G1 X143.967 Y110.796 E0.00735
M204 S1250
G1 X143.923 Y110.818 F9000.000
M204 S800
G1 F1200.000
G1 X143.511 Y110.989 E0.01397
G1 X142.735 Y111.034 E0.02437
G1 X142.239 Y111.007 E0.01560
G1 X141.654 Y110.827 E0.01917
G1 X141.477 Y110.746 E0.00612
G1 X141.223 Y110.702 E0.00808
G1 X140.860 Y110.522 E0.01269
G1 X139.899 Y109.596 E0.04183
G1 X139.771 Y109.418 E0.00690
G1 X139.647 Y109.143 E0.00944
G1 X139.607 Y108.923 E0.00702
G1 X139.507 Y108.723 E0.00701
G1 X139.439 Y108.515 E0.00685
G1 X139.187 Y107.983 E0.01848
G1 X139.022 Y107.303 E0.02192
G1 X138.653 Y107.702 E0.01705
G1 X138.531 Y107.797 E0.00484
G1 X138.151 Y107.971 E0.01310
G1 X137.692 Y108.054 E0.01464
G1 X137.475 Y108.054 E0.00679
G1 X137.222 Y108.208 E0.00930
G1 X136.806 Y108.663 E0.01932
G1 X136.382 Y108.899 E0.01522
G1 X135.881 Y108.994 E0.01598
G1 X134.818 Y109.021 E0.03335
G1 X134.631 Y109.002 E0.00590
G1 X134.361 Y109.275 E0.01205
G1 X134.176 Y109.534 E0.00996
G1 X134.048 Y109.665 E0.00574
G1 X133.845 Y109.794 E0.00756
G1 X133.524 Y110.103 E0.01393
G1 X133.312 Y110.222 E0.00765
G1 X133.080 Y110.495 E0.01123
G1 X132.837 Y110.654 E0.00909
G1 X132.602 Y110.733 E0.00780
G1 X132.368 Y110.925 E0.00949
G1 X132.028 Y111.063 E0.01151
G1 X131.595 Y111.098 E0.01362
G1 X131.294 Y111.180 E0.00978
G1 X130.963 Y111.178 E0.01040
G1 X130.732 Y111.119 E0.00746
G1 X130.486 Y111.100 E0.00775
G1 X130.241 Y111.022 E0.00804
G1 X130.036 Y110.902 E0.00745
G1 X129.741 Y110.766 E0.01019
G1 X129.272 Y110.446 E0.01781
G1 X128.863 Y110.010 E0.01874
G1 X128.638 Y109.648 E0.01336
G1 X128.450 Y109.244 E0.01398
G1 X128.368 Y108.895 E0.01122
G1 X128.254 Y108.576 E0.01063
G1 X128.215 Y108.383 E0.00616
G1 X128.130 Y108.138 E0.00814
G1 X128.091 Y107.932 E0.00658
G1 X127.961 Y107.540 E0.01294
G1 X127.892 Y107.113 E0.01357
G1 X127.624 Y107.069 E0.00852
G1 X127.213 Y107.852 E0.02772
