; generated by PrusaSlicer 2.3.3+win64 on 2021-10-12 at 15:31:08 UTC

; 

; external perimeters extrusion width = 0.45mm
; perimeters extrusion width = 0.45mm
; infill extrusion width = 0.45mm
; solid infill extrusion width = 0.45mm
; top infill extrusion width = 0.40mm
; first layer extrusion width = 0.42mm

M73 P0 R6
M201 X1250 Y1250 Z400 E5000 ; sets maximum accelerations, mm/sec^2
M203 X180 Y180 Z12 E80 ; sets maximum feedrates, mm/sec
M204 P1250 R1250 T1250 ; sets acceleration (P, T) and retract acceleration (R), mm/sec^2
M205 X8.00 Y8.00 Z2.00 E10.00 ; sets the jerk limits, mm/sec
M205 S0 T0 ; sets the minimum extruding and travel feed rate, mm/sec
M107
;TYPE:Custom
G90 ; use absolute coordinates
M83 ; extruder relative mode
M104 S170 ; set extruder temp for bed leveling
M140 S60 ; set bed temp
M109 R170 ; wait for bed leveling temp
M190 S60 ; wait for bed temp
G28 ; home all without mesh bed level
G29 ; mesh bed leveling 
M104 S215 ; set extruder temp
G92 E0.0
G1 Y-2.0 X179 F2400
M73 P1 R6
G1 Z3 F720
M109 S215 ; wait for extruder temp

; intro line
G1 X170 F1000
G1 Z0.2 F720
G1 X110.0 E8.0 F900
M73 P2 R6
G1 X40.0 E10.0 F700
G92 E0.0

M221 S95 ; set flow
G21 ; set units to millimeters
G90 ; use absolute coordinates
M83 ; use relative distances for extrusion
M900 K0.2 ; Filament gcode LA 1.5
; ; Filament gcode LA 1.0
;LAYER_CHANGE
;Z:0.35
;HEIGHT:0.35
;BEFORE_LAYER_CHANGE
G92 E0.0
;0.35


M73 P4 R6
G1 Z0.350 F9000.000
;AFTER_LAYER_CHANGE
;0.35
G1 E-3.20000 F4200.000
G1 Z0.550 F9000.000
G1 X104.226 Y101.311
M73 P4 R5
G1 Z0.350
G1 E3.20000 F2400.000
M204 S800
;TYPE:Skirt
;WIDTH:0.42
G1 F1200.000
G1 X106.929 Y98.902 E0.18173
G1 X108.355 Y98.195 E0.07987
G1 X109.084 Y97.960 E0.03845
G1 X118.189 Y97.266 E0.45824
M73 P5 R5
G1 X142.617 Y97.265 E1.22595
G1 X143.374 Y97.362 E0.03828
G1 X144.107 Y97.653 E0.03960
G1 X144.751 Y98.091 E0.03908
G1 X145.308 Y98.708 E0.04173
G1 X145.601 Y99.207 E0.02902
G1 X145.827 Y99.801 E0.03191
G1 X146.429 Y102.868 E0.15688
G1 X146.445 Y107.967 E0.25589
G1 X146.322 Y108.815 E0.04301
G1 X145.971 Y109.573 E0.04191
G1 X145.490 Y110.151 E0.03774
G1 X144.793 Y110.623 E0.04222
G1 X144.070 Y110.869 E0.03835
G1 X111.453 Y112.730 E1.63958
M73 P6 R5
G1 X110.714 Y112.696 E0.03713
G1 X110.179 Y112.558 E0.02773
G1 X109.538 Y112.264 E0.03537
G1 X108.685 Y111.573 E0.05510
G1 X104.142 Y105.893 E0.36502
G1 X103.804 Y105.316 E0.03355
G1 X103.614 Y104.711 E0.03182
G1 X103.554 Y104.084 E0.03165
G1 X103.600 Y102.694 E0.06975
G1 X103.857 Y101.910 E0.04144
G1 X104.194 Y101.362 E0.03228
M204 S1250
G1 X103.971 Y102.762 F9000.000
M204 S800
G1 F1200.000
G1 X104.204 Y102.056 E0.03730
G1 X104.535 Y101.528 E0.03126
G1 X107.144 Y99.212 E0.17511
G1 X108.511 Y98.539 E0.07642
G1 X109.180 Y98.325 E0.03528
G1 X118.241 Y97.642 E0.45602
G1 X142.617 Y97.642 E1.22331
G1 X143.288 Y97.729 E0.03398
G1 X143.947 Y97.995 E0.03564
G1 X144.522 Y98.391 E0.03504
G1 X145.022 Y98.958 E0.03796
G1 X145.467 Y99.916 E0.05298
M73 P7 R5
G1 X146.055 Y102.910 E0.15315
G1 X146.069 Y107.951 E0.25299
G1 X145.973 Y108.664 E0.03608
G1 X145.666 Y109.350 E0.03774
G1 X145.242 Y109.867 E0.03353
G1 X144.618 Y110.289 E0.03781
G1 X143.973 Y110.504 E0.03410
G1 X111.432 Y112.354 E1.63575
G1 X110.783 Y112.325 E0.03260
G1 X110.308 Y112.204 E0.02462
G1 X109.718 Y111.933 E0.03259
G1 X108.960 Y111.315 E0.04909
G1 X104.450 Y105.676 E0.36235
G1 X104.146 Y105.157 E0.03021
G1 X103.980 Y104.615 E0.02842
G1 X103.971 Y102.822 E0.09003
M204 S1250
G1 E-2.24000 F4200.000
;WIPE_START
G1 F7200.000
G1 X104.204 Y102.056 E-0.44348
G1 X104.535 Y101.528 E-0.34518
G1 X104.702 Y101.381 E-0.12334
;WIPE_END
G1 E-0.04800 F4200.000
G1 Z0.550 F9000.000
G1 X110.856 Y98.388
G1 Z0.350
G1 E3.20000 F2400.000
M204 S800
;HEIGHT:0.2
G1 F1200.000
G1 X111.452 Y98.617 E0.02001
G1 X111.927 Y98.929 E0.01782
G1 X112.309 Y99.366 E0.01819
G1 X112.465 Y99.758 E0.01323
G1 X112.580 Y99.924 E0.00634
G1 X112.775 Y100.428 E0.01694
G1 X112.809 Y100.775 E0.01093
M73 P8 R5
G1 X112.855 Y100.955 E0.00583
G1 X112.892 Y101.486 E0.01670
G1 X113.089 Y102.408 E0.02955
G1 X113.447 Y101.824 E0.02147
G1 X113.863 Y101.353 E0.01971
G1 X114.035 Y100.915 E0.01474
G1 X114.280 Y100.400 E0.01787
G1 X114.465 Y100.118 E0.01060
G1 X114.615 Y99.806 E0.01083
G1 X114.904 Y99.383 E0.01608
G1 X115.299 Y98.951 E0.01833
G1 X115.790 Y98.553 E0.01982
G1 X116.293 Y98.318 E0.01742
G1 X116.421 Y98.212 E0.00521
G1 X116.864 Y97.935 E0.01637
M204 S1250
G1 E-2.24000 F4200.000
;WIPE_START
G1 F7200.000
G1 X116.421 Y98.212 E-0.28941
G1 X116.293 Y98.318 E-0.09212
G1 X115.790 Y98.553 E-0.30793
G1 X115.478 Y98.806 E-0.22254
;WIPE_END
G1 E-0.04800 F4200.000
G1 Z0.550 F9000.000
G1 X119.576 Y97.831
G1 Z0.350
G1 E3.20000 F2400.000
M204 S800
G1 F1200.000
G1 X119.979 Y97.973 E0.01341
G1 X120.274 Y98.173 E0.01116
G1 X120.367 Y98.261 E0.00402
G1 X120.872 Y98.543 E0.01814
G1 X121.120 Y98.759 E0.01031
G1 X121.345 Y99.052 E0.01159
G1 X121.463 Y99.340 E0.00974
G1 X121.639 Y99.572 E0.00913
G1 X121.844 Y100.048 E0.01624
G1 X122.114 Y100.029 E0.00851
G1 X122.374 Y100.070 E0.00825
G1 X122.946 Y99.499 E0.02533
G1 X123.443 Y99.108 E0.01983
G1 X123.838 Y98.919 E0.01373
G1 X124.345 Y98.789 E0.01641
G1 X124.812 Y98.453 E0.01806
G1 X125.463 Y98.166 E0.02230
G1 X126.200 Y98.019 E0.02355
G1 X126.950 Y98.039 E0.02354
G1 X127.281 Y98.102 E0.01054
G1 X127.643 Y98.260 E0.01239
G1 X128.030 Y98.386 E0.01276
G1 X128.598 Y98.741 E0.02101
G1 X129.199 Y98.565 E0.01964
G1 X129.345 Y98.435 E0.00614
G1 X129.812 Y98.146 E0.01721
G1 X130.068 Y97.948 E0.01013
G1 X130.382 Y97.831 E0.01053
M204 S1250
G1 E-2.24000 F4200.000
;WIPE_START
G1 F7200.000
G1 X130.068 Y97.948 E-0.18608
G1 X129.812 Y98.146 E-0.17904
G1 X129.345 Y98.435 E-0.30410
G1 X129.199 Y98.565 E-0.10846
G1 X128.967 Y98.633 E-0.13432
;WIPE_END
G1 E-0.04800 F4200.000
G1 Z0.550 F9000.000
G1 X133.167 Y97.831
G1 Z0.350
G1 E3.20000 F2400.000
M204 S800
G1 F1200.000
G1 X133.313 Y97.893 E0.00497
G1 X133.791 Y98.285 E0.01938
G1 X134.203 Y98.855 E0.02205
G1 X134.371 Y99.166 E0.01110
G1 X134.482 Y99.487 E0.01063
G1 X134.579 Y99.688 E0.00702
G1 X134.641 Y99.927 E0.00775
G1 X134.730 Y100.071 E0.00530
G1 X134.814 Y100.267 E0.00667
G1 X134.880 Y100.605 E0.01080
G1 X135.079 Y101.060 E0.01558
G1 X135.262 Y102.301 E0.03931
G1 X135.679 Y101.694 E0.02308
G1 X136.008 Y101.406 E0.01371
G1 X136.220 Y101.297 E0.00746
G1 X136.379 Y101.182 E0.00614
G1 X136.681 Y101.040 E0.01048
G1 X137.007 Y100.979 E0.01041
G1 X137.247 Y100.817 E0.00907
G1 X137.508 Y100.482 E0.01330
G1 X138.081 Y100.054 E0.02243
G1 X138.216 Y99.978 E0.00486
G1 X138.446 Y99.583 E0.01433
G1 X138.848 Y99.207 E0.01725
G1 X139.010 Y99.117 E0.00581
G1 X139.919 Y98.795 E0.03023
G1 X140.265 Y98.494 E0.01439
G1 X140.551 Y98.311 E0.01065
G1 X140.833 Y98.062 E0.01179
G1 X141.104 Y97.904 E0.00983
G1 X141.325 Y97.831 E0.00729
M204 S1250
G1 E-2.24000 F4200.000
;WIPE_START
G1 F7200.000
G1 X141.104 Y97.904 E-0.12885
G1 X140.833 Y98.062 E-0.17373
G1 X140.551 Y98.311 E-0.20840
G1 X140.265 Y98.494 E-0.18825
G1 X139.975 Y98.746 E-0.21276
;WIPE_END
G1 E-0.04800 F4200.000
G1 Z0.550 F9000.000
G1 X142.220 Y110.414
G1 Z0.350
G1 E3.20000 F2400.000
M204 S800
G1 F1200.000
G1 X141.647 Y110.093 E0.02060
G1 X141.124 Y109.596 E0.02262
G1 X140.704 Y108.893 E0.02567
G1 X140.536 Y108.290 E0.01965
G1 X140.509 Y107.808 E0.01514
G1 X140.455 Y107.548 E0.00831
G1 X140.445 Y107.189 E0.01128
G1 X140.261 Y106.563 E0.02046
G1 X139.760 Y106.879 E0.01858
G1 X139.477 Y107.011 E0.00978
G1 X139.344 Y107.045 E0.00432
G1 X138.735 Y107.654 E0.02701
G1 X138.628 Y107.817 E0.00612
G1 X138.126 Y108.323 E0.02235
G1 X137.607 Y108.598 E0.01842
G1 X137.217 Y108.691 E0.01255
G1 X136.956 Y109.062 E0.01421
M73 P9 R5
G1 X136.814 Y109.318 E0.00919
G1 X136.213 Y109.945 E0.02724
G1 X135.793 Y110.160 E0.01478
G1 X135.220 Y110.300 E0.01850
G1 X133.918 Y110.305 E0.04083
G1 X133.662 Y110.337 E0.00808
G1 X132.528 Y110.229 E0.03571
G1 X132.163 Y110.072 E0.01247
G1 X131.989 Y109.950 E0.00666
G1 X131.676 Y109.789 E0.01105
G1 X131.241 Y109.606 E0.01481
G1 X130.811 Y109.261 E0.01728
G1 X130.495 Y108.849 E0.01626
G1 X130.324 Y108.380 E0.01567
G1 X130.077 Y107.913 E0.01656
G1 X129.947 Y107.389 E0.01694
G1 X129.809 Y107.071 E0.01087
G1 X129.749 Y106.710 E0.01145
G1 X129.506 Y106.015 E0.02310
G1 X128.772 Y106.829 E0.03437
G1 X128.290 Y107.110 E0.01751
G1 X127.760 Y107.258 E0.01724
G1 X126.959 Y107.274 E0.02513
G1 X126.735 Y107.309 E0.00709
G1 X125.996 Y107.266 E0.02322
G1 X125.507 Y107.086 E0.01635
G1 X124.991 Y106.744 E0.01940
G1 X124.486 Y106.288 E0.02134
G1 X124.358 Y107.462 E0.03703
G1 X124.398 Y107.672 E0.00673
G1 X124.389 Y108.037 E0.01145
G1 X124.268 Y108.509 E0.01528
G1 X124.241 Y108.745 E0.00744
G1 X124.170 Y108.966 E0.00728
G1 X124.056 Y109.531 E0.01806
G1 X123.586 Y110.484 E0.03333
G1 X123.115 Y110.983 E0.02153
G1 X122.590 Y111.279 E0.01888
G1 X121.630 Y111.528 E0.03109
G1 X121.317 Y111.535 E0.00984
G1 X120.797 Y111.632 E0.01658
M204 S1250
G1 X120.248 Y111.664 F9000.000
M204 S800
G1 F1200.000
G1 X119.684 Y111.508 E0.01836
G1 X119.156 Y111.179 E0.01949
G1 X119.004 Y111.039 E0.00648
G1 X118.703 Y110.844 E0.01125
G1 X117.938 Y110.163 E0.03210
G1 X117.814 Y110.087 E0.00458
G1 X117.523 Y109.815 E0.01249
G1 X116.649 Y108.247 E0.05628
G1 X116.275 Y108.517 E0.01446
G1 X116.037 Y108.948 E0.01541
G1 X115.728 Y109.394 E0.01703
G1 X115.605 Y109.678 E0.00971
G1 X115.416 Y109.918 E0.00958
G1 X115.312 Y110.161 E0.00828
G1 X115.109 Y110.449 E0.01105
G1 X114.702 Y110.800 E0.01685
G1 X114.442 Y111.055 E0.01143
G1 X114.192 Y111.241 E0.00976
G1 X113.944 Y111.509 E0.01148
G1 X113.795 Y111.620 E0.00583
G1 X113.602 Y111.827 E0.00886
G1 X113.228 Y112.063 E0.01387
M204 S1250
G1 E-2.24000 F4200.000
;WIPE_START
G1 F7200.000
G1 X113.602 Y111.827 E-0.24508
G1 X113.795 Y111.620 E-0.15652
G1 X113.944 Y111.509 E-0.10301
G1 X114.192 Y111.241 E-0.20283
G1 X114.442 Y111.055 E-0.17252
G1 X114.483 Y111.015 E-0.03203
;WIPE_END
G1 E-0.04800 F4200.000
G1 Z0.550 F9000.000
G1 X108.172 Y110.027
G1 Z0.350
G1 E3.20000 F2400.000
M204 S800
G1 F1200.000
G1 X108.081 Y109.271 E0.02388
G1 X107.947 Y108.886 E0.01279
G1 X107.927 Y108.436 E0.01412
G1 X107.804 Y108.036 E0.01311
G1 X107.796 Y107.487 E0.01722
G1 X107.648 Y106.648 E0.02672
G1 X107.158 Y106.727 E0.01556
G1 X106.887 Y106.798 E0.00879
G1 X106.615 Y106.817 E0.00855
G1 X106.370 Y106.791 E0.00772
G1 X105.922 Y106.803 E0.01407
G1 X105.497 Y106.684 E0.01381
M204 S1250
G1 E-2.24000 F4200.000
;WIPE_START
G1 F7200.000
G1 X105.922 Y106.803 E-0.24417
G1 X106.370 Y106.791 E-0.24869
G1 X106.615 Y106.817 E-0.13651
G1 X106.887 Y106.798 E-0.15104
G1 X107.117 Y106.738 E-0.13158
;WIPE_END
G1 E-0.04800 F4200.000
G1 Z0.550 F9000.000
G1 X142.661 Y97.893
G1 Z0.350
G1 E3.20000 F2400.000
M204 S800
G1 F1200.000
G1 X142.222 Y97.908 E0.01377
G1 X142.036 Y97.959 E0.00606
G1 X141.822 Y98.062 E0.00745
G1 X141.242 Y98.256 E0.01916
G1 X141.069 Y98.357 E0.00628
G1 X140.777 Y98.615 E0.01221
G1 X140.501 Y98.788 E0.01023
G1 X140.078 Y99.156 E0.01759
G1 X139.934 Y99.184 E0.00461
G1 X139.155 Y99.465 E0.02596
G1 X139.057 Y99.522 E0.00355
G1 X138.728 Y99.834 E0.01421
G1 X138.492 Y100.258 E0.01521
G1 X138.294 Y100.365 E0.00707
G1 X137.757 Y100.767 E0.02104
G1 X137.512 Y101.092 E0.01277
M73 P10 R5
G1 X137.148 Y101.339 E0.01379
G1 X136.816 Y101.393 E0.01055
G1 X136.559 Y101.514 E0.00892
G1 X136.422 Y101.617 E0.00534
G1 X136.204 Y101.729 E0.00771
G1 X135.952 Y101.956 E0.01061
G1 X135.663 Y102.397 E0.01654
G1 X135.345 Y102.364 E0.01001
G1 X134.910 Y102.416 E0.01375
G1 X134.822 Y101.994 E0.01350
G1 X134.800 Y101.704 E0.00914
G1 X134.758 Y101.546 E0.00512
G1 X134.720 Y101.180 E0.01153
G1 X134.517 Y100.714 E0.01594
G1 X134.458 Y100.394 E0.01021
G1 X134.391 Y100.235 E0.00540
G1 X134.289 Y100.079 E0.00586
G1 X134.230 Y99.832 E0.00794
G1 X134.132 Y99.629 E0.00708
G1 X134.031 Y99.329 E0.00992
G1 X133.889 Y99.065 E0.00939
G1 X133.500 Y98.527 E0.02081
G1 X133.099 Y98.205 E0.01613
G1 X132.638 Y98.014 E0.01566
G1 X132.427 Y97.970 E0.00674
G1 X131.816 Y97.952 E0.01919
G1 X131.546 Y97.895 E0.00865
G1 X131.040 Y97.942 E0.01592
G1 X130.695 Y98.117 E0.01212
G1 X130.273 Y98.266 E0.01404
G1 X130.027 Y98.456 E0.00975
G1 X129.561 Y98.745 E0.01718
G1 X129.354 Y98.937 E0.00887
G1 X129.163 Y98.959 E0.00601
G1 X128.475 Y99.178 E0.02265
G1 X128.293 Y98.994 E0.00812
G1 X127.889 Y98.737 E0.01500
G1 X127.509 Y98.613 E0.01256
G1 X127.151 Y98.457 E0.01222
G1 X126.900 Y98.413 E0.00799
G1 X126.213 Y98.396 E0.02155
G1 X125.560 Y98.531 E0.02090
G1 X124.986 Y98.788 E0.01975
G1 X124.507 Y99.138 E0.01858
G1 X123.982 Y99.268 E0.01695
G1 X123.625 Y99.438 E0.01241
G1 X123.190 Y99.786 E0.01748
G1 X122.498 Y100.480 E0.03073
G1 X122.113 Y100.407 E0.01228
G1 X121.781 Y100.430 E0.01044
G1 X121.481 Y100.518 E0.00979
G1 X121.418 Y100.005 E0.01619
G1 X121.305 Y99.748 E0.00882
G1 X121.135 Y99.534 E0.00855
G1 X121.007 Y99.222 E0.01057
G1 X120.836 Y99.008 E0.00860
G1 X120.671 Y98.862 E0.00690
G1 X120.133 Y98.563 E0.01929
G1 X120.045 Y98.473 E0.00395
G1 X119.790 Y98.301 E0.00964
G1 X119.391 Y98.166 E0.01319
G1 X119.083 Y98.025 E0.01063
G1 X118.765 Y97.961 E0.01018
G1 X117.989 Y97.962 E0.02434
G1 X117.482 Y98.083 E0.01636
G1 X117.026 Y98.276 E0.01551
G1 X116.635 Y98.523 E0.01450
G1 X116.497 Y98.640 E0.00568
G1 X116.007 Y98.863 E0.01688
G1 X115.567 Y99.217 E0.01769
G1 X115.192 Y99.627 E0.01743
G1 X114.936 Y100.005 E0.01433
G1 X114.794 Y100.305 E0.01041
G1 X114.622 Y100.559 E0.00960
G1 X114.555 Y100.729 E0.00571
G1 X114.382 Y101.062 E0.01177
G1 X114.183 Y101.570 E0.01711
G1 X114.003 Y101.749 E0.00798
G1 X113.747 Y102.053 E0.01244
G1 X113.576 Y102.339 E0.01046
G1 X113.295 Y102.720 E0.01484
G1 X113.046 Y103.221 E0.01754
G1 X112.764 Y103.166 E0.00901
G1 X112.736 Y102.800 E0.01149
G1 X112.694 Y102.645 E0.00504
G1 X112.608 Y101.906 E0.02333
G1 X112.518 Y101.549 E0.01155
G1 X112.480 Y101.002 E0.01720
G1 X112.436 Y100.839 E0.00529
G1 X112.413 Y100.537 E0.00951
G1 X112.238 Y100.087 E0.01511
G1 X112.134 Y99.946 E0.00553
G1 X111.972 Y99.538 E0.01374
G1 X111.666 Y99.203 E0.01422
G1 X111.269 Y98.947 E0.01482
G1 X110.859 Y98.807 E0.01359
G1 X110.627 Y98.694 E0.00808
G1 X110.073 Y98.566 E0.01785
G1 X109.223 Y98.626 E0.02670
G1 X108.388 Y98.882 E0.02739
G1 X107.991 Y99.153 E0.01508
G1 X107.623 Y99.275 E0.01214
G1 X107.365 Y99.415 E0.00922
G1 X106.642 Y100.015 E0.02943
G1 X106.064 Y100.595 E0.02569
G1 X105.314 Y101.147 E0.02921
G1 X105.130 Y101.365 E0.00894
G1 X104.729 Y101.749 E0.01742
G1 X104.424 Y102.265 E0.01879
G1 X104.246 Y102.889 E0.02034
G1 X104.265 Y104.598 E0.05359
G1 X104.426 Y105.076 E0.01582
G1 X104.851 Y105.765 E0.02537
G1 X105.532 Y106.302 E0.02721
G1 X105.943 Y106.425 E0.01345
G1 X106.389 Y106.413 E0.01398
G1 X106.608 Y106.440 E0.00693
G1 X106.841 Y106.424 E0.00731
G1 X107.076 Y106.358 E0.00765
G1 X107.362 Y106.312 E0.00908
G1 X107.886 Y106.081 E0.01795
G1 X108.079 Y106.872 E0.02552
G1 X108.173 Y107.455 E0.01853
G1 X108.181 Y108.000 E0.01708
G1 X108.303 Y108.370 E0.01223
G1 X108.314 Y108.791 E0.01320
G1 X108.451 Y109.186 E0.01309
G1 X108.572 Y110.201 E0.03207
G1 X108.620 Y110.344 E0.00473
G1 X108.835 Y110.711 E0.01335
G1 X109.013 Y110.881 E0.00770
G1 X109.195 Y111.136 E0.00981
G1 X109.451 Y111.364 E0.01076
G1 X109.642 Y111.587 E0.00920
G1 X109.864 Y111.744 E0.00855
G1 X110.180 Y111.859 E0.01053
G1 X110.356 Y111.962 E0.00639
G1 X110.603 Y112.042 E0.00815
G1 X110.826 Y112.063 E0.00700
G1 X111.103 Y112.129 E0.00893
G1 X111.353 Y112.128 E0.00784
G1 X111.667 Y112.047 E0.01016
G1 X112.014 Y112.038 E0.01089
G1 X112.250 Y111.973 E0.00768
G1 X112.448 Y111.963 E0.00622
G1 X112.595 Y111.933 E0.00470
G1 X113.070 Y111.720 E0.01633
G1 X113.374 Y111.525 E0.01132
G1 X113.541 Y111.338 E0.00786
G1 X113.681 Y111.238 E0.00540
G1 X113.941 Y110.957 E0.01197
G1 X114.188 Y110.776 E0.00962
G1 X114.449 Y110.520 E0.01147
G1 X114.816 Y110.211 E0.01504
G1 X114.991 Y109.963 E0.00951
G1 X115.088 Y109.722 E0.00816
G1 X115.270 Y109.502 E0.00896
G1 X115.396 Y109.210 E0.00998
G1 X115.722 Y108.741 E0.01790
G1 X115.985 Y108.261 E0.01714
G1 X116.392 Y107.968 E0.01574
M73 P11 R5
G1 X116.923 Y107.222 E0.02869
G1 X117.058 Y107.725 E0.01633
G1 X117.045 Y107.953 E0.00714
