; generated by PrusaSlicer 2.3.3+win64 on 2021-10-12 at 16:44:53 UTC

; 

; external perimeters extrusion width = 0.45mm
; perimeters extrusion width = 0.45mm
; infill extrusion width = 0.45mm
; solid infill extrusion width = 0.45mm
; top infill extrusion width = 0.40mm
; first layer extrusion width = 0.42mm

M73 P0 R3
M201 X1250 Y1250 Z400 E5000 ; sets maximum accelerations, mm/sec^2
M203 X180 Y180 Z12 E80 ; sets maximum feedrates, mm/sec
M204 P1250 R1250 T1250 ; sets acceleration (P, T) and retract acceleration (R), mm/sec^2
M205 X8.00 Y8.00 Z2.00 E10.00 ; sets the jerk limits, mm/sec
M205 S0 T0 ; sets the minimum extruding and travel feed rate, mm/sec
M107
;TYPE:Custom
G90 ; use absolute coordinates
M83 ; extruder relative mode
M104 S170 ; set extruder temp for bed leveling
M140 S60 ; set bed temp
M109 R170 ; wait for bed leveling temp
M190 S60 ; wait for bed temp
G28 ; home all without mesh bed level
G29 ; mesh bed leveling 
M104 S215 ; set extruder temp
G92 E0.0
G1 Y-2.0 X179 F2400
M73 P2 R3
G1 Z3 F720
M109 S215 ; wait for extruder temp

; intro line
G1 X170 F1000
G1 Z0.2 F720
G1 X110.0 E8.0 F900
M73 P4 R3
G1 X40.0 E10.0 F700
G92 E0.0

M221 S95 ; set flow
G21 ; set units to millimeters
G90 ; use absolute coordinates
M83 ; use relative distances for extrusion
M900 K0.2 ; Filament gcode LA 1.5
; ; Filament gcode LA 1.0
;LAYER_CHANGE
;Z:0.35
;HEIGHT:0.35
;BEFORE_LAYER_CHANGE
G92 E0.0
;0.35


M73 P7 R3
G1 Z0.350 F9000.000
;AFTER_LAYER_CHANGE
;0.35
G1 E-3.20000 F4200.000
M73 P8 R3
G1 Z0.550 F9000.000
G1 X104.121 Y108.169
G1 Z0.350
G1 E3.20000 F2400.000
M204 S800
;TYPE:Skirt
;WIDTH:0.42
G1 F1200.000
G1 X103.221 Y107.586 E0.05381
G1 X102.854 Y107.178 E0.02754
G1 X102.559 Y106.690 E0.02860
G1 X102.276 Y105.715 E0.05094
G1 X102.300 Y104.087 E0.08172
G1 X102.456 Y103.540 E0.02855
G1 X102.767 Y102.921 E0.03476
G1 X103.165 Y102.438 E0.03141
G1 X103.662 Y102.058 E0.03141
G1 X104.314 Y101.757 E0.03604
G1 X104.938 Y101.621 E0.03203
G1 X144.517 Y101.601 E1.98633
M73 P9 R3
G1 X145.154 Y101.632 E0.03198
G1 X145.676 Y101.754 E0.02691
G1 X146.254 Y102.024 E0.03200
G1 X146.694 Y102.337 E0.02712
G1 X147.116 Y102.783 E0.03083
G1 X147.443 Y103.314 E0.03126
G1 X147.643 Y103.841 E0.02835
G1 X147.734 Y104.403 E0.02853
G1 X147.692 Y105.980 E0.07917
G1 X147.533 Y106.530 E0.02875
G1 X147.264 Y107.036 E0.02875
G1 X146.856 Y107.541 E0.03258
M73 P10 R3
G1 X146.356 Y107.931 E0.03182
G1 X145.690 Y108.242 E0.03691
G1 X145.058 Y108.379 E0.03244
G1 X105.103 Y108.392 E2.00518
M73 P11 R3
G1 X104.180 Y108.182 E0.04754
M204 S1250
G1 X104.280 Y107.826 F9000.000
M204 S800
G1 F1200.000
G1 X103.480 Y107.313 E0.04769
G1 X102.892 Y106.514 E0.04978
G1 X102.649 Y105.654 E0.04483
G1 X102.670 Y104.164 E0.07479
G1 X102.808 Y103.674 E0.02556
G1 X103.079 Y103.133 E0.03037
G1 X103.426 Y102.710 E0.02747
G1 X103.865 Y102.376 E0.02766
G1 X104.460 Y102.105 E0.03282
G1 X105.010 Y101.990 E0.02823
G1 X144.517 Y101.978 E1.98269
M73 P12 R3
G1 X145.542 Y102.106 E0.05184
G1 X146.441 Y102.616 E0.05183
G1 X146.815 Y103.010 E0.02730
G1 X147.104 Y103.480 E0.02766
G1 X147.279 Y103.938 E0.02462
G1 X147.358 Y104.434 E0.02521
G1 X147.325 Y105.887 E0.07294
G1 X147.192 Y106.367 E0.02500
G1 X146.963 Y106.809 E0.02500
G1 X146.603 Y107.261 E0.02901
G1 X146.161 Y107.609 E0.02823
G1 X145.551 Y107.891 E0.03372
G1 X144.990 Y108.010 E0.02879
G1 X105.144 Y108.017 E1.99966
M73 P13 R3
G1 X104.338 Y107.839 E0.04144
M204 S1250
G1 X104.137 Y107.500 F9000.000
M204 S800
;HEIGHT:0.2
G1 F1200.000
G1 X103.482 Y106.887 E0.02814
G1 X103.090 Y106.218 E0.02429
G1 X102.938 Y105.485 E0.02348
G1 X102.955 Y104.229 E0.03939
G1 X103.131 Y103.648 E0.01904
G1 X103.290 Y103.326 E0.01126
G1 X103.751 Y102.813 E0.02160
G1 X104.082 Y102.578 E0.01275
G1 X105.070 Y102.284 E0.03229
G1 X144.582 Y102.283 E1.23888
M73 P14 R3
G1 X145.266 Y102.340 E0.02154
G1 X145.717 Y102.502 E0.01501
G1 X146.194 Y102.809 E0.01778
G1 X146.696 Y103.363 E0.02347
G1 X146.943 Y103.869 E0.01763
G1 X147.054 Y104.391 E0.01675
G1 X147.063 Y105.397 E0.03155
G1 X147.012 Y105.944 E0.01720
G1 X146.896 Y106.315 E0.01220
G1 X146.640 Y106.767 E0.01630
G1 X146.188 Y107.239 E0.02047
G1 X145.831 Y107.465 E0.01325
G1 X144.928 Y107.716 E0.02938
G1 X105.346 Y107.707 E1.24106
M73 P16 R3
G1 X104.989 Y107.745 E0.01127
G1 X104.484 Y107.654 E0.01608
G1 X104.192 Y107.524 E0.01000
M204 S1250
G1 X104.350 Y107.183 F9000.000
M204 S800
G1 F1200.000
G1 X103.761 Y106.633 E0.02526
G1 X103.452 Y106.109 E0.01906
G1 X103.315 Y105.466 E0.02061
G1 X103.324 Y104.312 E0.03619
G1 X103.487 Y103.773 E0.01765
G1 X103.615 Y103.519 E0.00891
G1 X104.013 Y103.085 E0.01849
G1 X104.272 Y102.905 E0.00987
G1 X105.096 Y102.661 E0.02697
G1 X144.562 Y102.659 E1.23740
M73 P17 R3
G1 X145.167 Y102.704 E0.01902
G1 X145.536 Y102.834 E0.01227
G1 X145.935 Y103.084 E0.01477
G1 X146.372 Y103.557 E0.02018
G1 X146.580 Y103.974 E0.01462
G1 X146.677 Y104.415 E0.01415
G1 X146.686 Y105.391 E0.03060
G1 X146.639 Y105.888 E0.01567
G1 X146.558 Y106.147 E0.00849
G1 X146.324 Y106.560 E0.01489
G1 X145.936 Y106.958 E0.01743
G1 X145.657 Y107.129 E0.01027
G1 X144.902 Y107.339 E0.02455
G1 X105.320 Y107.330 E1.24109
M73 P18 R3
G1 X105.025 Y107.368 E0.00932
G1 X104.576 Y107.287 E0.01431
G1 X104.404 Y107.208 E0.00592
M204 S1250
G1 X104.670 Y106.921 F9000.000
M204 S800
G1 F1200.000
G1 X104.521 Y106.848 E0.00521
G1 X104.045 Y106.383 E0.02087
G1 X103.795 Y105.949 E0.01570
G1 X103.692 Y105.447 E0.01605
G1 X103.693 Y104.394 E0.03302
G1 X103.843 Y103.900 E0.01620
G1 X103.937 Y103.717 E0.00646
G1 X104.272 Y103.359 E0.01536
G1 X104.457 Y103.234 E0.00700
G1 X105.123 Y103.039 E0.02177
G1 X144.544 Y103.036 E1.23602
M73 P19 R3
G1 X145.071 Y103.070 E0.01654
G1 X145.360 Y103.168 E0.00955
G1 X145.680 Y103.362 E0.01176
G1 X146.049 Y103.755 E0.01690
G1 X146.218 Y104.084 E0.01159
G1 X146.300 Y104.440 E0.01146
G1 X146.309 Y105.384 E0.02961
G1 X146.266 Y105.832 E0.01412
G1 X146.220 Y105.978 E0.00479
G1 X146.009 Y106.351 E0.01343
G1 X145.688 Y106.673 E0.01427
G1 X145.488 Y106.792 E0.00729
G1 X144.877 Y106.961 E0.01987
G1 X105.286 Y106.953 E1.24135
M73 P20 R3
G1 X105.057 Y106.991 E0.00728
G1 X104.729 Y106.932 E0.01043
M204 S1250
G1 X104.776 Y106.558 F9000.000
M204 S800
G1 F1200.000
G1 X104.727 Y106.532 E0.00175
G1 X104.331 Y106.136 E0.01753
G1 X104.139 Y105.793 E0.01232
G1 X104.069 Y105.428 E0.01167
G1 X104.062 Y104.476 E0.02984
G1 X104.198 Y104.029 E0.01466
G1 X104.256 Y103.919 E0.00389
G1 X104.527 Y103.638 E0.01223
G1 X104.638 Y103.566 E0.00417
G1 X105.150 Y103.416 E0.01674
G1 X144.531 Y103.413 E1.23474
M73 P21 R3
G1 X144.980 Y103.436 E0.01412
G1 X145.189 Y103.504 E0.00688
G1 X145.429 Y103.645 E0.00871
G1 X145.730 Y103.957 E0.01361
G1 X145.858 Y104.198 E0.00856
G1 X145.923 Y104.466 E0.00865
G1 X145.932 Y105.377 E0.02857
G1 X145.882 Y105.810 E0.01367
G1 X145.695 Y106.140 E0.01189
G1 X145.445 Y106.384 E0.01093
G1 X145.324 Y106.452 E0.00435
G1 X144.851 Y106.584 E0.01541
G1 X105.189 Y106.576 E1.24358
M73 P22 R3
G1 X105.055 Y106.614 E0.00435
G1 X104.835 Y106.570 E0.00705
M204 S1250
M73 P23 R3
G1 X104.933 Y106.205 F9000.000
M204 S800
G1 F1200.000
G1 X104.616 Y105.887 E0.01408
G1 X104.503 Y105.688 E0.00717
G1 X104.446 Y105.406 E0.00903
G1 X104.439 Y104.513 E0.02800
G1 X104.575 Y104.123 E0.01296
G1 X104.774 Y103.924 E0.00881
G1 X105.178 Y103.793 E0.01331
G1 X144.521 Y103.790 E1.23357
M73 P24 R2
G1 X144.895 Y103.805 E0.01176
G1 X145.026 Y103.845 E0.00429
G1 X145.183 Y103.932 E0.00564
G1 X145.411 Y104.160 E0.01010
G1 X145.514 Y104.353 E0.00686
G1 X145.547 Y104.490 E0.00442
G1 X145.555 Y105.370 E0.02758
G1 X145.523 Y105.682 E0.00983
G1 X145.407 Y105.895 E0.00762
G1 X145.226 Y106.076 E0.00802
G1 X144.822 Y106.207 E0.01331
G1 X105.413 Y106.210 E1.23564
M73 P25 R2
G1 X105.132 Y106.191 E0.00883
G1 X105.045 Y106.227 E0.00295
G1 X104.992 Y106.216 E0.00171
M204 S1250
G1 E-2.24000 F4200.000
;WIPE_START
G1 F7200.000
G1 X104.616 Y105.887 E-0.27714
G1 X104.503 Y105.688 E-0.12672
G1 X104.446 Y105.406 E-0.15955
G1 X104.441 Y104.777 E-0.34860
;WIPE_END
G1 E-0.04800 F4200.000
G1 Z0.550 F9000.000
G1 X104.891 Y104.385
G1 Z0.350
G1 E3.20000 F2400.000
M204 S800
G1 F1200.000
G1 X104.902 Y104.329 E0.00179
G1 X104.992 Y104.239 E0.00398
G1 X105.209 Y104.170 E0.00713
G1 X144.515 Y104.167 E1.23241
M73 P26 R2
G1 X144.865 Y104.187 E0.01100
G1 X144.977 Y104.249 E0.00403
G1 X145.096 Y104.368 E0.00526
G1 X145.158 Y104.480 E0.00403
G1 X145.178 Y105.371 E0.02794
G1 X145.167 Y105.553 E0.00573
G1 X145.117 Y105.652 E0.00347
G1 X145.008 Y105.761 E0.00483
G1 X144.791 Y105.830 E0.00713
G1 X105.420 Y105.833 E1.23445
M73 P27 R2
G1 X105.070 Y105.809 E0.01099
G1 X104.904 Y105.643 E0.00736
G1 X104.851 Y105.542 E0.00357
G1 X104.823 Y105.389 E0.00489
G1 X104.817 Y104.556 E0.02612
G1 X104.867 Y104.440 E0.00397
M204 S1250
; printing object ppg_selection_0.stl id:0 copy 0
G1 X105.224 Y104.606 F9000.000
M204 S800
;TYPE:External perimeter
;HEIGHT:0.15
G1 F1200.000
G1 X105.368 Y104.566 E0.00361
G1 X144.525 Y104.565 E0.94702
M73 P28 R2
G1 X144.736 Y104.571 E0.00511
G1 X144.772 Y104.618 E0.00144
G1 X144.770 Y105.402 E0.01897
G1 X144.736 Y105.432 E0.00111
G1 X105.350 Y105.435 E0.95254
M73 P29 R2
G1 X105.266 Y105.430 E0.00203
G1 X105.222 Y105.374 E0.00174
G1 X105.223 Y104.666 E0.01711
M204 S1250
G1 X105.366 Y104.654 F9000.000
G1 X105.610 Y104.953
M204 S800
;TYPE:Perimeter
G1 F1200.000
G1 X144.384 Y104.953 E0.93774
M73 P30 R2
G1 X144.383 Y105.045 E0.00221
G1 X105.610 Y105.047 E0.93774
M73 P31 R2
G1 X105.610 Y105.013 E0.00081
M204 S1250
; stop printing object ppg_selection_0.stl id:0 copy 0
M106 S84.15
;LAYER_CHANGE
;Z:0.5
;HEIGHT:0.15
;BEFORE_LAYER_CHANGE
G92 E0.0
;0.5


G1 Z0.500 F9000.000
;AFTER_LAYER_CHANGE
;0.5
G1 E-3.20000 F4200.000
G1 Z0.700 F9000.000
G1 X104.121 Y108.169
G1 Z0.500
G1 E3.20000 F2400.000
;TYPE:Skirt
G1 F1365
G1 X103.221 Y107.586 E0.02593
G1 X102.854 Y107.178 E0.01327
G1 X102.559 Y106.690 E0.01378
G1 X102.276 Y105.715 E0.02455
G1 X102.300 Y104.087 E0.03938
G1 X102.456 Y103.540 E0.01376
G1 X102.767 Y102.921 E0.01675
G1 X103.165 Y102.438 E0.01514
G1 X103.662 Y102.058 E0.01514
G1 X104.314 Y101.757 E0.01737
G1 X104.938 Y101.621 E0.01543
G1 X144.517 Y101.601 E0.95723
M73 P32 R2
G1 X145.154 Y101.632 E0.01541
G1 X145.676 Y101.754 E0.01297
G1 X146.254 Y102.024 E0.01542
G1 X146.694 Y102.337 E0.01307
G1 X147.116 Y102.783 E0.01486
G1 X147.443 Y103.314 E0.01507
G1 X147.643 Y103.841 E0.01366
G1 X147.734 Y104.403 E0.01375
G1 X147.692 Y105.980 E0.03815
M73 P33 R2
G1 X147.533 Y106.530 E0.01386
G1 X147.264 Y107.036 E0.01386
G1 X146.856 Y107.541 E0.01570
G1 X146.356 Y107.931 E0.01534
G1 X145.690 Y108.242 E0.01779
G1 X145.058 Y108.379 E0.01563
G1 X105.103 Y108.392 E0.96631
G1 X104.180 Y108.182 E0.02291
M73 P34 R2
G1 X104.280 Y107.826 F9000.000
G1 F1365
G1 X103.480 Y107.313 E0.02298
G1 X102.892 Y106.514 E0.02399
G1 X102.649 Y105.654 E0.02160
G1 X102.670 Y104.164 E0.03604
G1 X102.808 Y103.674 E0.01232
G1 X103.079 Y103.133 E0.01464
G1 X103.426 Y102.710 E0.01324
G1 X103.865 Y102.376 E0.01333
G1 X104.460 Y102.105 E0.01581
G1 X105.010 Y101.990 E0.01360
G1 X144.517 Y101.978 E0.95547
M73 P35 R2
G1 X145.542 Y102.106 E0.02498
G1 X146.441 Y102.616 E0.02498
G1 X146.815 Y103.010 E0.01316
G1 X147.104 Y103.480 E0.01333
G1 X147.279 Y103.938 E0.01186
G1 X147.358 Y104.434 E0.01215
G1 X147.325 Y105.887 E0.03515
G1 X147.192 Y106.367 E0.01205
G1 X146.963 Y106.809 E0.01205
G1 X146.603 Y107.261 E0.01398
G1 X146.161 Y107.609 E0.01360
G1 X145.551 Y107.891 E0.01625
G1 X144.990 Y108.010 E0.01388
G1 X105.144 Y108.017 E0.96365
M73 P36 R2
G1 X104.338 Y107.839 E0.01997
; printing object ppg_selection_0.stl id:0 copy 0
G1 E-2.24000 F4200.000
;WIPE_START
G1 F7200.000
G1 X103.480 Y107.313 E-0.55788
G1 X103.102 Y106.798 E-0.35412
;WIPE_END
G1 E-0.04800 F4200.000
G1 Z0.700 F9000.000
G1 X105.300 Y105.353
G1 Z0.500
G1 E3.20000 F2400.000
M204 S800
;TYPE:External perimeter
;WIDTH:0.45
G1 F1365
G1 X105.299 Y104.644 E0.01849
G1 X144.693 Y104.649 E1.02644
M73 P37 R2
G1 X144.696 Y105.350 E0.01826
G1 X144.579 Y105.357 E0.00306
G1 X105.359 Y105.357 E1.02190
M204 S1250
M73 P38 R2
G1 X105.499 Y105.007 F9000.000
G1 E-2.24000 F4200.000
;WIPE_START
G1 F7200.000
G1 X105.299 Y104.644 E-0.39647
G1 X106.229 Y104.644 E-0.51553
;WIPE_END
G1 E-0.04800 F4200.000
G1 Z0.700 F9000.000
G1 X144.486 Y105.000
G1 Z0.500
G1 E3.20000 F2400.000
;TYPE:Gap fill
;WIDTH:0.328294
G1 F1365
G1 X105.508 Y105.000 E0.71975
; stop printing object ppg_selection_0.stl id:0 copy 0
M106 S170.85
;LAYER_CHANGE
;Z:0.65
;HEIGHT:0.15
;BEFORE_LAYER_CHANGE
G92 E0.0
;0.65


M73 P39 R2
G1 Z0.650 F9000.000
;AFTER_LAYER_CHANGE
;0.65
G1 E-3.20000 F4200.000
G1 Z0.850 F9000.000
G1 X104.121 Y108.169
G1 Z0.650
G1 E3.20000 F2400.000
;TYPE:Skirt
;WIDTH:0.42
G1 F1364
G1 X103.221 Y107.586 E0.02593
G1 X102.854 Y107.178 E0.01327
G1 X102.559 Y106.690 E0.01378
G1 X102.276 Y105.715 E0.02455
G1 X102.300 Y104.087 E0.03938
G1 X102.456 Y103.540 E0.01376
G1 X102.767 Y102.921 E0.01675
G1 X103.165 Y102.438 E0.01514
G1 X103.662 Y102.058 E0.01514
G1 X104.314 Y101.757 E0.01737
G1 X104.938 Y101.621 E0.01543
G1 X144.517 Y101.601 E0.95723
M73 P40 R2
G1 X145.154 Y101.632 E0.01541
G1 X145.676 Y101.754 E0.01297
G1 X146.254 Y102.024 E0.01542
G1 X146.694 Y102.337 E0.01307
G1 X147.116 Y102.783 E0.01486
G1 X147.443 Y103.314 E0.01507
G1 X147.643 Y103.841 E0.01366
G1 X147.734 Y104.403 E0.01375
G1 X147.692 Y105.980 E0.03815
G1 X147.533 Y106.530 E0.01386
G1 X147.264 Y107.036 E0.01386
G1 X146.856 Y107.541 E0.01570
G1 X146.356 Y107.931 E0.01534
G1 X145.690 Y108.242 E0.01779
G1 X145.058 Y108.379 E0.01563
G1 X105.103 Y108.392 E0.96631
M73 P41 R2
G1 X104.180 Y108.182 E0.02291
G1 X104.280 Y107.826 F9000.000
G1 F1364
G1 X103.480 Y107.313 E0.02298
G1 X102.892 Y106.514 E0.02399
G1 X102.649 Y105.654 E0.02160
G1 X102.670 Y104.164 E0.03604
G1 X102.808 Y103.674 E0.01232
G1 X103.079 Y103.133 E0.01464
M73 P42 R2
G1 X103.426 Y102.710 E0.01324
G1 X103.865 Y102.376 E0.01333
G1 X104.460 Y102.105 E0.01581
G1 X105.010 Y101.990 E0.01360
G1 X144.517 Y101.978 E0.95547
G1 X145.542 Y102.106 E0.02498
G1 X146.441 Y102.616 E0.02498
G1 X146.815 Y103.010 E0.01316
M73 P43 R2
G1 X147.104 Y103.480 E0.01333
G1 X147.279 Y103.938 E0.01186
G1 X147.358 Y104.434 E0.01215
G1 X147.325 Y105.887 E0.03515
G1 X147.192 Y106.367 E0.01205
G1 X146.963 Y106.809 E0.01205
G1 X146.603 Y107.261 E0.01398
G1 X146.161 Y107.609 E0.01360
G1 X145.551 Y107.891 E0.01625
G1 X144.990 Y108.010 E0.01388
G1 X105.144 Y108.017 E0.96365
M73 P44 R2
G1 X104.338 Y107.839 E0.01997
; printing object ppg_selection_0.stl id:0 copy 0
G1 E-2.24000 F4200.000
;WIPE_START
G1 F7200.000
G1 X103.480 Y107.313 E-0.55788
G1 X103.102 Y106.798 E-0.35412
;WIPE_END
G1 E-0.04800 F4200.000
G1 Z0.850 F9000.000
G1 X105.320 Y105.335
G1 Z0.650
G1 E3.20000 F2400.000
M204 S800
;TYPE:External perimeter
;WIDTH:0.45
G1 F1364
G1 X105.320 Y104.661 E0.01756
G1 X144.682 Y104.670 E1.02561
M73 P45 R2
G1 X144.680 Y105.335 E0.01732
G1 X105.380 Y105.339 E1.02399
M204 S1250
M73 P46 R2
G1 X105.518 Y104.987 F9000.000
G1 E-2.24000 F4200.000
;WIPE_START
G1 F7200.000
G1 X105.320 Y104.661 E-0.37739
G1 X106.285 Y104.661 E-0.53461
;WIPE_END
G1 E-0.04800 F4200.000
G1 Z0.850 F9000.000
G1 X144.472 Y104.998
G1 Z0.650
G1 E3.20000 F2400.000
;TYPE:Gap fill
;WIDTH:0.292717
G1 F1364
G1 X105.527 Y105.000 E0.63275
; stop printing object ppg_selection_0.stl id:0 copy 0
M106 S255
;LAYER_CHANGE
;Z:0.8
;HEIGHT:0.15
;BEFORE_LAYER_CHANGE
G92 E0.0
;0.8


M73 P47 R2
G1 Z0.800 F9000.000
;AFTER_LAYER_CHANGE
;0.8
; printing object ppg_selection_0.stl id:0 copy 0
G1 X105.333 Y105.288
M204 S800
;TYPE:External perimeter
;WIDTH:0.45
G1 F900
G1 X105.337 Y104.678 E0.01590
G1 X144.664 Y104.680 E1.02468
M73 P48 R2
G1 X144.662 Y105.317 E0.01661
G1 X105.369 Y105.322 E1.02382
M204 S1250
M73 P50 R2
G1 X105.533 Y104.942 F9000.000
G1 E-2.24000 F4200.000
;WIPE_START
G1 F7200.000
G1 X105.337 Y104.678 E-0.35722
G1 X106.338 Y104.678 E-0.55478
;WIPE_END
G1 E-0.04800 F4200.000
G1 Z1.000 F9000.000
G1 X144.454 Y104.998
G1 Z0.800
G1 E3.20000 F2400.000
;TYPE:Gap fill
;WIDTH:0.25819
G1 F900
G1 X105.544 Y105.000 E0.54840
; stop printing object ppg_selection_0.stl id:0 copy 0
