; generated by PrusaSlicer 2.3.3+win64 on 2021-10-12 at 15:27:05 UTC

; 

; external perimeters extrusion width = 0.45mm
; perimeters extrusion width = 0.45mm
; infill extrusion width = 0.45mm
; solid infill extrusion width = 0.45mm
; top infill extrusion width = 0.40mm
; first layer extrusion width = 0.42mm

M73 P0 R5
M201 X1250 Y1250 Z400 E5000 ; sets maximum accelerations, mm/sec^2
M203 X180 Y180 Z12 E80 ; sets maximum feedrates, mm/sec
M204 P1250 R1250 T1250 ; sets acceleration (P, T) and retract acceleration (R), mm/sec^2
M205 X8.00 Y8.00 Z2.00 E10.00 ; sets the jerk limits, mm/sec
M205 S0 T0 ; sets the minimum extruding and travel feed rate, mm/sec
M107
;TYPE:Custom
G90 ; use absolute coordinates
M83 ; extruder relative mode
M104 S170 ; set extruder temp for bed leveling
M140 S60 ; set bed temp
M109 R170 ; wait for bed leveling temp
M190 S60 ; wait for bed temp
G28 ; home all without mesh bed level
G29 ; mesh bed leveling 
M104 S215 ; set extruder temp
G92 E0.0
G1 Y-2.0 X179 F2400
M73 P1 R5
G1 Z3 F720
M109 S215 ; wait for extruder temp

; intro line
G1 X170 F1000
G1 Z0.2 F720
G1 X110.0 E8.0 F900
M73 P3 R5
G1 X40.0 E10.0 F700
G92 E0.0

M221 S95 ; set flow
G21 ; set units to millimeters
G90 ; use absolute coordinates
M83 ; use relative distances for extrusion
M900 K0.2 ; Filament gcode LA 1.5
; ; Filament gcode LA 1.0
;LAYER_CHANGE
;Z:0.35
;HEIGHT:0.35
;BEFORE_LAYER_CHANGE
G92 E0.0
;0.35


M73 P5 R5
G1 Z0.350 F9000.000
;AFTER_LAYER_CHANGE
;0.35
G1 E-3.20000 F4200.000
G1 Z0.550 F9000.000
G1 X110.406 Y98.129
G1 Z0.350
G1 E3.20000 F2400.000
M204 S800
;TYPE:Skirt
;WIDTH:0.42
G1 F1200.000
G1 X111.314 Y97.901 E0.04698
G1 X120.654 Y97.270 E0.46979
G1 X139.104 Y97.268 E0.92594
M73 P6 R5
G1 X139.960 Y97.363 E0.04322
G1 X140.789 Y97.694 E0.04478
G1 X141.592 Y98.223 E0.04827
G1 X142.195 Y98.847 E0.04353
G1 X142.543 Y99.429 E0.03404
G1 X145.615 Y105.971 E0.36270
G1 X145.737 Y106.650 E0.03464
G1 X145.733 Y107.769 E0.05615
G1 X145.617 Y108.390 E0.03172
G1 X145.380 Y108.957 E0.03082
G1 X145.051 Y109.451 E0.02978
G1 X144.624 Y109.863 E0.02978
G1 X143.175 Y110.667 E0.08316
G1 X142.276 Y110.862 E0.04618
G1 X107.247 Y112.728 E1.76045
G1 X106.358 Y112.596 E0.04512
G1 X105.556 Y112.205 E0.04479
G1 X104.895 Y111.585 E0.04547
G1 X104.457 Y110.816 E0.04439
G1 X104.267 Y109.975 E0.04328
G1 X104.257 Y108.388 E0.07966
M73 P7 R5
G1 X104.334 Y107.766 E0.03143
G1 X104.567 Y107.103 E0.03526
G1 X107.610 Y100.992 E0.34261
G1 X109.062 Y99.141 E0.11807
G1 X109.753 Y98.493 E0.04756
G1 X110.354 Y98.158 E0.03453
M204 S1250
G1 X110.536 Y98.488 F9000.000
M204 S800
G1 F1200.000
G1 X111.353 Y98.277 E0.04231
G1 X120.666 Y97.647 E0.46847
G1 X139.104 Y97.645 E0.92530
G1 X139.875 Y97.730 E0.03894
G1 X140.625 Y98.034 E0.04063
G1 X141.360 Y98.521 E0.04423
G1 X141.910 Y99.096 E0.03994
G1 X145.251 Y106.070 E0.38808
G1 X145.361 Y106.679 E0.03105
G1 X145.358 Y107.736 E0.05305
G1 X145.254 Y108.287 E0.02814
G1 X145.040 Y108.792 E0.02755
G1 X144.749 Y109.224 E0.02614
G1 X144.371 Y109.582 E0.02614
G1 X143.015 Y110.324 E0.07756
G1 X142.251 Y110.485 E0.03918
G1 X107.258 Y112.351 E1.75865
M73 P8 R5
G1 X106.470 Y112.236 E0.03997
G1 X105.762 Y111.889 E0.03960
G1 X105.180 Y111.337 E0.04022
G1 X104.799 Y110.655 E0.03922
G1 X104.641 Y109.922 E0.03762
G1 X104.634 Y108.391 E0.07687
G1 X104.703 Y107.845 E0.02761
G1 X104.913 Y107.254 E0.03147
G1 X107.919 Y101.208 E0.33884
G1 X109.324 Y99.413 E0.11443
G1 X109.973 Y98.799 E0.04483
G1 X110.484 Y98.517 E0.02929
M204 S1250
G1 E-2.24000 F4200.000
;WIPE_START
G1 F7200.000
G1 X111.353 Y98.277 E-0.49949
G1 X112.095 Y98.226 E-0.41251
;WIPE_END
G1 E-0.04800 F4200.000
G1 Z0.550 F9000.000
G1 X112.762 Y98.370
G1 Z0.350
G1 E3.20000 F2400.000
M204 S800
;HEIGHT:0.2
G1 F1200.000
G1 X112.830 Y98.387 E0.00220
G1 X113.516 Y98.784 E0.02485
G1 X113.985 Y99.239 E0.02048
G1 X114.336 Y99.759 E0.01966
M73 P9 R5
G1 X114.565 Y100.292 E0.01821
G1 X114.802 Y101.355 E0.03414
G1 X115.132 Y101.780 E0.01687
G1 X115.735 Y101.028 E0.03024
G1 X116.146 Y100.652 E0.01746
G1 X116.527 Y100.379 E0.01471
G1 X116.860 Y100.082 E0.01398
G1 X117.224 Y99.845 E0.01361
G1 X117.398 Y99.763 E0.00604
G1 X117.521 Y99.582 E0.00685
G1 X117.744 Y99.345 E0.01021
G1 X118.002 Y99.016 E0.01311
G1 X118.406 Y98.610 E0.01796
G1 X119.083 Y98.062 E0.02731
G1 X119.363 Y97.924 E0.00980
M204 S1250
G1 E-2.24000 F4200.000
;WIPE_START
G1 F7200.000
G1 X119.083 Y98.062 E-0.17316
G1 X118.406 Y98.610 E-0.48277
G1 X118.081 Y98.938 E-0.25607
;WIPE_END
G1 E-0.04800 F4200.000
G1 Z0.550 F9000.000
G1 X122.068 Y97.835
G1 Z0.350
G1 E3.20000 F2400.000
M204 S800
G1 F1200.000
G1 X122.196 Y97.880 E0.00427
G1 X122.773 Y98.266 E0.02174
G1 X123.268 Y98.799 E0.02281
G1 X123.683 Y99.568 E0.02741
G1 X124.004 Y100.817 E0.04043
G1 X124.044 Y101.094 E0.00876
G1 X124.202 Y101.668 E0.01869
G1 X124.667 Y101.317 E0.01826
G1 X124.782 Y101.113 E0.00735
G1 X125.150 Y100.573 E0.02050
G1 X125.561 Y100.170 E0.01802
G1 X125.768 Y100.033 E0.00780
G1 X125.946 Y99.883 E0.00728
G1 X126.288 Y99.664 E0.01277
G1 X126.409 Y99.486 E0.00676
G1 X126.597 Y99.122 E0.01284
G1 X126.915 Y98.736 E0.01567
G1 X127.430 Y98.277 E0.02164
G1 X127.877 Y97.992 E0.01662
G1 X128.240 Y97.835 E0.01240
M204 S1250
G1 E-2.24000 F4200.000
;WIPE_START
G1 F7200.000
G1 X127.877 Y97.992 E-0.21910
G1 X127.430 Y98.277 E-0.29376
G1 X126.915 Y98.736 E-0.38253
G1 X126.896 Y98.759 E-0.01662
;WIPE_END
G1 E-0.04800 F4200.000
G1 Z0.550 F9000.000
G1 X130.785 Y97.834
G1 Z0.350
G1 E3.20000 F2400.000
M204 S800
G1 F1200.000
G1 X130.988 Y97.918 E0.00688
G1 X131.485 Y98.252 E0.01877
G1 X131.848 Y98.616 E0.01613
G1 X132.110 Y98.985 E0.01419
G1 X132.437 Y99.679 E0.02406
G1 X132.600 Y100.371 E0.02229
G1 X132.692 Y101.015 E0.02040
G1 X132.787 Y101.433 E0.01343
G1 X132.847 Y102.019 E0.01848
G1 X133.392 Y101.527 E0.02303
G1 X133.550 Y101.435 E0.00574
G1 X133.800 Y101.245 E0.00983
G1 X134.238 Y101.079 E0.01469
G1 X134.523 Y100.925 E0.01017
G1 X135.029 Y100.805 E0.01629
G1 X135.351 Y100.549 E0.01290
G1 X135.715 Y100.321 E0.01346
G1 X136.061 Y100.032 E0.01415
G1 X136.500 Y98.992 E0.03541
G1 X136.704 Y98.732 E0.01035
G1 X136.963 Y98.338 E0.01478
G1 X137.395 Y97.995 E0.01729
G1 X137.778 Y97.834 E0.01303
M204 S1250
G1 E-2.24000 F4200.000
;WIPE_START
G1 F7200.000
G1 X137.395 Y97.995 E-0.23034
G1 X136.963 Y98.338 E-0.30567
G1 X136.704 Y98.732 E-0.26130
G1 X136.576 Y98.895 E-0.11469
;WIPE_END
G1 E-0.04800 F4200.000
G1 Z0.550 F9000.000
G1 X142.620 Y101.015
G1 Z0.350
G1 E3.20000 F2400.000
M204 S800
G1 F1200.000
G1 X142.649 Y101.172 E0.00502
G1 X142.640 Y101.527 E0.01112
G1 X142.710 Y101.834 E0.00987
G1 X142.762 Y102.627 E0.02492
G1 X142.931 Y104.046 E0.04481
G1 X143.547 Y104.089 E0.01937
G1 X143.808 Y104.171 E0.00855
G1 X144.198 Y104.382 E0.01393
M73 P10 R5
G1 X144.261 Y104.440 E0.00269
M204 S1250
G1 E-2.24000 F4200.000
;WIPE_START
G1 F7200.000
G1 X144.198 Y104.382 E-0.04751
G1 X143.808 Y104.171 E-0.24618
G1 X143.547 Y104.089 E-0.15117
G1 X142.931 Y104.046 E-0.34242
G1 X142.904 Y103.822 E-0.12473
;WIPE_END
G1 E-0.04800 F4200.000
G1 Z0.550 F9000.000
G1 X140.689 Y110.380
G1 Z0.350
G1 E3.20000 F2400.000
M204 S800
G1 F1200.000
G1 X140.560 Y110.314 E0.00456
G1 X139.907 Y110.292 E0.02048
G1 X139.332 Y110.084 E0.01918
G1 X138.901 Y109.726 E0.01756
G1 X138.467 Y109.458 E0.01599
G1 X138.196 Y109.170 E0.01240
G1 X138.012 Y108.821 E0.01235
G1 X137.713 Y108.378 E0.01677
G1 X137.527 Y107.968 E0.01412
G1 X137.354 Y107.345 E0.02028
G1 X137.308 Y106.985 E0.01137
G1 X136.614 Y107.116 E0.02213
G1 X136.423 Y107.299 E0.00829
G1 X136.236 Y107.440 E0.00734
G1 X136.107 Y107.629 E0.00719
G1 X135.571 Y108.159 E0.02362
G1 X135.465 Y108.293 E0.00536
G1 X134.960 Y108.805 E0.02256
G1 X134.739 Y108.953 E0.00834
G1 X134.356 Y109.110 E0.01297
G1 X134.006 Y109.154 E0.01106
G1 X133.711 Y109.348 E0.01108
G1 X133.353 Y109.472 E0.01189
G1 X133.173 Y109.575 E0.00648
G1 X132.902 Y109.678 E0.00908
G1 X132.686 Y109.792 E0.00767
G1 X132.300 Y109.896 E0.01254
G1 X132.043 Y110.008 E0.00879
G1 X131.610 Y110.092 E0.01381
G1 X131.358 Y110.109 E0.00794
G1 X131.010 Y110.200 E0.01129
G1 X130.632 Y110.203 E0.01184
G1 X130.327 Y110.131 E0.00981
G1 X129.948 Y110.090 E0.01198
G1 X129.628 Y109.970 E0.01070
G1 X129.306 Y109.738 E0.01245
G1 X129.002 Y109.586 E0.01066
G1 X128.657 Y109.283 E0.01439
M73 P10 R4
G1 X128.451 Y108.965 E0.01189
G1 X128.283 Y108.754 E0.00844
G1 X128.007 Y108.261 E0.01774
G1 X127.809 Y107.681 E0.01919
G1 X127.579 Y107.161 E0.01783
G1 X127.091 Y107.947 E0.02899
G1 X126.655 Y108.501 E0.02211
G1 X126.164 Y108.998 E0.02190
G1 X125.826 Y109.281 E0.01383
G1 X125.491 Y109.881 E0.02156
G1 X125.150 Y110.316 E0.01731
G1 X124.654 Y110.764 E0.02097
G1 X124.078 Y111.085 E0.02066
G1 X123.413 Y111.277 E0.02170
G1 X122.673 Y111.300 E0.02322
G1 X121.986 Y111.154 E0.02202
G1 X121.538 Y110.945 E0.01551
G1 X121.133 Y110.871 E0.01289
G1 X120.588 Y110.620 E0.01884
G1 X120.138 Y110.298 E0.01734
G1 X119.741 Y109.891 E0.01782
G1 X119.332 Y109.240 E0.02410
G1 X119.107 Y108.526 E0.02348
G1 X119.057 Y108.159 E0.01161
G1 X119.000 Y107.922 E0.00765
G1 X118.927 Y107.274 E0.02043
G1 X118.240 Y107.816 E0.02744
G1 X117.873 Y107.987 E0.01269
G1 X117.737 Y108.338 E0.01182
G1 X117.471 Y108.767 E0.01582
G1 X117.099 Y109.181 E0.01745
G1 X116.730 Y109.486 E0.01502
G1 X116.354 Y109.699 E0.01356
G1 X115.721 Y110.199 E0.02528
G1 X114.987 Y110.570 E0.02579
G1 X114.540 Y110.727 E0.01485
G1 X113.981 Y110.808 E0.01772
G1 X113.257 Y110.766 E0.02273
G1 X112.356 Y110.429 E0.03016
G1 X111.680 Y109.922 E0.02649
G1 X111.390 Y109.609 E0.01338
G1 X111.043 Y109.110 E0.01905
G1 X110.531 Y110.116 E0.03540
G1 X110.172 Y110.578 E0.01833
G1 X109.643 Y111.028 E0.02178
G1 X109.535 Y111.209 E0.00660
G1 X109.232 Y111.581 E0.01504
G1 X108.734 Y112.004 E0.02049
G1 X108.540 Y112.094 E0.00670
M204 S1250
G1 E-2.24000 F4200.000
;WIPE_START
G1 F7200.000
G1 X108.734 Y112.004 E-0.11839
G1 X109.232 Y111.581 E-0.36209
G1 X109.535 Y111.209 E-0.26578
G1 X109.643 Y111.028 E-0.11673
G1 X109.710 Y110.971 E-0.04901
;WIPE_END
G1 E-0.04800 F4200.000
G1 Z0.550 F9000.000
G1 X105.608 Y106.278
G1 Z0.350
M73 P11 R4
G1 E3.20000 F2400.000
M204 S800
G1 F1200.000
G1 X105.678 Y106.217 E0.00290
G1 X105.779 Y105.935 E0.00938
M204 S1250
G1 E-2.24000 F4200.000
;WIPE_START
G1 F7200.000
G1 X105.678 Y106.217 E-0.16576
G1 X105.608 Y106.278 E-0.05125
;WIPE_END
G1 E-0.74299 F4200.000
G1 Z0.550 F9000.000
G1 X129.197 Y97.957
G1 Z0.350
G1 E3.20000 F2400.000
M204 S800
G1 F1200.000
G1 X129.828 Y97.957 E0.01978
G1 X130.333 Y98.051 E0.01612
G1 X130.823 Y98.258 E0.01666
G1 X131.258 Y98.553 E0.01647
G1 X131.551 Y98.849 E0.01306
G1 X131.777 Y99.164 E0.01217
G1 X132.074 Y99.786 E0.02162
G1 X132.231 Y100.450 E0.02137
G1 X132.321 Y101.085 E0.02011
G1 X132.413 Y101.484 E0.01284
G1 X132.440 Y101.745 E0.00825
G1 X132.537 Y102.167 E0.01357
G1 X132.564 Y102.427 E0.00820
G1 X132.655 Y102.795 E0.01188
G1 X132.994 Y102.636 E0.01174
G1 X133.132 Y102.455 E0.00712
G1 X133.347 Y102.076 E0.01367
G1 X133.626 Y101.823 E0.01181
G1 X133.753 Y101.754 E0.00454
G1 X134.003 Y101.564 E0.00984
G1 X134.397 Y101.423 E0.01310
G1 X134.639 Y101.285 E0.00874
G1 X135.037 Y101.190 E0.01282
G1 X135.155 Y101.187 E0.00373
G1 X135.560 Y100.863 E0.01626
G1 X135.944 Y100.623 E0.01419
G1 X136.182 Y100.412 E0.00999
G1 X136.299 Y100.335 E0.00438
G1 X136.375 Y100.259 E0.00335
G1 X136.836 Y99.165 E0.03722
G1 X137.007 Y98.958 E0.00842
G1 X137.260 Y98.573 E0.01445
G1 X137.602 Y98.311 E0.01351
G1 X138.092 Y98.110 E0.01661
G1 X138.630 Y97.973 E0.01742
G1 X139.650 Y97.969 E0.03196
G1 X139.921 Y98.021 E0.00865
G1 X140.230 Y98.159 E0.01060
G1 X140.527 Y98.251 E0.00978
G1 X140.773 Y98.390 E0.00886
G1 X140.897 Y98.495 E0.00506
G1 X141.217 Y98.652 E0.01118
M204 S1250
G1 X141.220 Y98.654 F9000.000
M204 S800
G1 F1200.000
G1 X141.314 Y98.745 E0.00413
M204 S1250
G1 X141.745 Y99.196 F9000.000
M204 S800
G1 F1200.000
G1 X141.756 Y99.212 E0.00063
M204 S1250
G1 X142.178 Y100.091 F9000.000
M204 S800
G1 F1200.000
G1 X142.202 Y100.260 E0.00536
G1 X142.182 Y100.720 E0.01443
G1 X142.272 Y101.184 E0.01482
G1 X142.262 Y101.567 E0.01201
G1 X142.335 Y101.875 E0.00992
G1 X142.387 Y102.665 E0.02482
G1 X142.484 Y103.406 E0.02344
G1 X142.533 Y103.963 E0.01753
G1 X142.691 Y104.411 E0.01489
G1 X143.462 Y104.457 E0.02422
G1 X143.651 Y104.514 E0.00620
G1 X143.961 Y104.676 E0.01097
G1 X144.173 Y104.874 E0.00910
G1 X144.309 Y104.961 E0.00505
G1 X144.686 Y105.326 E0.01646
M204 S1250
G1 X145.015 Y106.013 F9000.000
M204 S800
G1 F1200.000
G1 X145.049 Y106.578 E0.01775
G1 X145.099 Y106.874 E0.00941
G1 X145.095 Y107.011 E0.00431
G1 X145.170 Y107.333 E0.01034
M204 S1250
G1 X144.908 Y108.621 F9000.000
M204 S800
G1 F1200.000
G1 X144.716 Y108.816 E0.00857
G1 X144.582 Y109.066 E0.00888
G1 X144.397 Y109.266 E0.00855
G1 X143.852 Y109.575 E0.01966
G1 X143.716 Y109.726 E0.00635
M204 S1250
G1 X142.817 Y110.173 F9000.000
M204 S800
G1 F1200.000
G1 X141.343 Y110.192 E0.04622
G1 X140.870 Y110.052 E0.01547
G1 X140.659 Y109.938 E0.00752
G1 X139.998 Y109.926 E0.02073
G1 X139.545 Y109.770 E0.01503
G1 X139.118 Y109.417 E0.01737
G1 X138.723 Y109.180 E0.01445
G1 X138.491 Y108.933 E0.01063
G1 X138.339 Y108.630 E0.01061
G1 X138.050 Y108.206 E0.01609
G1 X137.876 Y107.826 E0.01312
G1 X137.721 Y107.260 E0.01837
G1 X137.688 Y106.968 E0.00924
G1 X137.572 Y106.403 E0.01808
G1 X137.083 Y106.645 E0.01711
G1 X136.630 Y106.722 E0.01442
G1 X136.407 Y106.792 E0.00731
G1 X136.187 Y107.005 E0.00962
G1 X135.955 Y107.179 E0.00908
G1 X135.826 Y107.376 E0.00739
G1 X135.288 Y107.909 E0.02373
G1 X135.189 Y108.037 E0.00508
G1 X134.705 Y108.527 E0.02159
G1 X134.579 Y108.611 E0.00477
G1 X134.240 Y108.749 E0.01146
G1 X133.871 Y108.788 E0.01163
G1 X133.562 Y109.001 E0.01179
G1 X133.193 Y109.129 E0.01225
G1 X133.023 Y109.229 E0.00618
G1 X132.747 Y109.334 E0.00925
G1 X132.531 Y109.447 E0.00765
G1 X132.173 Y109.539 E0.01158
M73 P12 R4
G1 X131.947 Y109.642 E0.00779
G1 X131.551 Y109.720 E0.01264
G1 X131.294 Y109.734 E0.00807
G1 X130.979 Y109.823 E0.01027
G1 X130.655 Y109.826 E0.01017
G1 X130.392 Y109.758 E0.00851
G1 X130.055 Y109.728 E0.01061
G1 X129.788 Y109.627 E0.00896
G1 X129.501 Y109.413 E0.01122
G1 X129.230 Y109.284 E0.00944
G1 X128.928 Y109.019 E0.01257
G1 X128.759 Y108.746 E0.01006
G1 X128.604 Y108.555 E0.00773
G1 X128.345 Y108.092 E0.01663
G1 X128.161 Y107.545 E0.01809
G1 X128.052 Y107.298 E0.00848
G1 X127.801 Y106.505 E0.02608
G1 X127.104 Y107.210 E0.03109
G1 X126.788 Y107.722 E0.01887
G1 X126.365 Y108.259 E0.02143
G1 X125.903 Y108.726 E0.02060
G1 X125.539 Y109.028 E0.01482
G1 X125.329 Y109.373 E0.01267
G1 X125.180 Y109.666 E0.01031
G1 X124.864 Y110.070 E0.01608
G1 X124.419 Y110.468 E0.01871
G1 X123.917 Y110.743 E0.01796
G1 X123.335 Y110.907 E0.01895
G1 X122.688 Y110.922 E0.02030
G1 X122.090 Y110.791 E0.01921
G1 X121.652 Y110.581 E0.01522
G1 X121.267 Y110.517 E0.01224
G1 X120.762 Y110.285 E0.01743
G1 X120.394 Y110.021 E0.01419
G1 X120.047 Y109.670 E0.01548
G1 X119.684 Y109.102 E0.02113
G1 X119.472 Y108.429 E0.02213
G1 X119.428 Y108.091 E0.01069
G1 X119.371 Y107.854 E0.00764
G1 X119.357 Y107.617 E0.00743
G1 X119.312 Y107.438 E0.00579
G1 X119.295 Y107.207 E0.00728
G1 X119.165 Y106.408 E0.02535
G1 X118.462 Y107.161 E0.03227
G1 X118.026 Y107.505 E0.01741
G1 X117.575 Y107.705 E0.01548
G1 X117.405 Y108.158 E0.01518
G1 X117.179 Y108.528 E0.01359
G1 X116.828 Y108.918 E0.01643
G1 X116.504 Y109.184 E0.01314
G1 X116.143 Y109.385 E0.01298
G1 X115.533 Y109.872 E0.02446
G1 X114.827 Y110.229 E0.02480
G1 X114.465 Y110.357 E0.01205
G1 X113.982 Y110.430 E0.01531
G1 X113.309 Y110.391 E0.02115
G1 X112.517 Y110.087 E0.02659
G1 X111.946 Y109.654 E0.02248
G1 X111.677 Y109.363 E0.01243
G1 X111.452 Y109.036 E0.01243
G1 X111.008 Y108.160 E0.03081
G1 X110.746 Y108.860 E0.02342
G1 X110.220 Y109.902 E0.03659
G1 X109.908 Y110.309 E0.01609
G1 X109.508 Y110.661 E0.01670
G1 X109.373 Y110.742 E0.00492
G1 X109.231 Y110.985 E0.00885
G1 X108.972 Y111.308 E0.01299
G1 X108.547 Y111.675 E0.01759
G1 X107.996 Y111.938 E0.01915
G1 X107.471 Y112.039 E0.01675
G1 X106.968 Y112.034 E0.01578
G1 X106.380 Y111.883 E0.01903
G1 X105.776 Y111.523 E0.02205
G1 X105.403 Y111.133 E0.01692
