; generated by PrusaSlicer 2.3.3+win64 on 2021-10-14 at 11:27:50 UTC

; 

; external perimeters extrusion width = 0.45mm
; perimeters extrusion width = 0.45mm
; infill extrusion width = 0.45mm
; solid infill extrusion width = 0.45mm
; top infill extrusion width = 0.40mm
; first layer extrusion width = 0.42mm

M73 P0 R4
M201 X1250 Y1250 Z400 E5000 ; sets maximum accelerations, mm/sec^2
M203 X180 Y180 Z12 E80 ; sets maximum feedrates, mm/sec
M204 P1250 R1250 T1250 ; sets acceleration (P, T) and retract acceleration (R), mm/sec^2
M205 X8.00 Y8.00 Z2.00 E10.00 ; sets the jerk limits, mm/sec
M205 S0 T0 ; sets the minimum extruding and travel feed rate, mm/sec
M107
;TYPE:Custom
G90 ; use absolute coordinates
M83 ; extruder relative mode
M104 S170 ; set extruder temp for bed leveling
M140 S60 ; set bed temp
M109 R170 ; wait for bed leveling temp
M190 S60 ; wait for bed temp
G28 ; home all without mesh bed level
G29 ; mesh bed leveling 
M104 S215 ; set extruder temp
G92 E0.0
G1 Y-2.0 X179 F2400
M73 P1 R4
G1 Z3 F720
M109 S215 ; wait for extruder temp

; intro line
M73 P2 R4
G1 X170 F1000
G1 Z0.2 F720
G1 X110.0 E8.0 F900
M73 P4 R4
G1 X40.0 E10.0 F700
G92 E0.0

M221 S95 ; set flow
G21 ; set units to millimeters
G90 ; use absolute coordinates
M83 ; use relative distances for extrusion
M900 K0.2 ; Filament gcode LA 1.5
; ; Filament gcode LA 1.0
;LAYER_CHANGE
;Z:0.35
;HEIGHT:0.35
;BEFORE_LAYER_CHANGE
G92 E0.0
;0.35


M73 P6 R4
G1 Z0.350 F9000.000
;AFTER_LAYER_CHANGE
;0.35
G1 E-3.20000 F4200.000
G1 Z0.550 F9000.000
G1 X103.976 Y99.940
M73 P7 R4
G1 Z0.350
G1 E3.20000 F2400.000
M204 S800
;TYPE:Skirt
;WIDTH:0.42
G1 F1200.000
G1 X104.573 Y99.266 E0.04518
G1 X105.415 Y98.650 E0.05234
G1 X106.150 Y98.293 E0.04101
G1 X107.063 Y98.017 E0.04788
G1 X107.946 Y97.855 E0.04503
G1 X125.626 Y97.262 E0.88781
G1 X143.172 Y97.508 E0.88064
M73 P8 R4
G1 X143.697 Y97.567 E0.02650
G1 X144.341 Y97.785 E0.03413
G1 X144.868 Y98.099 E0.03080
G1 X145.337 Y98.535 E0.03215
G1 X145.918 Y99.250 E0.04621
G1 X146.226 Y99.794 E0.03134
G1 X146.452 Y100.448 E0.03477
G1 X146.518 Y101.034 E0.02957
G1 X146.457 Y101.683 E0.03269
G1 X146.204 Y102.409 E0.03859
G1 X145.846 Y102.976 E0.03366
G1 X144.291 Y104.331 E0.10349
G1 X141.767 Y106.107 E0.15490
G1 X136.479 Y109.345 E0.31117
G1 X135.764 Y109.661 E0.03926
G1 X129.797 Y111.091 E0.30795
G1 X128.623 Y111.277 E0.05963
G1 X111.133 Y112.734 E0.88078
M73 P9 R4
G1 X110.277 Y112.682 E0.04305
G1 X109.527 Y112.433 E0.03966
G1 X108.112 Y111.692 E0.08013
G1 X107.430 Y111.074 E0.04621
G1 X107.027 Y110.443 E0.03757
G1 X103.581 Y103.347 E0.39592
G1 X103.476 Y102.669 E0.03441
G1 X103.492 Y101.270 E0.07024
G1 X103.646 Y100.626 E0.03323
G1 X103.950 Y99.994 E0.03519
M204 S1250
G1 E-2.24000 F4200.000
;WIPE_START
G1 F7200.000
G1 X104.573 Y99.266 E-0.53100
G1 X105.128 Y98.860 E-0.38100
;WIPE_END
G1 E-0.04800 F4200.000
G1 Z0.550 F9000.000
G1 X103.934 Y103.206
G1 Z0.350
G1 E3.20000 F2400.000
M204 S800
G1 F1200.000
G1 X103.852 Y102.632 E0.02909
G1 X103.868 Y101.298 E0.06697
G1 X104.008 Y100.734 E0.02917
G1 X104.312 Y100.116 E0.03457
G1 X104.849 Y99.525 E0.04003
G1 X105.642 Y98.953 E0.04907
G1 X106.307 Y98.637 E0.03698
G1 X107.205 Y98.369 E0.04704
G1 X107.963 Y98.232 E0.03866
G1 X125.626 Y97.639 E0.88693
M73 P10 R3
G1 X143.584 Y97.928 E0.90131
G1 X144.102 Y98.090 E0.02728
G1 X144.632 Y98.394 E0.03063
G1 X145.585 Y99.432 E0.07074
G1 X145.868 Y99.917 E0.02816
G1 X146.075 Y100.489 E0.03056
G1 X146.140 Y100.995 E0.02557
G1 X146.097 Y101.558 E0.02834
G1 X145.872 Y102.230 E0.03559
G1 X145.550 Y102.741 E0.03031
G1 X144.061 Y104.032 E0.09891
G1 X141.570 Y105.785 E0.15284
G1 X136.292 Y109.018 E0.31064
G1 X135.641 Y109.304 E0.03567
G1 X129.715 Y110.723 E0.30582
G1 X128.578 Y110.902 E0.05779
M73 P11 R3
G1 X111.122 Y112.357 E0.87906
G1 X110.348 Y112.312 E0.03892
G1 X109.675 Y112.086 E0.03563
G1 X108.319 Y111.377 E0.07681
G1 X107.704 Y110.814 E0.04181
G1 X107.362 Y110.269 E0.03228
G1 X103.960 Y103.260 E0.39101
M204 S1250
G1 E-2.24000 F4200.000
;WIPE_START
G1 F7200.000
G1 X103.852 Y102.632 E-0.35300
G1 X103.864 Y101.624 E-0.55900
;WIPE_END
G1 E-0.04800 F4200.000
G1 Z0.550 F9000.000
G1 X129.096 Y106.459
G1 Z0.350
G1 E3.20000 F2400.000
M204 S800
;HEIGHT:0.2
G1 F1200.000
G1 X129.601 Y106.100 E0.01941
G1 X129.727 Y106.055 E0.00418
G1 X130.246 Y105.793 E0.01826
G1 X130.405 Y105.602 E0.00779
G1 X130.474 Y105.428 E0.00588
G1 X130.602 Y105.274 E0.00625
G1 X130.665 Y105.109 E0.00554
G1 X130.925 Y104.756 E0.01376
G1 X130.988 Y104.593 E0.00545
G1 X131.130 Y104.377 E0.00813
G1 X131.211 Y104.348 E0.00269
G1 X131.309 Y104.267 E0.00399
G1 X131.363 Y104.171 E0.00346
G1 X132.680 Y103.720 E0.04363
M73 P12 R3
G1 X132.835 Y103.703 E0.00489
G1 X132.916 Y103.663 E0.00285
G1 X133.107 Y103.708 E0.00616
G1 X133.537 Y103.720 E0.01347
G1 X133.644 Y103.832 E0.00485
G1 X133.642 Y103.918 E0.00269
G1 X133.946 Y104.219 E0.01341
G1 X134.087 Y104.468 E0.00898
G1 X134.141 Y104.508 E0.00211
G1 X134.277 Y104.725 E0.00805
G1 X134.338 Y104.769 E0.00236
G1 X134.505 Y105.032 E0.00976
G1 X134.912 Y104.620 E0.01815
G1 X135.102 Y104.459 E0.00781
G1 X135.191 Y104.418 E0.00309
G1 X135.299 Y104.329 E0.00438
G1 X135.393 Y104.288 E0.00321
G1 X135.697 Y104.064 E0.01186
G1 X135.862 Y104.000 E0.00554
G1 X136.013 Y103.876 E0.00613
G1 X136.132 Y103.833 E0.00397
G1 X136.850 Y103.472 E0.02521
G1 X137.328 Y102.988 E0.02133
G1 X137.587 Y102.779 E0.01042
G1 X137.681 Y102.623 E0.00574
G1 X138.212 Y102.460 E0.01741
G1 X138.990 Y102.446 E0.02439
G1 X139.196 Y102.366 E0.00692
G1 X139.348 Y102.240 E0.00620
G1 X139.522 Y102.173 E0.00583
G1 X140.153 Y101.537 E0.02810
G1 X140.330 Y101.388 E0.00727
G1 X140.419 Y101.347 E0.00306
G1 X140.580 Y101.200 E0.00683
G1 X140.708 Y101.153 E0.00427
G1 X141.318 Y100.848 E0.02137
G1 X141.640 Y100.640 E0.01203
G1 X141.648 Y100.602 E0.00123
G1 X141.966 Y100.341 E0.01288
G1 X142.040 Y100.307 E0.00256
G1 X142.362 Y100.013 E0.01367
G1 X142.420 Y99.986 E0.00203
G1 X142.708 Y99.744 E0.01178
G1 X142.756 Y99.726 E0.00161
G1 X143.122 Y99.696 E0.01151
G1 X143.342 Y99.714 E0.00691
G1 X143.401 Y99.680 E0.00216
G1 X143.550 Y99.716 E0.00481
G1 X143.742 Y100.027 E0.01146
G1 X143.837 Y100.118 E0.00413
G1 X143.868 Y100.211 E0.00307
G1 X144.181 Y100.534 E0.01409
G1 X144.237 Y100.542 E0.00180
G1 X144.329 Y100.649 E0.00441
G1 X144.329 Y101.029 E0.01191
G1 X144.376 Y101.197 E0.00547
G1 X144.249 Y101.448 E0.00883
G1 X144.278 Y101.594 E0.00466
G1 X144.200 Y101.720 E0.00463
G1 X144.035 Y101.765 E0.00537
G1 X144.010 Y101.809 E0.00158
G1 X143.944 Y101.831 E0.00218
G1 X143.806 Y102.051 E0.00815
G1 X143.568 Y102.115 E0.00774
G1 X143.413 Y102.375 E0.00947
G1 X143.216 Y102.429 E0.00641
G1 X143.088 Y102.636 E0.00763
G1 X142.842 Y102.704 E0.00802
G1 X142.752 Y102.842 E0.00516
G1 X142.478 Y102.912 E0.00888
G1 X142.275 Y103.021 E0.00720
G1 X142.202 Y103.124 E0.00397
G1 X141.926 Y103.180 E0.00882
G1 X141.892 Y103.276 E0.00320
G1 X141.619 Y103.447 E0.01009
G1 X141.570 Y103.548 E0.00354
G1 X141.092 Y103.906 E0.01872
G1 X140.987 Y104.022 E0.00491
G1 X140.818 Y104.141 E0.00649
G1 X140.751 Y104.160 E0.00218
G1 X140.606 Y104.293 E0.00617
G1 X140.538 Y104.403 E0.00406
G1 X140.187 Y104.509 E0.01150
G1 X139.930 Y104.783 E0.01177
G1 X139.567 Y104.803 E0.01140
G1 X138.922 Y104.793 E0.02024
G1 X138.701 Y104.954 E0.00859
G1 X138.670 Y105.003 E0.00179
G1 X138.536 Y105.088 E0.00500
G1 X138.396 Y105.236 E0.00636
G1 X138.252 Y105.341 E0.00561
G1 X138.197 Y105.447 E0.00375
G1 X138.117 Y105.478 E0.00268
G1 X138.047 Y105.586 E0.00404
G1 X137.766 Y105.658 E0.00908
G1 X137.584 Y105.755 E0.00646
G1 X137.523 Y105.849 E0.00352
G1 X137.159 Y105.942 E0.01179
G1 X136.450 Y106.430 E0.02701
G1 X136.410 Y106.564 E0.00436
G1 X136.290 Y106.646 E0.00454
G1 X136.246 Y106.773 E0.00423
G1 X136.095 Y106.852 E0.00536
G1 X136.083 Y106.890 E0.00127
G1 X135.968 Y106.969 E0.00436
G1 X135.957 Y107.012 E0.00139
G1 X135.809 Y107.129 E0.00591
G1 X135.764 Y107.242 E0.00382
G1 X135.455 Y107.402 E0.01091
G1 X135.456 Y107.484 E0.00257
G1 X135.348 Y107.596 E0.00487
G1 X134.531 Y107.616 E0.02564
G1 X134.463 Y107.562 E0.00270
G1 X133.646 Y107.300 E0.02689
G1 X133.280 Y107.113 E0.01291
G1 X133.138 Y107.092 E0.00451
G1 X132.741 Y106.581 E0.02031
G1 X132.487 Y106.666 E0.00839
G1 X132.485 Y106.789 E0.00388
G1 X132.274 Y107.042 E0.01032
G1 X132.131 Y107.418 E0.01263
G1 X131.765 Y107.641 E0.01344
G1 X131.729 Y107.696 E0.00205
G1 X131.672 Y107.737 E0.00223
G1 X131.610 Y107.753 E0.00200
G1 X131.394 Y107.880 E0.00785
G1 X130.668 Y108.228 E0.02524
G1 X130.576 Y108.332 E0.00436
G1 X130.437 Y108.430 E0.00535
G1 X130.346 Y108.581 E0.00552
G1 X130.169 Y108.635 E0.00580
G1 X130.079 Y108.765 E0.00495
G1 X129.872 Y108.805 E0.00661
G1 X129.837 Y108.837 E0.00148
G1 X129.769 Y108.844 E0.00214
G1 X129.704 Y108.879 E0.00232
G1 X129.346 Y108.932 E0.01136
G1 X129.289 Y108.998 E0.00271
G1 X129.170 Y109.007 E0.00374
G1 X129.134 Y109.044 E0.00160
G1 X128.800 Y109.045 E0.01046
G1 X128.748 Y109.100 E0.00238
G1 X127.387 Y109.101 E0.04266
G1 X127.034 Y108.995 E0.01155
G1 X126.773 Y108.850 E0.00936
G1 X126.622 Y108.798 E0.00503
G1 X126.234 Y108.091 E0.02527
G1 X126.250 Y108.025 E0.00214
G1 X126.203 Y107.895 E0.00431
G1 X126.184 Y107.754 E0.00448
G1 X125.900 Y106.936 E0.02715
G1 X125.861 Y106.718 E0.00693
G1 X125.573 Y105.890 E0.02749
G1 X125.535 Y105.681 E0.00668
G1 X125.352 Y105.146 E0.01771
G1 X125.333 Y104.946 E0.00630
G1 X125.278 Y104.777 E0.00559
G1 X125.269 Y104.618 E0.00499
G1 X125.221 Y104.492 E0.00424
G1 X125.138 Y104.030 E0.01470
G1 X125.082 Y103.862 E0.00556
G1 X125.074 Y103.732 E0.00409
G1 X125.022 Y103.567 E0.00542
G1 X124.911 Y102.927 E0.02035
M73 P13 R3
G1 X124.615 Y102.908 E0.00929
G1 X124.571 Y103.047 E0.00460
G1 X124.450 Y103.181 E0.00567
G1 X124.333 Y103.190 E0.00367
G1 X124.297 Y103.227 E0.00160
G1 X123.986 Y103.229 E0.00975
G1 X123.893 Y103.266 E0.00313
G1 X123.806 Y103.229 E0.00296
G1 X123.219 Y103.227 E0.01844
G1 X123.053 Y103.456 E0.00886
G1 X122.714 Y103.796 E0.01505
G1 X122.420 Y103.983 E0.01092
G1 X122.334 Y104.072 E0.00389
G1 X122.231 Y104.101 E0.00336
G1 X122.193 Y104.161 E0.00222
G1 X122.058 Y104.252 E0.00511
G1 X122.024 Y104.308 E0.00206
G1 X121.919 Y104.363 E0.00373
G1 X121.881 Y104.434 E0.00252
G1 X121.807 Y104.462 E0.00248
G1 X121.628 Y104.651 E0.00816
G1 X121.268 Y104.662 E0.01130
G1 X121.180 Y104.694 E0.00293
G1 X120.829 Y104.724 E0.01107
G1 X120.525 Y104.979 E0.01243
G1 X120.439 Y105.148 E0.00594
G1 X120.250 Y105.345 E0.00857
G1 X120.174 Y105.478 E0.00481
G1 X119.751 Y105.894 E0.01861
G1 X119.716 Y105.948 E0.00203
G1 X119.494 Y106.141 E0.00921
G1 X119.478 Y106.189 E0.00156
G1 X119.376 Y106.255 E0.00383
G1 X119.343 Y106.348 E0.00311
G1 X119.088 Y106.507 E0.00941
G1 X118.799 Y106.754 E0.01192
G1 X118.734 Y106.772 E0.00212
G1 X118.591 Y106.895 E0.00590
G1 X118.454 Y106.958 E0.00474
G1 X118.336 Y107.143 E0.00686
G1 X118.248 Y107.177 E0.00296
G1 X118.186 Y107.277 E0.00370
G1 X117.939 Y107.345 E0.00803
G1 X117.859 Y107.474 E0.00478
G1 X117.612 Y107.542 E0.00802
G1 X117.532 Y107.670 E0.00475
G1 X117.320 Y107.728 E0.00690
G1 X117.131 Y107.952 E0.00917
G1 X117.011 Y107.962 E0.00377
G1 X116.975 Y107.998 E0.00160
G1 X116.529 Y108.001 E0.01398
G1 X116.444 Y108.043 E0.00301
G1 X116.305 Y108.004 E0.00452
G1 X116.107 Y108.008 E0.00620
G1 X116.076 Y107.983 E0.00126
G1 X115.915 Y107.975 E0.00505
G1 X115.739 Y107.777 E0.00830
G1 X115.315 Y107.538 E0.01525
G1 X115.097 Y107.901 E0.01329
G1 X115.097 Y107.990 E0.00278
G1 X114.909 Y108.250 E0.01004
G1 X114.863 Y108.378 E0.00429
G1 X114.794 Y108.481 E0.00388
G1 X114.755 Y108.645 E0.00529
G1 X114.578 Y108.781 E0.00700
G1 X114.389 Y109.052 E0.01035
G1 X114.223 Y109.094 E0.00537
G1 X114.170 Y109.167 E0.00285
G1 X113.774 Y109.258 E0.01274
G1 X113.524 Y109.390 E0.00888
G1 X113.370 Y109.419 E0.00489
G1 X113.292 Y109.557 E0.00497
G1 X113.024 Y109.654 E0.00893
G1 X112.957 Y109.762 E0.00399
G1 X112.710 Y109.829 E0.00800
G1 X112.621 Y109.966 E0.00513
G1 X112.516 Y109.994 E0.00343
G1 X112.491 Y110.032 E0.00143
G1 X112.173 Y110.113 E0.01028
G1 X112.099 Y110.228 E0.00429
G1 X111.993 Y110.255 E0.00341
G1 X111.970 Y110.292 E0.00137
G1 X111.690 Y110.370 E0.00911
G1 X111.576 Y110.501 E0.00544
G1 X111.446 Y110.512 E0.00411
G1 X111.411 Y110.547 E0.00155
G1 X110.541 Y110.557 E0.02728
G1 X110.439 Y110.461 E0.00437
G1 X110.285 Y110.422 E0.00498
G1 X110.227 Y110.334 E0.00329
G1 X109.444 Y109.946 E0.02742
G1 X109.279 Y109.840 E0.00613
G1 X109.151 Y109.725 E0.00540
G1 X108.992 Y109.479 E0.00920
G1 X108.841 Y109.095 E0.01293
G1 X108.660 Y108.329 E0.02468
G1 X108.552 Y108.017 E0.01035
G1 X108.469 Y107.617 E0.01280
G1 X108.359 Y107.306 E0.01035
G1 X108.341 Y107.168 E0.00437
G1 X108.293 Y107.042 E0.00422
G1 X108.207 Y106.641 E0.01285
G1 X108.094 Y106.314 E0.01087
G1 X107.963 Y105.789 E0.01696
G1 X107.756 Y104.760 E0.03291
G1 X107.696 Y104.581 E0.00590
G1 X107.689 Y104.459 E0.00383
G1 X107.638 Y104.290 E0.00553
G1 X107.623 Y104.144 E0.00461
G1 X107.568 Y103.945 E0.00647
G1 X107.490 Y103.508 E0.01392
G1 X107.444 Y103.384 E0.00414
G1 X107.404 Y103.040 E0.01086
G1 X106.876 Y103.185 E0.01716
G1 X106.770 Y103.259 E0.00408
G1 X106.518 Y103.344 E0.00833
G1 X106.382 Y103.321 E0.00431
G1 X106.133 Y103.347 E0.00787
G1 X106.019 Y103.271 E0.00429
G1 X105.993 Y103.182 E0.00290
G1 X105.826 Y103.025 E0.00719
G1 X105.664 Y102.737 E0.01035
G1 X105.654 Y101.547 E0.03732
G1 X105.830 Y101.010 E0.01772
G1 X106.032 Y100.902 E0.00719
G1 X106.143 Y100.802 E0.00468
G1 X106.239 Y100.756 E0.00334
G1 X106.404 Y100.606 E0.00696
G1 X106.520 Y100.551 E0.00403
G1 X106.629 Y100.409 E0.00561
G1 X107.061 Y100.307 E0.01393
G1 X107.181 Y100.256 E0.00409
G1 X107.917 Y100.058 E0.02390
G1 X108.181 Y100.039 E0.00831
G1 X108.766 Y100.061 E0.01836
G1 X108.872 Y100.172 E0.00482
G1 X108.872 Y100.235 E0.00197
G1 X109.167 Y100.404 E0.01069
G1 X109.265 Y100.749 E0.01122
G1 X109.334 Y100.849 E0.00383
G1 X109.389 Y101.033 E0.00602
G1 X109.363 Y101.106 E0.00242
G1 X109.408 Y101.195 E0.00313
G1 X109.433 Y101.431 E0.00745
G1 X109.491 Y101.647 E0.00701
G1 X109.576 Y102.127 E0.01530
G1 X109.645 Y102.186 E0.00284
G1 X109.683 Y102.569 E0.01206
G1 X109.772 Y103.042 E0.01510
G1 X109.841 Y103.101 E0.00285
G1 X109.870 Y103.397 E0.00934
G1 X109.906 Y103.428 E0.00147
G1 X109.954 Y103.904 E0.01501
G1 X110.003 Y103.983 E0.00292
G1 X110.168 Y104.881 E0.02862
G1 X110.216 Y104.919 E0.00193
G1 X110.248 Y105.154 E0.00742
G1 X110.282 Y105.181 E0.00135
G1 X110.313 Y105.415 E0.00742
G1 X110.347 Y105.442 E0.00135
G1 X110.403 Y105.854 E0.01303
G1 X110.443 Y105.901 E0.00196
G1 X110.541 Y106.343 E0.01419
G1 X110.576 Y106.406 E0.00225
G1 X110.608 Y106.638 E0.00736
G1 X110.710 Y107.015 E0.01225
G1 X110.772 Y107.125 E0.00393
G1 X110.797 Y107.309 E0.00583
G1 X110.838 Y107.391 E0.00287
G1 X110.858 Y107.537 E0.00462
G1 X110.938 Y107.601 E0.00323
G1 X111.009 Y108.007 E0.01290
M73 P14 R3
G1 X111.417 Y107.857 E0.01362
G1 X111.571 Y107.729 E0.00628
G1 X111.745 Y107.660 E0.00588
G1 X111.898 Y107.533 E0.00622
G1 X112.067 Y107.465 E0.00570
G1 X112.272 Y107.316 E0.00795
G1 X112.505 Y107.243 E0.00766
G1 X112.844 Y107.073 E0.01187
G1 X113.068 Y106.748 E0.01240
G1 X113.154 Y106.539 E0.00707
G1 X113.277 Y106.391 E0.00605
G1 X113.413 Y106.084 E0.01053
G1 X113.542 Y105.928 E0.00633
G1 X113.615 Y105.748 E0.00610
G1 X113.787 Y105.552 E0.00819
G1 X113.953 Y105.427 E0.00653
G1 X114.295 Y105.294 E0.01149
G1 X114.647 Y105.210 E0.01133
G1 X114.967 Y105.202 E0.01006
G1 X115.205 Y105.140 E0.00771
G1 X115.901 Y105.154 E0.02180
G1 X115.963 Y105.182 E0.00213
G1 X116.013 Y105.235 E0.00229
G1 X116.353 Y105.331 E0.01110
G1 X116.442 Y105.466 E0.00506
G1 X117.354 Y104.870 E0.03416
G1 X117.511 Y104.728 E0.00665
G1 X117.604 Y104.680 E0.00327
G1 X118.472 Y103.812 E0.03850
G1 X118.515 Y103.723 E0.00309
G1 X118.735 Y103.486 E0.01013
G1 X118.781 Y103.394 E0.00323
G1 X118.999 Y103.152 E0.01023
G1 X119.035 Y103.075 E0.00264
G1 X119.184 Y102.898 E0.00729
G1 X119.387 Y102.711 E0.00863
G1 X119.438 Y102.623 E0.00319
G1 X119.566 Y102.580 E0.00424
G1 X119.649 Y102.487 E0.00390
G1 X120.220 Y102.450 E0.01792
G1 X120.391 Y102.401 E0.00559
G1 X120.547 Y102.389 E0.00490
