; generated by PrusaSlicer 2.3.3+win64 on 2021-10-12 at 15:14:04 UTC

; 

; external perimeters extrusion width = 0.45mm
; perimeters extrusion width = 0.45mm
; infill extrusion width = 0.45mm
; solid infill extrusion width = 0.45mm
; top infill extrusion width = 0.40mm
; first layer extrusion width = 0.42mm

M73 P0 R6
M201 X1250 Y1250 Z400 E5000 ; sets maximum accelerations, mm/sec^2
M203 X180 Y180 Z12 E80 ; sets maximum feedrates, mm/sec
M204 P1250 R1250 T1250 ; sets acceleration (P, T) and retract acceleration (R), mm/sec^2
M205 X8.00 Y8.00 Z2.00 E10.00 ; sets the jerk limits, mm/sec
M205 S0 T0 ; sets the minimum extruding and travel feed rate, mm/sec
M107
;TYPE:Custom
G90 ; use absolute coordinates
M83 ; extruder relative mode
M104 S170 ; set extruder temp for bed leveling
M140 S60 ; set bed temp
M109 R170 ; wait for bed leveling temp
M190 S60 ; wait for bed temp
G28 ; home all without mesh bed level
G29 ; mesh bed leveling 
M104 S215 ; set extruder temp
G92 E0.0
G1 Y-2.0 X179 F2400
M73 P1 R6
G1 Z3 F720
M109 S215 ; wait for extruder temp

; intro line
G1 X170 F1000
G1 Z0.2 F720
G1 X110.0 E8.0 F900
M73 P2 R5
G1 X40.0 E10.0 F700
G92 E0.0

M221 S95 ; set flow
G21 ; set units to millimeters
G90 ; use absolute coordinates
M83 ; use relative distances for extrusion
M900 K0.2 ; Filament gcode LA 1.5
; ; Filament gcode LA 1.0
;LAYER_CHANGE
;Z:0.35
;HEIGHT:0.35
;BEFORE_LAYER_CHANGE
G92 E0.0
;0.35


M73 P4 R5
G1 Z0.350 F9000.000
;AFTER_LAYER_CHANGE
;0.35
G1 E-3.20000 F4200.000
G1 Z0.550 F9000.000
G1 X-18.532 Y7.621
G1 Z0.350
G1 E3.20000 F2400.000
M204 S800
;TYPE:Skirt
;WIDTH:0.42
G1 F1200.000
G1 X-19.383 Y7.201 E0.04764
G1 X-20.029 Y6.583 E0.04487
G1 X-20.475 Y5.770 E0.04655
G1 X-20.646 Y4.879 E0.04554
G1 X-20.606 Y2.923 E0.09814
G1 X-19.857 Y0.767 E0.11457
G1 X-19.400 Y-0.297 E0.05811
G1 X-14.397 Y-6.159 E0.38677
M73 P5 R5
G1 X-13.478 Y-6.953 E0.06094
G1 X-12.623 Y-7.388 E0.04818
G1 X-11.679 Y-7.562 E0.04813
G1 X-1.757 Y-7.686 E0.49800
G1 X16.115 Y-7.743 E0.89694
G1 X16.919 Y-7.622 E0.04080
G1 X17.881 Y-7.201 E0.05271
G1 X18.580 Y-6.596 E0.04641
G1 X19.036 Y-5.917 E0.04104
G1 X19.400 Y-4.887 E0.05480
G1 X20.599 Y0.734 E0.28846
G1 X20.642 Y2.591 E0.09320
G1 X20.404 Y3.581 E0.05109
G1 X20.053 Y4.193 E0.03544
G1 X19.592 Y4.700 E0.03437
G1 X19.141 Y5.047 E0.02855
G1 X18.535 Y5.350 E0.03401
G1 X17.964 Y5.494 E0.02957
G1 X8.938 Y6.692 E0.45691
G1 X-17.623 Y7.747 E1.33405
M73 P6 R5
G1 X-18.472 Y7.629 E0.04303
M204 S1250
G1 X-18.419 Y7.261 F9000.000
M204 S800
G1 F1200.000
G1 X-19.174 Y6.888 E0.04225
G1 X-19.740 Y6.341 E0.03948
G1 X-20.129 Y5.616 E0.04130
G1 X-20.270 Y4.847 E0.03926
G1 X-20.231 Y2.970 E0.09423
G1 X-19.318 Y0.402 E0.13678
G1 X-19.068 Y-0.116 E0.02885
G1 X-14.125 Y-5.898 E0.38176
G1 X-13.263 Y-6.644 E0.05721
G1 X-12.467 Y-7.043 E0.04469
G1 X-11.664 Y-7.185 E0.04094
G1 X-1.749 Y-7.309 E0.49764
G1 X16.115 Y-7.366 E0.89650
M73 P7 R5
G1 X16.824 Y-7.257 E0.03599
G1 X17.701 Y-6.869 E0.04812
G1 X18.322 Y-6.318 E0.04168
G1 X18.725 Y-5.697 E0.03717
G1 X19.035 Y-4.795 E0.04786
G1 X20.229 Y0.807 E0.28747
G1 X20.266 Y2.550 E0.08748
G1 X20.064 Y3.416 E0.04466
G1 X19.748 Y3.971 E0.03204
G1 X19.332 Y4.428 E0.03103
G1 X18.932 Y4.732 E0.02519
G1 X18.381 Y5.004 E0.03084
G1 X17.905 Y5.121 E0.02462
G1 X8.915 Y6.315 E0.45515
G1 X-17.617 Y7.370 E1.33255
G1 X-18.360 Y7.269 E0.03762
M204 S1250
G1 E-2.24000 F4200.000
;WIPE_START
G1 F7200.000
G1 X-19.174 Y6.888 E-0.49819
G1 X-19.711 Y6.369 E-0.41381
;WIPE_END
G1 E-0.04800 F4200.000
G1 Z0.550 F9000.000
G1 X1.208 Y6.433
G1 Z0.350
G1 E3.20000 F2400.000
M204 S800
;HEIGHT:0.2
G1 F1200.000
G1 X1.417 Y6.256 E0.00859
G1 X1.685 Y6.124 E0.00939
G1 X2.044 Y5.804 E0.01507
M73 P8 R5
G1 X2.649 Y4.790 E0.03701
G1 X2.832 Y4.654 E0.00717
G1 X3.120 Y4.349 E0.01313
G1 X3.685 Y4.262 E0.01794
G1 X4.074 Y4.069 E0.01362
G1 X4.335 Y3.839 E0.01089
G1 X4.541 Y3.756 E0.00698
G1 X4.940 Y3.470 E0.01540
G1 X5.121 Y3.261 E0.00865
G1 X5.471 Y2.685 E0.02113
G1 X5.642 Y3.722 E0.03296
G1 X5.650 Y3.958 E0.00739
G1 X5.746 Y4.350 E0.01268
G1 X6.167 Y5.106 E0.02710
G1 X6.534 Y5.564 E0.01841
G1 X6.950 Y5.868 E0.01616
G1 X7.217 Y6.105 E0.01118
G1 X7.380 Y6.188 E0.00574
M204 S1250
G1 E-2.24000 F4200.000
;WIPE_START
G1 F7200.000
G1 X7.217 Y6.105 E-0.10139
G1 X6.950 Y5.868 E-0.19758
G1 X6.534 Y5.564 E-0.28565
G1 X6.167 Y5.106 E-0.32545
G1 X6.165 Y5.103 E-0.00194
;WIPE_END
G1 E-0.04800 F4200.000
G1 Z0.550 F9000.000
G1 X10.523 Y5.911
G1 Z0.350
G1 E3.20000 F2400.000
M204 S800
G1 F1200.000
G1 X10.659 Y5.836 E0.00489
G1 X11.002 Y5.547 E0.01407
G1 X11.429 Y4.895 E0.02442
G1 X11.472 Y4.795 E0.00343
G1 X11.592 Y4.693 E0.00493
G1 X11.990 Y4.185 E0.02023
G1 X12.107 Y3.946 E0.00833
G1 X12.271 Y3.912 E0.00527
G1 X12.647 Y3.743 E0.01292
G1 X12.910 Y3.526 E0.01069
G1 X13.078 Y3.432 E0.00604
G1 X13.324 Y3.227 E0.01003
G1 X14.137 Y1.977 E0.04674
G1 X14.264 Y2.611 E0.02028
G1 X14.357 Y2.876 E0.00879
G1 X14.451 Y3.234 E0.01160
G1 X14.882 Y4.035 E0.02854
G1 X15.520 Y4.678 E0.02839
G1 X16.026 Y4.978 E0.01844
G1 X16.378 Y5.134 E0.01207
M204 S1250
G1 E-2.24000 F4200.000
;WIPE_START
G1 F7200.000
G1 X16.026 Y4.978 E-0.21338
G1 X15.520 Y4.678 E-0.32594
G1 X15.046 Y4.201 E-0.37268
;WIPE_END
G1 E-0.04800 F4200.000
G1 Z0.550 F9000.000
G1 X14.705 Y-7.173
G1 Z0.350
G1 E3.20000 F2400.000
M204 S800
G1 F1200.000
G1 X14.549 Y-7.067 E0.00593
G1 X14.007 Y-6.819 E0.01867
G1 X13.714 Y-6.591 E0.01164
G1 X13.338 Y-6.342 E0.01414
G1 X12.357 Y-5.385 E0.04297
G1 X11.992 Y-4.932 E0.01823
G1 X11.811 Y-4.816 E0.00675
G1 X11.354 Y-4.383 E0.01974
G1 X10.824 Y-3.726 E0.02647
G1 X10.732 Y-4.361 E0.02012
G1 X10.543 Y-4.801 E0.01502
G1 X10.461 Y-4.923 E0.00459
G1 X10.382 Y-5.180 E0.00844
G1 X10.215 Y-5.549 E0.01269
G1 X10.028 Y-6.072 E0.01741
G1 X9.695 Y-6.523 E0.01759
G1 X9.414 Y-6.745 E0.01123
G1 X8.624 Y-7.154 E0.02788
M204 S1250
G1 E-2.24000 F4200.000
;WIPE_START
G1 F7200.000
G1 X9.414 Y-6.745 E-0.49280
G1 X9.695 Y-6.523 E-0.19842
G1 X9.932 Y-6.203 E-0.22078
;WIPE_END
G1 E-0.04800 F4200.000
G1 Z0.550 F9000.000
G1 X6.164 Y-7.146
G1 Z0.350
G1 E3.20000 F2400.000
M204 S800
G1 F1200.000
G1 X5.750 Y-6.932 E0.01459
G1 X5.356 Y-6.605 E0.01608
G1 X4.767 Y-6.017 E0.02608
G1 X4.405 Y-5.572 E0.01800
G1 X4.193 Y-5.348 E0.00968
G1 X3.829 Y-4.672 E0.02407
G1 X3.394 Y-4.466 E0.01507
G1 X3.127 Y-4.228 E0.01123
G1 X2.723 Y-3.949 E0.01539
G1 X2.365 Y-3.613 E0.01539
G1 X1.787 Y-2.921 E0.02826
G1 X1.612 Y-3.433 E0.01696
G1 X1.568 Y-3.651 E0.00696
G1 X1.536 Y-4.065 E0.01301
G1 X1.441 Y-4.368 E0.00997
G1 X1.403 Y-4.896 E0.01661
G1 X1.306 Y-5.198 E0.00994
G1 X1.254 Y-5.464 E0.00849
G1 X1.098 Y-5.878 E0.01388
G1 X0.797 Y-6.336 E0.01717
G1 X0.389 Y-6.676 E0.01667
G1 X0.109 Y-6.968 E0.01269
G1 X-0.192 Y-7.126 E0.01064
M204 S1250
G1 E-2.24000 F4200.000
;WIPE_START
M73 P9 R5
G1 F7200.000
G1 X0.109 Y-6.968 E-0.18807
G1 X0.389 Y-6.676 E-0.22424
G1 X0.797 Y-6.336 E-0.29464
G1 X1.001 Y-6.026 E-0.20505
;WIPE_END
G1 E-0.04800 F4200.000
G1 Z0.550 F9000.000
G1 X-2.921 Y-7.106
G1 Z0.350
G1 E3.20000 F2400.000
M204 S800
G1 F1200.000
G1 X-3.272 Y-6.996 E0.01156
G1 X-3.655 Y-6.704 E0.01510
G1 X-3.884 Y-6.559 E0.00847
G1 X-4.439 Y-6.110 E0.02241
G1 X-4.970 Y-5.757 E0.01998
G1 X-5.114 Y-5.687 E0.00503
G1 X-5.482 Y-5.454 E0.01366
G1 X-5.847 Y-5.153 E0.01483
G1 X-6.215 Y-4.727 E0.01765
G1 X-6.569 Y-4.545 E0.01248
G1 X-7.331 Y-3.892 E0.03146
G1 X-7.401 Y-4.489 E0.01883
G1 X-7.488 Y-4.755 E0.00880
G1 X-7.705 Y-5.136 E0.01372
G1 X-7.998 Y-5.424 E0.01290
G1 X-8.177 Y-5.749 E0.01162
G1 X-8.352 Y-5.970 E0.00884
G1 X-8.516 Y-6.256 E0.01034
G1 X-8.992 Y-6.740 E0.02128
G1 X-9.266 Y-6.921 E0.01032
G1 X-9.563 Y-7.023 E0.00984
M204 S1250
G1 E-2.24000 F4200.000
;WIPE_START
G1 F7200.000
G1 X-9.266 Y-6.921 E-0.17388
G1 X-8.992 Y-6.740 E-0.18238
G1 X-8.516 Y-6.256 E-0.37610
G1 X-8.355 Y-5.975 E-0.17965
;WIPE_END
G1 E-0.04800 F4200.000
G1 Z0.550 F9000.000
G1 X-16.817 Y-2.459
G1 Z0.350
G1 E3.20000 F2400.000
M204 S800
G1 F1200.000
G1 X-16.990 Y-2.093 E0.01268
G1 X-17.271 Y-1.794 E0.01285
G1 X-17.438 Y-1.733 E0.00558
M204 S1250
G1 E-2.24000 F4200.000
;WIPE_START
G1 F7200.000
G1 X-17.271 Y-1.794 E-0.09870
G1 X-16.990 Y-2.093 E-0.22714
G1 X-16.817 Y-2.459 E-0.22419
;WIPE_END
G1 E-0.40996 F4200.000
G1 Z0.550 F9000.000
G1 X-16.289 Y7.128
G1 Z0.350
G1 E3.20000 F2400.000
M204 S800
G1 F1200.000
G1 X-15.825 Y6.938 E0.01573
G1 X-15.376 Y6.531 E0.01900
G1 X-15.038 Y5.961 E0.02077
G1 X-14.934 Y5.678 E0.00947
G1 X-14.905 Y5.497 E0.00575
G1 X-14.735 Y5.221 E0.01016
G1 X-14.605 Y4.921 E0.01024
G1 X-14.305 Y4.400 E0.01887
G1 X-14.192 Y3.927 E0.01524
G1 X-14.108 Y3.762 E0.00579
G1 X-14.051 Y3.563 E0.00650
G1 X-13.556 Y3.343 E0.01699
G1 X-13.228 Y3.063 E0.01352
G1 X-12.635 Y2.180 E0.03335
G1 X-12.553 Y3.096 E0.02885
G1 X-12.443 Y3.401 E0.01017
G1 X-12.399 Y3.648 E0.00784
G1 X-12.168 Y4.115 E0.01635
G1 X-11.896 Y4.408 E0.01252
G1 X-11.734 Y4.638 E0.00882
G1 X-11.560 Y4.807 E0.00762
G1 X-11.337 Y4.956 E0.00839
G1 X-10.972 Y5.283 E0.01536
G1 X-10.417 Y5.519 E0.01891
G1 X-9.710 Y5.619 E0.02240
G1 X-9.200 Y5.526 E0.01624
G1 X-8.626 Y5.518 E0.01801
G1 X-8.332 Y5.463 E0.00939
G1 X-8.080 Y5.359 E0.00854
G1 X-7.850 Y5.292 E0.00751
G1 X-7.557 Y5.139 E0.01035
G1 X-6.669 Y4.283 E0.03867
G1 X-6.460 Y3.922 E0.01309
G1 X-6.186 Y3.559 E0.01426
G1 X-6.032 Y3.207 E0.01204
G1 X-6.001 Y3.082 E0.00403
G1 X-5.796 Y2.787 E0.01126
G1 X-5.389 Y2.642 E0.01356
G1 X-5.009 Y2.476 E0.01301
G1 X-4.773 Y2.410 E0.00767
G1 X-4.416 Y2.215 E0.01277
G1 X-4.225 Y2.040 E0.00810
G1 X-3.833 Y1.809 E0.01427
G1 X-3.706 Y2.633 E0.02616
G1 X-3.659 Y2.817 E0.00594
G1 X-3.582 Y3.387 E0.01803
G1 X-3.481 Y3.889 E0.01607
G1 X-3.441 Y4.295 E0.01278
G1 X-3.299 Y4.811 E0.01680
G1 X-3.124 Y5.108 E0.01079
G1 X-3.076 Y5.234 E0.00422
G1 X-2.919 Y5.516 E0.01012
G1 X-2.290 Y6.180 E0.02869
G1 X-1.909 Y6.415 E0.01403
G1 X-1.740 Y6.478 E0.00566
G1 X-1.624 Y6.546 E0.00421
M204 S1250
G1 E-2.24000 F4200.000
;WIPE_START
G1 F7200.000
G1 X-1.740 Y6.478 E-0.07438
G1 X-1.909 Y6.415 E-0.10010
G1 X-2.290 Y6.180 E-0.24798
G1 X-2.897 Y5.539 E-0.48954
;WIPE_END
G1 E-0.04800 F4200.000
G1 Z0.550 F9000.000
G1 X7.033 Y-7.084
M73 P10 R5
G1 Z0.350
G1 E3.20000 F2400.000
M204 S800
G1 F1200.000
G1 X6.714 Y-7.013 E0.01025
G1 X5.975 Y-6.629 E0.02610
G1 X5.616 Y-6.332 E0.01462
G1 X5.041 Y-5.757 E0.02548
G1 X4.689 Y-5.323 E0.01753
G1 X4.485 Y-5.108 E0.00930
G1 X4.105 Y-4.385 E0.02561
G1 X3.584 Y-4.139 E0.01806
G1 X3.365 Y-3.934 E0.00939
G1 X2.970 Y-3.663 E0.01504
G1 X2.643 Y-3.359 E0.01399
G1 X2.345 Y-3.011 E0.01437
G1 X2.119 Y-2.686 E0.01242
G1 X1.965 Y-2.506 E0.00744
G1 X1.530 Y-1.837 E0.02500
G1 X1.388 Y-2.349 E0.01666
G1 X1.319 Y-3.122 E0.02434
G1 X1.247 Y-3.335 E0.00703
G1 X1.193 Y-3.603 E0.00857
G1 X1.169 Y-3.975 E0.01169
G1 X1.067 Y-4.300 E0.01070
G1 X1.037 Y-4.804 E0.01583
G1 X0.938 Y-5.110 E0.01006
G1 X0.900 Y-5.330 E0.00702
G1 X0.765 Y-5.700 E0.01233
G1 X0.499 Y-6.102 E0.01512
G1 X0.134 Y-6.396 E0.01469
G1 X-0.142 Y-6.685 E0.01253
G1 X-0.648 Y-6.949 E0.01789
G1 X-0.827 Y-6.983 E0.00573
G1 X-1.645 Y-7.007 E0.02566
G1 X-2.063 Y-6.987 E0.01312
G1 X-3.121 Y-6.648 E0.03483
G1 X-3.435 Y-6.396 E0.01260
G1 X-3.656 Y-6.259 E0.00817
G1 X-4.216 Y-5.806 E0.02258
G1 X-4.785 Y-5.427 E0.02142
G1 X-4.924 Y-5.362 E0.00482
G1 X-5.254 Y-5.154 E0.01222
G1 X-5.573 Y-4.893 E0.01292
G1 X-5.980 Y-4.423 E0.01951
G1 X-6.350 Y-4.238 E0.01295
G1 X-6.690 Y-3.960 E0.01379
G1 X-7.087 Y-3.565 E0.01754
G1 X-7.499 Y-3.045 E0.02082
G1 X-7.632 Y-3.600 E0.01789
G1 X-7.701 Y-3.750 E0.00518
G1 X-7.766 Y-4.392 E0.02025
G1 X-7.840 Y-4.619 E0.00746
G1 X-8.016 Y-4.921 E0.01095
G1 X-8.299 Y-5.189 E0.01225
G1 X-8.499 Y-5.551 E0.01295
G1 X-8.667 Y-5.760 E0.00841
G1 X-8.805 Y-6.011 E0.00900
G1 X-9.248 Y-6.462 E0.01980
G1 X-9.417 Y-6.575 E0.00639
G1 X-9.844 Y-6.729 E0.01424
G1 X-10.662 Y-6.749 E0.02566
G1 X-11.365 Y-6.926 E0.02272
G1 X-11.635 Y-6.911 E0.00847
G1 X-12.103 Y-6.824 E0.01495
G1 X-12.445 Y-6.815 E0.01070
G1 X-12.607 Y-6.762 E0.00535
M204 S1250
G1 X-13.070 Y-6.530 F9000.000
M204 S800
G1 F1200.000
G1 X-13.474 Y-6.166 E0.01704
G1 X-13.598 Y-5.976 E0.00712
G1 X-13.786 Y-5.819 E0.00768
G1 X-14.288 Y-5.289 E0.02287
G1 X-14.436 Y-5.012 E0.00986
G1 X-14.868 Y-4.611 E0.01849
G1 X-15.703 Y-3.620 E0.04064
G1 X-16.290 Y-2.696 E0.03430
G1 X-16.674 Y-1.878 E0.02834
G1 X-17.061 Y-1.467 E0.01770
G1 X-17.504 Y-1.313 E0.01470
G1 X-17.831 Y-1.084 E0.01254
G1 X-18.043 Y-0.806 E0.01096
G1 X-18.495 Y-0.368 E0.01974
G1 X-18.847 Y0.083 E0.01793
G1 X-19.097 Y0.731 E0.02179
G1 X-19.212 Y0.979 E0.00857
G1 X-19.541 Y1.923 E0.03134
G1 X-19.682 Y2.209 E0.00999
G1 X-19.927 Y2.941 E0.02421
G1 X-19.969 Y4.692 E0.05493
G1 X-20.006 Y4.998 E0.00967
G1 X-19.890 Y5.662 E0.02113
M204 S1250
G1 X-19.692 Y6.031 F9000.000
M204 S800
G1 F1200.000
G1 X-19.191 Y6.577 E0.02324
G1 X-18.839 Y6.816 E0.01337
G1 X-18.299 Y6.999 E0.01786
G1 X-17.935 Y7.055 E0.01156
G1 X-17.060 Y7.035 E0.02743
G1 X-16.805 Y6.964 E0.00829
G1 X-16.447 Y6.785 E0.01255
G1 X-16.046 Y6.631 E0.01347
G1 X-15.684 Y6.312 E0.01512
G1 X-15.372 Y5.786 E0.01919
G1 X-15.297 Y5.573 E0.00706
G1 X-15.270 Y5.369 E0.00646
G1 X-15.064 Y5.035 E0.01230
G1 X-14.944 Y4.753 E0.00962
G1 X-14.647 Y4.238 E0.01864
G1 X-14.550 Y3.800 E0.01405
G1 X-14.455 Y3.614 E0.00656
G1 X-14.402 Y3.398 E0.00698
G1 X-14.215 Y3.221 E0.00808
G1 X-13.777 Y3.037 E0.01488
G1 X-13.495 Y2.795 E0.01166
G1 X-13.002 Y2.038 E0.02833
G1 X-12.387 Y1.427 E0.02719
G1 X-12.197 Y2.541 E0.03544
G1 X-12.212 Y2.770 E0.00719
G1 X-12.182 Y3.026 E0.00810
G1 X-12.079 Y3.298 E0.00913
G1 X-12.033 Y3.552 E0.00809
G1 X-11.847 Y3.916 E0.01283
G1 X-11.603 Y4.168 E0.01098
G1 X-11.457 Y4.382 E0.00810
G1 X-11.311 Y4.523 E0.00637
G1 X-11.108 Y4.654 E0.00759
G1 X-10.746 Y4.979 E0.01525
G1 X-10.300 Y5.160 E0.01509
G1 X-9.693 Y5.241 E0.01919
G1 X-9.242 Y5.149 E0.01443
G1 X-8.649 Y5.142 E0.01861
G1 X-8.427 Y5.097 E0.00711
G1 X-8.204 Y5.002 E0.00760
G1 X-8.005 Y4.948 E0.00645
G1 X-7.757 Y4.818 E0.00877
M73 P11 R5
G1 X-6.954 Y4.034 E0.03520
G1 X-6.776 Y3.714 E0.01147
G1 X-6.521 Y3.385 E0.01304
G1 X-6.387 Y3.078 E0.01053
G1 X-6.358 Y2.934 E0.00459
G1 X-6.037 Y2.473 E0.01762
G1 X-5.534 Y2.293 E0.01675
G1 X-5.129 Y2.117 E0.01384
G1 X-4.931 Y2.067 E0.00640
G1 X-4.621 Y1.898 E0.01108
G1 X-4.453 Y1.736 E0.00730
G1 X-4.314 Y1.657 E0.00501
G1 X-4.008 Y1.374 E0.01308
G1 X-3.612 Y0.729 E0.02373
G1 X-3.466 Y1.777 E0.03318
G1 X-3.353 Y2.362 E0.01868
G1 X-3.336 Y2.561 E0.00625
G1 X-3.289 Y2.745 E0.00596
G1 X-3.211 Y3.319 E0.01816
G1 X-3.108 Y3.835 E0.01651
G1 X-3.072 Y4.216 E0.01199
G1 X-2.960 Y4.644 E0.01386
G1 X-2.780 Y4.949 E0.01111
G1 X-2.738 Y5.066 E0.00389
G1 X-2.601 Y5.312 E0.00884
G1 X-2.071 Y5.872 E0.02418
G1 X-1.731 Y6.082 E0.01252
G1 X-1.584 Y6.132 E0.00488
G1 X-1.333 Y6.279 E0.00910
G1 X-0.936 Y6.397 E0.01300
G1 X0.480 Y6.357 E0.04441
G1 X0.940 Y6.176 E0.01550
G1 X1.207 Y5.937 E0.01126
G1 X1.457 Y5.822 E0.00863
G1 X1.770 Y5.542 E0.01315
G1 X2.362 Y4.534 E0.03667
G1 X2.585 Y4.368 E0.00872
G1 X2.722 Y4.204 E0.00671
G1 X2.928 Y4.022 E0.00862
G1 X3.108 Y3.965 E0.00590
G1 X3.548 Y3.909 E0.01391
G1 X3.880 Y3.744 E0.01165
G1 X4.135 Y3.510 E0.01083
G1 X4.344 Y3.433 E0.00701
G1 X4.699 Y3.178 E0.01370
G1 X4.819 Y3.034 E0.00589
G1 X5.635 Y1.651 E0.05035
G1 X5.847 Y2.395 E0.02428
G1 X5.916 Y3.079 E0.02156
G1 X5.964 Y3.270 E0.00616
G1 X5.975 Y3.478 E0.00652
G1 X6.019 Y3.675 E0.00632
G1 X6.021 Y3.891 E0.00676
G1 X6.106 Y4.235 E0.01112
G1 X6.470 Y4.881 E0.02327
G1 X6.811 Y5.307 E0.01708
G1 X7.185 Y5.572 E0.01436
G1 X7.447 Y5.805 E0.01102
G1 X7.768 Y5.962 E0.01120
G1 X7.879 Y5.994 E0.00360
G1 X8.763 Y6.041 E0.02778
G1 X8.937 Y6.018 E0.00548
G1 X9.379 Y6.013 E0.01388
G1 X9.693 Y5.954 E0.00999
G1 X10.114 Y5.772 E0.01440
G1 X10.314 Y5.592 E0.00843
G1 X10.441 Y5.528 E0.00445
G1 X10.704 Y5.314 E0.01063
G1 X11.098 Y4.711 E0.02259
G1 X11.152 Y4.564 E0.00493
G1 X11.312 Y4.439 E0.00635
G1 X11.677 Y3.972 E0.01861
G1 X11.852 Y3.590 E0.01317
G1 X12.155 Y3.552 E0.00957
G1 X12.429 Y3.434 E0.00935
G1 X12.700 Y3.211 E0.01102
G1 X12.852 Y3.129 E0.00542
G1 X13.059 Y2.956 E0.00845
G1 X13.960 Y1.546 E0.05248
G1 X14.288 Y1.196 E0.01504
G1 X14.450 Y1.920 E0.02329
G1 X14.589 Y2.312 E0.01304
G1 X14.625 Y2.501 E0.00601
