; generated by PrusaSlicer 2.3.3+win64 on 2021-10-11 at 20:12:52 UTC

; 

; external perimeters extrusion width = 0.40mm
; perimeters extrusion width = 0.40mm
; infill extrusion width = 0.45mm
; solid infill extrusion width = 0.45mm
; top infill extrusion width = 0.40mm
; support material extrusion width = 0.35mm
; first layer extrusion width = 0.42mm

M73 P0 R59
M201 X1250 Y1250 Z400 E5000 ; sets maximum accelerations, mm/sec^2
M203 X180 Y180 Z12 E80 ; sets maximum feedrates, mm/sec
M204 P1250 R1250 T1250 ; sets acceleration (P, T) and retract acceleration (R), mm/sec^2
M205 X8.00 Y8.00 Z2.00 E10.00 ; sets the jerk limits, mm/sec
M205 S0 T0 ; sets the minimum extruding and travel feed rate, mm/sec
M107
;TYPE:Custom
G90 ; use absolute coordinates
M83 ; extruder relative mode
M104 S170 ; set extruder temp for bed leveling
M140 S60 ; set bed temp
M109 R170 ; wait for bed leveling temp
M190 S60 ; wait for bed temp
G28 ; home all without mesh bed level
G29 ; mesh bed leveling 
M104 S215 ; set extruder temp
G92 E0.0
G1 Y-2.0 X179 F2400
G1 Z3 F720
M109 S215 ; wait for extruder temp

; intro line
G1 X170 F1000
G1 Z0.2 F720
G1 X110.0 E8.0 F900
G1 X40.0 E10.0 F700
G92 E0.0

M221 S95 ; set flow
G21 ; set units to millimeters
G90 ; use absolute coordinates
M83 ; use relative distances for extrusion
M900 K0.2 ; Filament gcode LA 1.5
; ; Filament gcode LA 1.0
;LAYER_CHANGE
;Z:0.2
;HEIGHT:0.2
;BEFORE_LAYER_CHANGE
G92 E0.0
;0.2


M73 P0 R58
G1 E-3.20000 F4200.000
G1 Z0.200 F9000.000
;AFTER_LAYER_CHANGE
;0.2
G1 Z0.400
G1 X31.269 Y96.170
G1 Z0.200
G1 E3.20000 F2400.000
M204 S800
;TYPE:Skirt
;WIDTH:0.42
G1 F1200.000
G1 X32.043 Y95.971 E0.02508
G1 X223.041 Y95.963 E5.98859
G1 X223.943 Y96.141 E0.02884
G1 X224.713 Y96.651 E0.02896
G1 X225.229 Y97.412 E0.02884
G1 X225.418 Y98.316 E0.02896
G1 X225.396 Y112.152 E0.43380
G1 X225.155 Y112.915 E0.02508
G1 X224.676 Y113.555 E0.02508
G1 X224.011 Y113.999 E0.02508
G1 X223.236 Y114.198 E0.02508
G1 X32.212 Y114.206 E5.98942
M73 P1 R58
G1 X31.357 Y114.037 E0.02731
G1 X30.618 Y113.569 E0.02743
G1 X30.099 Y112.865 E0.02743
G1 X29.869 Y112.024 E0.02731
G1 X29.883 Y98.021 E0.43905
G1 X30.124 Y97.255 E0.02520
G1 X30.604 Y96.615 E0.02508
G1 X31.219 Y96.204 E0.02320
M204 S1250
G1 E-2.24000 F4200.000
;WIPE_START
G1 F7200.000
G1 X32.043 Y95.971 E-0.47476
G1 X32.832 Y95.971 E-0.43724
;WIPE_END
G1 E-0.04800 F4200.000
G1 Z0.400 F9000.000
G1 X27.402 Y97.455
G1 Z0.200
G1 E3.20000 F2400.000
M204 S800
G1 F1200.000
G1 X28.042 Y95.748 E0.05716
G1 X28.521 Y95.127 E0.02459
G1 X29.094 Y94.552 E0.02544
G1 X30.394 Y93.779 E0.04741
G1 X31.838 Y93.438 E0.04653
G1 X223.597 Y93.448 E6.01247
G1 X225.276 Y93.958 E0.05501
G1 X226.308 Y94.672 E0.03937
G1 X227.050 Y95.489 E0.03459
G1 X227.579 Y96.434 E0.03397
G1 X227.943 Y97.943 E0.04867
G1 X227.899 Y112.658 E0.46139
G1 X227.579 Y113.726 E0.03495
G1 X227.008 Y114.686 E0.03504
G1 X225.819 Y115.807 E0.05124
G1 X224.885 Y116.278 E0.03277
G1 X223.890 Y116.522 E0.03214
G1 X222.918 Y116.531 E0.03049
G1 X222.634 Y116.562 E0.00894
G1 X38.709 Y116.562 E5.76685
G1 X38.104 Y116.536 E0.01898
G1 X37.864 Y116.562 E0.00755
G1 X36.446 Y116.562 E0.04446
G1 X35.842 Y116.536 E0.01898
G1 X35.602 Y116.562 E0.00755
G1 X32.646 Y116.562 E0.09270
G1 X32.358 Y116.531 E0.00908
G1 X31.059 Y116.465 E0.04076
G1 X29.727 Y115.974 E0.04453
G1 X29.021 Y115.462 E0.02734
G1 X28.043 Y114.378 E0.04577
G1 X27.635 Y113.562 E0.02863
G1 X27.336 Y112.336 E0.03955
G1 X27.402 Y97.515 E0.46472
M204 S1250
G1 X27.767 Y97.554 F9000.000
M204 S800
G1 F1200.000
G1 X28.358 Y95.955 E0.05345
G1 X28.812 Y95.367 E0.02329
G1 X29.344 Y94.835 E0.02358
G1 X30.510 Y94.139 E0.04257
G1 X31.861 Y93.815 E0.04355
G1 X223.568 Y93.825 E6.01086
G1 X225.136 Y94.309 E0.05145
G1 X226.044 Y94.943 E0.03472
G1 X226.732 Y95.692 E0.03190
G1 X227.237 Y96.595 E0.03245
G1 X227.566 Y97.964 E0.04414
G1 X227.530 Y112.578 E0.45819
M73 P2 R58
G1 X227.242 Y113.556 E0.03197
G1 X226.728 Y114.432 E0.03185
G1 X225.623 Y115.484 E0.04785
G1 X224.772 Y115.917 E0.02993
G1 X223.864 Y116.145 E0.02936
G1 X222.894 Y116.154 E0.03040
G1 X222.623 Y116.185 E0.00856
G1 X38.713 Y116.185 E5.76637
M73 P2 R57
G1 X38.091 Y116.158 E0.01952
G1 X37.854 Y116.185 E0.00748
G1 X36.450 Y116.185 E0.04400
G1 X35.828 Y116.158 E0.01952
G1 X35.591 Y116.185 E0.00748
G1 X32.656 Y116.185 E0.09202
G1 X32.387 Y116.154 E0.00851
G1 X31.162 Y116.101 E0.03844
G1 X29.883 Y115.630 E0.04273
G1 X29.261 Y115.170 E0.02426
G1 X28.368 Y114.185 E0.04170
G1 X27.995 Y113.449 E0.02585
G1 X27.713 Y112.314 E0.03669
G1 X27.767 Y97.614 E0.46091
M204 S1250
G1 X28.133 Y97.652 F9000.000
M204 S800
G1 F1200.000
G1 X28.675 Y96.162 E0.04973
G1 X29.088 Y95.625 E0.02122
G1 X29.594 Y95.119 E0.02243
G1 X30.677 Y94.478 E0.03946
G1 X31.882 Y94.192 E0.03885
G1 X223.539 Y94.202 E6.00926
G1 X224.995 Y94.660 E0.04784
G1 X225.780 Y95.212 E0.03011
G1 X226.439 Y95.930 E0.03056
G1 X226.895 Y96.755 E0.02955
G1 X227.189 Y97.986 E0.03968
G1 X227.160 Y112.499 E0.45505
G1 X226.903 Y113.389 E0.02903
G1 X226.447 Y114.180 E0.02864
G1 X225.425 Y115.162 E0.04444
G1 X224.657 Y115.558 E0.02709
G1 X223.837 Y115.769 E0.02654
G1 X222.870 Y115.777 E0.03032
G1 X222.612 Y115.808 E0.00816
G1 X38.717 Y115.808 E5.76589
G1 X38.077 Y115.780 E0.02009
G1 X37.842 Y115.808 E0.00740
G1 X36.454 Y115.808 E0.04352
G1 X35.814 Y115.780 E0.02009
G1 X35.580 Y115.808 E0.00740
G1 X32.668 Y115.808 E0.09130
G1 X32.415 Y115.778 E0.00798
G1 X31.263 Y115.737 E0.03613
G1 X30.040 Y115.286 E0.04087
G1 X29.502 Y114.880 E0.02113
G1 X28.692 Y113.990 E0.03776
G1 X28.355 Y113.335 E0.02307
G1 X28.090 Y112.291 E0.03378
G1 X28.132 Y97.712 E0.45712
M204 S1250
G1 X28.498 Y97.748 F9000.000
M204 S800
G1 F1200.000
G1 X28.993 Y96.367 E0.04599
G1 X29.363 Y95.883 E0.01911
G1 X29.844 Y95.402 E0.02130
G1 X30.793 Y94.838 E0.03463
G1 X31.905 Y94.570 E0.03586
G1 X223.509 Y94.579 E6.00761
M73 P3 R57
G1 X224.851 Y95.009 E0.04417
G1 X225.517 Y95.483 E0.02562
G1 X226.120 Y96.133 E0.02782
G1 X226.552 Y96.915 E0.02800
G1 X226.812 Y98.007 E0.03521
G1 X226.790 Y112.422 E0.45196
G1 X226.563 Y113.224 E0.02612
G1 X226.164 Y113.929 E0.02542
G1 X225.225 Y114.841 E0.04103
G1 X224.539 Y115.199 E0.02427
G1 X223.810 Y115.392 E0.02366
G1 X222.845 Y115.400 E0.03025
G1 X222.599 Y115.430 E0.00775
G1 X38.721 Y115.430 E5.76538
G1 X38.061 Y115.402 E0.02070
G1 X37.830 Y115.430 E0.00729
G1 X36.458 Y115.430 E0.04301
G1 X35.799 Y115.402 E0.02070
G1 X35.568 Y115.430 E0.00729
G1 X32.680 Y115.430 E0.09055
G1 X32.443 Y115.401 E0.00748
G1 X31.364 Y115.372 E0.03384
G1 X30.199 Y114.942 E0.03894
G1 X29.746 Y114.593 E0.01795
G1 X29.014 Y113.793 E0.03399
G1 X28.714 Y113.219 E0.02030
G1 X28.468 Y112.267 E0.03084
G1 X28.498 Y97.808 E0.45335
M204 S1250
G1 X28.865 Y97.842 F9000.000
M204 S800
G1 F1200.000
G1 X29.311 Y96.571 E0.04225
G1 X29.639 Y96.140 E0.01697
G1 X30.093 Y95.686 E0.02013
G1 X30.959 Y95.178 E0.03149
G1 X31.927 Y94.947 E0.03119
G1 X223.479 Y94.956 E6.00597
M73 P3 R56
G1 X224.705 Y95.358 E0.04046
G1 X225.253 Y95.753 E0.02116
G1 X225.827 Y96.372 E0.02650
G1 X226.209 Y97.072 E0.02501
G1 X226.434 Y98.029 E0.03081
G1 X226.420 Y112.344 E0.44885
G1 X226.207 Y113.100 E0.02461
G1 X225.880 Y113.679 E0.02086
G1 X225.024 Y114.521 E0.03764
G1 X224.419 Y114.841 E0.02147
G1 X223.781 Y115.015 E0.02072
G1 X222.818 Y115.023 E0.03020
G1 X222.587 Y115.053 E0.00732
G1 X38.737 Y115.053 E5.76447
M73 P4 R56
G1 X38.547 Y115.033 E0.00602
G1 X38.037 Y115.025 E0.01599
G1 X37.818 Y115.053 E0.00692
G1 X36.475 Y115.053 E0.04210
G1 X36.284 Y115.033 E0.00602
G1 X35.774 Y115.025 E0.01599
G1 X35.555 Y115.053 E0.00692
G1 X32.693 Y115.053 E0.08976
G1 X32.470 Y115.025 E0.00703
G1 X31.462 Y115.006 E0.03163
G1 X30.404 Y114.625 E0.03525
G1 X30.011 Y114.324 E0.01552
G1 X29.335 Y113.593 E0.03121
G1 X29.073 Y113.100 E0.01752
G1 X28.845 Y112.242 E0.02783
G1 X28.865 Y97.902 E0.44961
M204 S1250
G1 X29.232 Y97.935 F9000.000
M204 S800
G1 F1200.000
G1 X29.631 Y96.774 E0.03849
G1 X29.915 Y96.397 E0.01479
G1 X30.342 Y95.971 E0.01892
G1 X31.123 Y95.518 E0.02831
G1 X31.948 Y95.324 E0.02658
G1 X223.447 Y95.334 E6.00431
G1 X224.556 Y95.706 E0.03667
G1 X224.990 Y96.023 E0.01686
G1 X225.508 Y96.574 E0.02372
G1 X225.866 Y97.230 E0.02343
G1 X226.057 Y98.050 E0.02640
G1 X226.050 Y112.267 E0.44575
G1 X225.850 Y112.976 E0.02311
G1 X225.595 Y113.432 E0.01636
G1 X224.823 Y114.201 E0.03419
G1 X224.260 Y114.498 E0.01993
G1 X223.753 Y114.638 E0.01650
G1 X222.790 Y114.646 E0.03020
G1 X222.573 Y114.676 E0.00686
G1 X38.749 Y114.676 E5.76368
G1 X38.572 Y114.656 E0.00560
G1 X38.013 Y114.648 E0.01752
G1 X37.804 Y114.676 E0.00661
G1 X36.486 Y114.676 E0.04132
G1 X36.309 Y114.656 E0.00560
G1 X35.750 Y114.648 E0.01752
G1 X35.542 Y114.676 E0.00661
G1 X32.706 Y114.676 E0.08891
G1 X32.497 Y114.648 E0.00661
G1 X31.556 Y114.640 E0.02952
G1 X30.607 Y114.306 E0.03153
G1 X30.274 Y114.054 E0.01309
G1 X29.654 Y113.391 E0.02846
G1 X29.430 Y112.978 E0.01474
G1 X29.222 Y112.216 E0.02477
G1 X29.232 Y97.995 E0.44591
M204 S1250
G1 E-2.24000 F4200.000
;WIPE_START
G1 F7200.000
G1 X29.631 Y96.774 E-0.71182
G1 X29.849 Y96.486 E-0.20018
;WIPE_END
G1 E-0.04800 F4200.000
G1 Z0.400 F9000.000
G1 X31.060 Y114.072
G1 Z0.200
G1 E3.20000 F2400.000
M204 S800
G1 F1200.000
G1 X30.808 Y113.985 E0.00834
G1 X30.536 Y113.782 E0.01066
G1 X29.971 Y113.186 E0.02573
G1 X29.787 Y112.853 E0.01196
G1 X29.599 Y112.189 E0.02162
G1 X29.599 Y98.025 E0.44412
G1 X29.951 Y96.975 E0.03472
G1 X30.192 Y96.654 E0.01257
G1 X30.590 Y96.256 E0.01768
G1 X31.285 Y95.860 E0.02508
G1 X31.970 Y95.701 E0.02203
G1 X223.356 Y95.701 E6.00079
M73 P5 R56
G1 X224.406 Y96.053 E0.03472
M204 S1250
M204 S800
G1 X224.728 Y96.295 E0.01261
G1 X225.189 Y96.777 E0.02094
G1 X225.522 Y97.388 E0.02181
G1 X225.680 Y98.072 E0.02199
G1 X225.680 Y112.189 E0.44265
G1 X225.493 Y112.853 E0.02162
G1 X225.308 Y113.186 E0.01193
G1 X224.620 Y113.882 E0.03068
G1 X224.171 Y114.119 E0.01594
M204 S1250
G1 E-2.24000 F4200.000
;WIPE_START
G1 F7200.000
G1 X224.620 Y113.882 E-0.28182
G1 X225.308 Y113.186 E-0.54225
G1 X225.385 Y113.047 E-0.08794
;WIPE_END
G1 E-0.04800 F4200.000
G1 Z0.400 F9000.000
G1 X31.245 Y113.743
G1 Z0.200
G1 E3.20000 F2400.000
M204 S800
G1 F1200.000
G1 X31.733 Y113.905 E0.01613
G1 X32.551 Y113.893 E0.02565
G1 X32.737 Y113.922 E0.00589
G1 X34.015 Y113.922 E0.04007
G1 X34.124 Y113.906 E0.00346
G1 X34.233 Y113.922 E0.00346
G1 X35.511 Y113.922 E0.04007
G1 X35.697 Y113.893 E0.00589
G1 X36.364 Y113.902 E0.02094
G1 X36.512 Y113.922 E0.00467
G1 X37.774 Y113.922 E0.03955
G1 X37.959 Y113.893 E0.00589
G1 X38.627 Y113.902 E0.02094
G1 X38.775 Y113.922 E0.00467
G1 X40.048 Y113.922 E0.03992
G1 X40.157 Y113.906 E0.00346
G1 X40.266 Y113.922 E0.00346
G1 X41.556 Y113.922 E0.04044
G1 X41.665 Y113.906 E0.00346
G1 X41.775 Y113.922 E0.00346
G1 X43.065 Y113.922 E0.04044
G1 X43.174 Y113.906 E0.00346
G1 X43.283 Y113.922 E0.00346
G1 X44.573 Y113.922 E0.04044
G1 X44.682 Y113.906 E0.00346
G1 X44.791 Y113.922 E0.00346
G1 X46.081 Y113.922 E0.04044
G1 X46.190 Y113.906 E0.00346
G1 X46.300 Y113.922 E0.00346
G1 X47.589 Y113.922 E0.04044
G1 X47.699 Y113.906 E0.00346
G1 X47.808 Y113.922 E0.00346
G1 X49.098 Y113.922 E0.04044
G1 X49.207 Y113.906 E0.00346
G1 X49.316 Y113.922 E0.00346
G1 X50.606 Y113.922 E0.04044
G1 X50.715 Y113.906 E0.00346
G1 X50.825 Y113.922 E0.00346
G1 X52.114 Y113.922 E0.04044
G1 X52.224 Y113.906 E0.00346
G1 X52.333 Y113.922 E0.00346
G1 X53.623 Y113.922 E0.04044
G1 X53.732 Y113.906 E0.00346
G1 X53.841 Y113.922 E0.00346
G1 X55.131 Y113.922 E0.04044
G1 X55.240 Y113.906 E0.00346
G1 X55.350 Y113.922 E0.00346
G1 X56.639 Y113.922 E0.04044
G1 X56.749 Y113.906 E0.00346
G1 X56.858 Y113.922 E0.00346
G1 X58.148 Y113.922 E0.04044
G1 X58.257 Y113.906 E0.00346
G1 X58.366 Y113.922 E0.00346
G1 X59.656 Y113.922 E0.04044
G1 X59.765 Y113.906 E0.00346
G1 X59.874 Y113.922 E0.00346
G1 X61.164 Y113.922 E0.04044
G1 X61.274 Y113.906 E0.00346
G1 X61.383 Y113.922 E0.00346
G1 X62.673 Y113.922 E0.04044
G1 X62.782 Y113.906 E0.00346
G1 X62.891 Y113.922 E0.00346
G1 X64.181 Y113.922 E0.04044
G1 X64.290 Y113.906 E0.00346
G1 X64.399 Y113.922 E0.00346
G1 X65.689 Y113.922 E0.04044
G1 X65.799 Y113.906 E0.00346
G1 X65.908 Y113.922 E0.00346
G1 X67.198 Y113.922 E0.04044
G1 X67.307 Y113.906 E0.00346
G1 X67.416 Y113.922 E0.00346
G1 X68.706 Y113.922 E0.04044
G1 X68.815 Y113.906 E0.00346
G1 X68.924 Y113.922 E0.00346
G1 X70.214 Y113.922 E0.04044
G1 X70.323 Y113.906 E0.00346
G1 X70.433 Y113.922 E0.00346
G1 X71.723 Y113.922 E0.04044
G1 X71.832 Y113.906 E0.00346
G1 X71.941 Y113.922 E0.00346
G1 X73.231 Y113.922 E0.04044
G1 X73.340 Y113.906 E0.00346
G1 X73.449 Y113.922 E0.00346
G1 X74.739 Y113.922 E0.04044
G1 X74.848 Y113.906 E0.00346
G1 X74.958 Y113.922 E0.00346
G1 X76.248 Y113.922 E0.04044
G1 X76.357 Y113.906 E0.00346
G1 X76.466 Y113.922 E0.00346
G1 X77.756 Y113.922 E0.04044
G1 X77.865 Y113.906 E0.00346
G1 X77.974 Y113.922 E0.00346
G1 X79.264 Y113.922 E0.04044
G1 X79.373 Y113.906 E0.00346
G1 X79.483 Y113.922 E0.00346
G1 X80.772 Y113.922 E0.04044
G1 X80.882 Y113.906 E0.00346
G1 X80.991 Y113.922 E0.00346
G1 X82.281 Y113.922 E0.04044
G1 X82.390 Y113.906 E0.00346
G1 X82.499 Y113.922 E0.00346
G1 X83.789 Y113.922 E0.04044
G1 X83.898 Y113.906 E0.00346
G1 X84.008 Y113.922 E0.00346
G1 X85.297 Y113.922 E0.04044
G1 X85.407 Y113.906 E0.00346
G1 X85.516 Y113.922 E0.00346
G1 X86.806 Y113.922 E0.04044
G1 X86.915 Y113.906 E0.00346
G1 X87.024 Y113.922 E0.00346
G1 X88.314 Y113.922 E0.04044
G1 X88.423 Y113.906 E0.00346
G1 X88.533 Y113.922 E0.00346
G1 X89.822 Y113.922 E0.04044
G1 X89.932 Y113.906 E0.00346
G1 X90.041 Y113.922 E0.00346
G1 X91.331 Y113.922 E0.04044
G1 X91.440 Y113.906 E0.00346
G1 X91.549 Y113.922 E0.00346
G1 X92.839 Y113.922 E0.04044
G1 X92.948 Y113.906 E0.00346
G1 X93.057 Y113.922 E0.00346
G1 X94.347 Y113.922 E0.04044
G1 X94.457 Y113.906 E0.00346
G1 X94.566 Y113.922 E0.00346
G1 X95.856 Y113.922 E0.04044
G1 X95.965 Y113.906 E0.00346
G1 X96.074 Y113.922 E0.00346
G1 X97.364 Y113.922 E0.04044
G1 X97.473 Y113.906 E0.00346
G1 X97.582 Y113.922 E0.00346
G1 X98.872 Y113.922 E0.04044
G1 X98.982 Y113.906 E0.00346
G1 X99.091 Y113.922 E0.00346
G1 X100.381 Y113.922 E0.04044
G1 X100.490 Y113.906 E0.00346
G1 X100.599 Y113.922 E0.00346
G1 X101.889 Y113.922 E0.04044
G1 X101.998 Y113.906 E0.00346
G1 X102.107 Y113.922 E0.00346
G1 X103.397 Y113.922 E0.04044
G1 X103.506 Y113.906 E0.00346
G1 X103.616 Y113.922 E0.00346
G1 X104.906 Y113.922 E0.04044
G1 X105.015 Y113.906 E0.00346
G1 X105.124 Y113.922 E0.00346
G1 X106.414 Y113.922 E0.04044
G1 X106.523 Y113.906 E0.00346
G1 X106.632 Y113.922 E0.00346
G1 X107.922 Y113.922 E0.04044
G1 X108.031 Y113.906 E0.00346
G1 X108.141 Y113.922 E0.00346
G1 X109.431 Y113.922 E0.04044
G1 X109.540 Y113.906 E0.00346
G1 X109.649 Y113.922 E0.00346
G1 X110.939 Y113.922 E0.04044
G1 X111.048 Y113.906 E0.00346
G1 X111.157 Y113.922 E0.00346
G1 X112.447 Y113.922 E0.04044
G1 X112.556 Y113.906 E0.00346
G1 X112.666 Y113.922 E0.00346
G1 X113.955 Y113.922 E0.04044
G1 X114.065 Y113.906 E0.00346
G1 X114.174 Y113.922 E0.00346
G1 X115.464 Y113.922 E0.04044
G1 X115.573 Y113.906 E0.00346
G1 X115.682 Y113.922 E0.00346
G1 X116.972 Y113.922 E0.04044
G1 X117.081 Y113.906 E0.00346
G1 X117.191 Y113.922 E0.00346
G1 X118.480 Y113.922 E0.04044
G1 X118.590 Y113.906 E0.00346
G1 X118.699 Y113.922 E0.00346
G1 X119.989 Y113.922 E0.04044
G1 X120.098 Y113.906 E0.00346
G1 X120.207 Y113.922 E0.00346
G1 X121.497 Y113.922 E0.04044
G1 X121.606 Y113.906 E0.00346
G1 X121.716 Y113.922 E0.00346
G1 X123.005 Y113.922 E0.04044
G1 X123.115 Y113.906 E0.00346
G1 X123.224 Y113.922 E0.00346
G1 X124.514 Y113.922 E0.04044
G1 X124.623 Y113.906 E0.00346
G1 X124.732 Y113.922 E0.00346
G1 X126.022 Y113.922 E0.04044
G1 X126.131 Y113.906 E0.00346
G1 X126.240 Y113.922 E0.00346
G1 X127.530 Y113.922 E0.04044
G1 X127.640 Y113.906 E0.00346
G1 X127.749 Y113.922 E0.00346
G1 X129.039 Y113.922 E0.04044
G1 X129.148 Y113.906 E0.00346
G1 X129.257 Y113.922 E0.00346
G1 X130.547 Y113.922 E0.04044
G1 X130.656 Y113.906 E0.00346
G1 X130.765 Y113.922 E0.00346
G1 X132.055 Y113.922 E0.04044
G1 X132.165 Y113.906 E0.00346
G1 X132.274 Y113.922 E0.00346
G1 X133.564 Y113.922 E0.04044
G1 X133.673 Y113.906 E0.00346
