; generated by PrusaSlicer 2.3.3+win64 on 2021-10-12 at 17:02:39 UTC

; 

; external perimeters extrusion width = 0.45mm
; perimeters extrusion width = 0.45mm
; infill extrusion width = 0.45mm
; solid infill extrusion width = 0.45mm
; top infill extrusion width = 0.40mm
; first layer extrusion width = 0.42mm

M73 P0 R5
M201 X1250 Y1250 Z400 E5000 ; sets maximum accelerations, mm/sec^2
M203 X180 Y180 Z12 E80 ; sets maximum feedrates, mm/sec
M204 P1250 R1250 T1250 ; sets acceleration (P, T) and retract acceleration (R), mm/sec^2
M205 X8.00 Y8.00 Z2.00 E10.00 ; sets the jerk limits, mm/sec
M205 S0 T0 ; sets the minimum extruding and travel feed rate, mm/sec
M107
;TYPE:Custom
G90 ; use absolute coordinates
M83 ; extruder relative mode
M104 S170 ; set extruder temp for bed leveling
M140 S60 ; set bed temp
M109 R170 ; wait for bed leveling temp
M190 S60 ; wait for bed temp
G28 ; home all without mesh bed level
G29 ; mesh bed leveling 
M104 S215 ; set extruder temp
G92 E0.0
G1 Y-2.0 X179 F2400
M73 P1 R5
G1 Z3 F720
M109 S215 ; wait for extruder temp

; intro line
G1 X170 F1000
G1 Z0.2 F720
G1 X110.0 E8.0 F900
M73 P3 R5
G1 X40.0 E10.0 F700
G92 E0.0

M221 S95 ; set flow
G21 ; set units to millimeters
G90 ; use absolute coordinates
M83 ; use relative distances for extrusion
M900 K0.2 ; Filament gcode LA 1.5
; ; Filament gcode LA 1.0
;LAYER_CHANGE
;Z:0.35
;HEIGHT:0.35
;BEFORE_LAYER_CHANGE
G92 E0.0
;0.35


M73 P5 R5
G1 Z0.350 F9000.000
;AFTER_LAYER_CHANGE
;0.35
G1 E-3.20000 F4200.000
G1 Z0.550 F9000.000
G1 X104.822 Y99.027
G1 Z0.350
G1 E3.20000 F2400.000
M204 S800
;TYPE:Skirt
;WIDTH:0.42
G1 F1200.000
G1 X105.499 Y98.329 E0.04880
G1 X106.310 Y97.876 E0.04659
G1 X106.891 Y97.700 E0.03049
G1 X107.449 Y97.642 E0.02815
G1 X117.076 Y97.458 E0.48326
G1 X135.564 Y97.268 E0.92787
M73 P6 R5
G1 X136.595 Y97.434 E0.05240
G1 X143.844 Y100.166 E0.38879
G1 X144.411 Y100.541 E0.03412
G1 X144.954 Y101.098 E0.03901
G1 X145.435 Y101.859 E0.04521
G1 X145.666 Y102.498 E0.03407
G1 X145.742 Y103.091 E0.03001
G1 X145.706 Y103.900 E0.04066
G1 X145.545 Y104.504 E0.03134
G1 X145.234 Y105.114 E0.03440
G1 X142.005 Y109.711 E0.28190
G1 X140.108 Y111.870 E0.14425
G1 X139.563 Y112.272 E0.03399
G1 X139.007 Y112.533 E0.03080
G1 X138.344 Y112.702 E0.03434
G1 X137.649 Y112.727 E0.03490
G1 X108.662 Y110.911 E1.45761
M73 P7 R5
G1 X107.718 Y110.652 E0.04911
G1 X106.954 Y110.189 E0.04485
G1 X106.398 Y109.603 E0.04055
G1 X105.943 Y108.759 E0.04812
G1 X104.328 Y102.429 E0.32787
G1 X104.257 Y100.740 E0.08484
G1 X104.397 Y99.906 E0.04242
G1 X104.796 Y99.081 E0.04599
M204 S1250
G1 X105.130 Y99.245 F9000.000
M204 S800
G1 F1200.000
G1 X105.741 Y98.619 E0.04389
G1 X106.476 Y98.217 E0.04207
G1 X107.459 Y98.019 E0.05035
G1 X117.082 Y97.835 E0.48302
G1 X135.565 Y97.645 E0.92760
G1 X136.471 Y97.790 E0.04607
G1 X143.654 Y100.492 E0.38513
G1 X144.163 Y100.825 E0.03054
G1 X144.654 Y101.326 E0.03518
M73 P8 R5
G1 X145.094 Y102.020 E0.04129
G1 X145.299 Y102.585 E0.03012
G1 X145.365 Y103.104 E0.02626
G1 X145.333 Y103.843 E0.03714
G1 X145.191 Y104.374 E0.02757
G1 X144.912 Y104.918 E0.03066
G1 X141.721 Y109.463 E0.27873
G1 X139.853 Y111.591 E0.14209
G1 X139.356 Y111.956 E0.03096
G1 X138.841 Y112.193 E0.02848
G1 X138.270 Y112.332 E0.02949
G1 X137.664 Y112.350 E0.03042
G1 X108.715 Y110.538 E1.45566
G1 X107.860 Y110.303 E0.04450
G1 X107.181 Y109.888 E0.03996
G1 X106.695 Y109.369 E0.03565
G1 X106.285 Y108.598 E0.04384
G1 X104.698 Y102.355 E0.32326
G1 X104.633 Y100.785 E0.07888
G1 X104.750 Y100.040 E0.03783
G1 X105.104 Y99.299 E0.04121
M204 S1250
G1 E-2.24000 F4200.000
;WIPE_START
G1 F7200.000
G1 X105.741 Y98.619 E-0.51624
G1 X106.367 Y98.276 E-0.39576
;WIPE_END
G1 E-0.04800 F4200.000
G1 Z0.550 F9000.000
M73 P9 R5
G1 X109.113 Y98.176
G1 Z0.350
G1 E3.20000 F2400.000
M204 S800
;HEIGHT:0.2
G1 F1200.000
G1 X109.523 Y98.341 E0.01386
G1 X110.081 Y98.695 E0.02072
G1 X110.532 Y99.130 E0.01964
G1 X110.915 Y99.654 E0.02034
G1 X111.191 Y100.319 E0.02257
G1 X111.292 Y100.955 E0.02020
G1 X112.159 Y100.257 E0.03491
G1 X112.576 Y99.993 E0.01547
G1 X112.787 Y99.906 E0.00714
G1 X113.169 Y99.605 E0.01525
M73 P9 R4
G1 X113.782 Y99.318 E0.02121
G1 X114.242 Y99.188 E0.01500
G1 X114.447 Y99.055 E0.00765
G1 X114.682 Y98.958 E0.00799
G1 X114.777 Y98.834 E0.00491
G1 X115.187 Y98.433 E0.01795
G1 X115.629 Y98.157 E0.01634
G1 X115.878 Y98.046 E0.00856
M204 S1250
G1 E-2.24000 F4200.000
;WIPE_START
G1 F7200.000
G1 X115.629 Y98.157 E-0.15129
G1 X115.187 Y98.433 E-0.28875
G1 X114.777 Y98.834 E-0.31731
G1 X114.682 Y98.958 E-0.08670
G1 X114.569 Y99.005 E-0.06794
;WIPE_END
G1 E-0.04800 F4200.000
G1 Z0.550 F9000.000
G1 X118.251 Y98.012
G1 Z0.350
G1 E3.20000 F2400.000
M204 S800
G1 F1200.000
G1 X118.776 Y98.289 E0.01863
G1 X119.307 Y98.734 E0.02171
G1 X119.703 Y99.258 E0.02060
G1 X119.980 Y99.838 E0.02015
G1 X120.417 Y101.142 E0.04311
G1 X120.570 Y101.865 E0.02318
G1 X121.290 Y101.294 E0.02880
G1 X121.787 Y101.065 E0.01718
G1 X122.349 Y100.444 E0.02626
G1 X122.663 Y100.204 E0.01238
G1 X122.941 Y99.949 E0.01183
G1 X123.183 Y99.790 E0.00907
G1 X123.559 Y99.303 E0.01928
G1 X123.942 Y98.908 E0.01726
G1 X124.310 Y98.596 E0.01511
G1 X124.698 Y98.343 E0.01453
G1 X125.366 Y98.043 E0.02296
G1 X125.851 Y97.934 E0.01561
M204 S1250
G1 X126.741 Y97.924 F9000.000
M204 S800
G1 F1200.000
G1 X127.475 Y98.131 E0.02389
G1 X128.163 Y98.528 E0.02490
G1 X128.816 Y99.160 E0.02850
G1 X129.313 Y99.849 E0.02663
G1 X129.557 Y100.364 E0.01788
G1 X129.694 Y100.916 E0.01784
G1 X129.716 Y101.152 E0.00742
G1 X129.767 Y101.403 E0.00805
G1 X129.781 Y101.723 E0.01002
G1 X129.826 Y101.933 E0.00674
G1 X129.862 Y102.522 E0.01850
G1 X130.289 Y102.027 E0.02051
G1 X130.567 Y101.585 E0.01635
G1 X130.709 Y101.421 E0.00681
G1 X130.970 Y101.051 E0.01420
G1 X131.167 Y100.826 E0.00940
G1 X131.328 Y100.597 E0.00878
G1 X131.828 Y100.130 E0.02143
G1 X132.187 Y99.927 E0.01295
G1 X132.332 Y99.804 E0.00593
G1 X132.743 Y99.139 E0.02453
G1 X133.377 Y98.492 E0.02841
G1 X133.638 Y98.182 E0.01270
G1 X134.114 Y97.883 E0.01762
G1 X134.231 Y97.848 E0.00384
M204 S1250
G1 E-2.24000 F4200.000
;WIPE_START
G1 F7200.000
G1 X134.114 Y97.883 E-0.06787
G1 X133.638 Y98.182 E-0.31150
G1 X133.377 Y98.492 E-0.22447
G1 X132.988 Y98.889 E-0.30816
;WIPE_END
G1 E-0.04800 F4200.000
G1 Z0.550 F9000.000
G1 X137.823 Y98.500
G1 Z0.350
G1 E3.20000 F2400.000
M204 S800
G1 F1200.000
G1 X138.044 Y98.693 E0.00920
G1 X138.377 Y99.230 E0.01981
G1 X138.476 Y99.578 E0.01133
G1 X138.541 Y100.391 E0.02557
G1 X138.646 Y101.070 E0.02157
G1 X138.663 Y101.842 E0.02421
G1 X138.707 Y102.049 E0.00662
G1 X138.727 Y102.546 E0.01562
M73 P10 R4
G1 X138.992 Y102.620 E0.00862
G1 X139.259 Y102.214 E0.01523
G1 X139.482 Y101.949 E0.01088
G1 X140.177 Y101.246 E0.03097
G1 X141.061 Y100.516 E0.03598
G1 X141.524 Y100.293 E0.01611
G1 X142.133 Y100.150 E0.01962
G1 X142.209 Y100.150 E0.00237
M204 S1250
G1 E-2.24000 F4200.000
;WIPE_START
G1 F7200.000
G1 X142.133 Y100.150 E-0.04192
G1 X141.524 Y100.293 E-0.34669
G1 X141.061 Y100.516 E-0.28465
G1 X140.729 Y100.790 E-0.23873
;WIPE_END
G1 E-0.04800 F4200.000
G1 Z0.550 F9000.000
G1 X136.472 Y112.086
G1 Z0.350
G1 E3.20000 F2400.000
M204 S800
G1 F1200.000
G1 X136.253 Y111.949 E0.00813
G1 X135.551 Y111.737 E0.02298
G1 X135.163 Y111.539 E0.01365
G1 X134.767 Y111.258 E0.01524
G1 X134.318 Y110.812 E0.01983
G1 X133.862 Y110.230 E0.02317
G1 X133.604 Y109.786 E0.01611
G1 X133.414 Y109.286 E0.01676
G1 X133.213 Y108.329 E0.03065
G1 X132.856 Y108.708 E0.01631
G1 X132.606 Y109.104 E0.01468
G1 X132.234 Y109.410 E0.01511
G1 X131.740 Y109.628 E0.01692
G1 X131.347 Y109.863 E0.01438
G1 X130.948 Y109.996 E0.01317
G1 X129.810 Y110.114 E0.03588
G1 X129.533 Y110.224 E0.00935
G1 X129.030 Y110.304 E0.01598
G1 X128.243 Y110.297 E0.02467
G1 X127.331 Y110.090 E0.02930
G1 X127.037 Y109.965 E0.01003
G1 X126.753 Y109.773 E0.01074
G1 X126.598 Y109.614 E0.00696
G1 X126.042 Y109.225 E0.02130
G1 X125.915 Y109.111 E0.00533
G1 X125.722 Y109.004 E0.00694
G1 X125.405 Y108.723 E0.01328
G1 X125.039 Y108.124 E0.02203
G1 X124.629 Y107.546 E0.02222
G1 X124.423 Y107.070 E0.01624
G1 X124.162 Y107.720 E0.02197
G1 X123.913 Y108.201 E0.01697
G1 X123.803 Y108.500 E0.01001
G1 X123.580 Y108.928 E0.01511
G1 X123.140 Y109.475 E0.02203
G1 X122.604 Y109.940 E0.02224
G1 X121.899 Y110.287 E0.02464
G1 X121.533 Y110.376 E0.01179
G1 X121.006 Y110.837 E0.02197
G1 X120.423 Y111.082 E0.01982
M204 S1250
G1 E-2.24000 F4200.000
;WIPE_START
G1 F7200.000
G1 X121.006 Y110.837 E-0.35033
G1 X121.533 Y110.376 E-0.38835
G1 X121.837 Y110.302 E-0.17332
;WIPE_END
G1 E-0.04800 F4200.000
G1 Z0.550 F9000.000
G1 X117.226 Y110.882
G1 Z0.350
G1 E3.20000 F2400.000
M204 S800
G1 F1200.000
G1 X117.073 Y110.806 E0.00534
G1 X116.527 Y110.406 E0.02124
G1 X115.935 Y109.808 E0.02638
G1 X115.507 Y109.094 E0.02609
G1 X115.308 Y108.480 E0.02025
G1 X115.265 Y108.146 E0.01055
G1 X115.205 Y107.882 E0.00850
G1 X115.193 Y107.674 E0.00653
G1 X115.140 Y107.427 E0.00791
G1 X115.128 Y107.172 E0.00799
G1 X114.999 Y106.481 E0.02204
G1 X114.339 Y107.343 E0.03403
G1 X113.620 Y107.953 E0.02955
G1 X113.385 Y108.104 E0.00878
G1 X113.120 Y108.696 E0.02033
G1 X112.751 Y109.121 E0.01766
G1 X112.325 Y109.499 E0.01785
G1 X111.689 Y109.856 E0.02287
G1 X110.951 Y110.106 E0.02443
G1 X110.705 Y110.141 E0.00778
G1 X110.496 Y110.270 E0.00772
G1 X110.084 Y110.435 E0.01391
M204 S1250
G1 E-2.24000 F4200.000
;WIPE_START
G1 F7200.000
G1 X110.496 Y110.270 E-0.24579
G1 X110.705 Y110.141 E-0.13639
M73 P11 R4
G1 X110.951 Y110.106 E-0.13747
G1 X111.622 Y109.879 E-0.39236
;WIPE_END
G1 E-0.04800 F4200.000
G1 Z0.550 F9000.000
G1 X105.711 Y105.575
G1 Z0.350
G1 E3.20000 F2400.000
M204 S800
G1 F1200.000
G1 X105.686 Y105.230 E0.01085
G1 X105.635 Y104.985 E0.00786
G1 X105.622 Y104.670 E0.00988
G1 X105.573 Y104.428 E0.00773
G1 X105.560 Y104.045 E0.01204
G1 X105.523 Y103.840 E0.00652
G1 X105.178 Y103.478 E0.01570
M204 S1250
G1 E-2.24000 F4200.000
;WIPE_START
G1 F7200.000
G1 X105.523 Y103.840 E-0.27745
G1 X105.560 Y104.045 E-0.11519
G1 X105.573 Y104.428 E-0.21283
G1 X105.622 Y104.670 E-0.13662
G1 X105.634 Y104.977 E-0.16991
;WIPE_END
G1 E-0.04800 F4200.000
G1 Z0.550 F9000.000
G1 X138.437 Y104.084
G1 Z0.350
G1 E3.20000 F2400.000
M204 S800
G1 F1200.000
G1 X139.073 Y103.335 E0.03081
G1 X139.321 Y102.807 E0.01828
G1 X139.555 Y102.448 E0.01345
G1 X139.766 Y102.197 E0.01027
G1 X140.438 Y101.518 E0.02996
G1 X141.248 Y100.843 E0.03305
G1 X141.632 Y100.655 E0.01339
G1 X142.197 Y100.523 E0.01821
G1 X142.782 Y100.524 E0.01835
G1 X143.309 Y100.664 E0.01709
G1 X143.846 Y100.963 E0.01927
G1 X144.491 Y101.612 E0.02867
G1 X144.825 Y102.166 E0.02029
G1 X145.037 Y102.817 E0.02147
G1 X145.062 Y103.496 E0.02130
G1 X145.029 Y103.873 E0.01187
G1 X144.785 Y104.562 E0.02293
G1 X144.392 Y105.082 E0.02043
G1 X143.865 Y105.600 E0.02317
G1 X143.488 Y106.308 E0.02515
G1 X143.082 Y106.821 E0.02053
G1 X142.746 Y107.159 E0.01493
G1 X142.484 Y107.679 E0.01826
G1 X142.339 Y107.896 E0.00816
G1 X142.146 Y108.284 E0.01360
G1 X141.641 Y109.079 E0.02953
G1 X140.956 Y109.816 E0.03156
G1 X140.342 Y110.273 E0.02398
G1 X140.088 Y110.846 E0.01966
G1 X139.680 Y111.345 E0.02021
G1 X139.175 Y111.719 E0.01971
G1 X138.305 Y112.029 E0.02894
G1 X137.730 Y112.050 E0.01806
G1 X137.182 Y111.967 E0.01738
G1 X136.646 Y111.753 E0.01807
G1 X136.375 Y111.579 E0.01011
G1 X136.235 Y111.559 E0.00445
G1 X135.709 Y111.394 E0.01729
G1 X135.346 Y111.209 E0.01277
G1 X135.021 Y110.979 E0.01247
G1 X134.592 Y110.552 E0.01898
G1 X134.181 Y110.030 E0.02084
G1 X133.939 Y109.611 E0.01519
G1 X133.772 Y109.168 E0.01483
G1 X133.663 Y108.639 E0.01693
G1 X133.579 Y107.924 E0.02257
G1 X133.465 Y107.432 E0.01584
G1 X133.162 Y107.703 E0.01275
G1 X133.039 Y107.923 E0.00791
G1 X132.778 Y108.199 E0.01191
G1 X132.664 Y108.363 E0.00624
G1 X132.553 Y108.478 E0.00502
G1 X132.339 Y108.835 E0.01303
G1 X132.016 Y109.101 E0.01313
G1 X131.570 Y109.290 E0.01519
G1 X131.173 Y109.528 E0.01453
G1 X130.853 Y109.631 E0.01052
G1 X129.716 Y109.745 E0.03584
G1 X129.448 Y109.856 E0.00908
G1 X129.014 Y109.927 E0.01379
G1 X128.306 Y109.925 E0.02222
G1 X127.431 Y109.726 E0.02813
G1 X127.233 Y109.643 E0.00674
G1 X126.984 Y109.474 E0.00942
G1 X126.848 Y109.329 E0.00622
G1 X126.269 Y108.924 E0.02217
G1 X126.132 Y108.798 E0.00581
M73 P12 R4
G1 X125.952 Y108.705 E0.00636
G1 X125.678 Y108.461 E0.01152
G1 X125.356 Y107.919 E0.01977
G1 X124.961 Y107.362 E0.02143
G1 X124.878 Y107.088 E0.00895
G1 X124.868 Y106.794 E0.00925
G1 X124.698 Y106.228 E0.01852
G1 X124.427 Y106.219 E0.00850
G1 X124.330 Y106.480 E0.00873
G1 X123.984 Y107.151 E0.02367
G1 X123.823 Y107.555 E0.01365
G1 X123.566 Y108.050 E0.01746
G1 X123.462 Y108.340 E0.00968
G1 X123.273 Y108.708 E0.01297
G1 X122.880 Y109.202 E0.01979
G1 X122.376 Y109.638 E0.02088
G1 X121.756 Y109.937 E0.02160
G1 X121.353 Y110.030 E0.01295
G1 X120.829 Y110.502 E0.02212
G1 X120.076 Y110.818 E0.02560
G1 X119.284 Y110.871 E0.02491
G1 X119.050 Y110.849 E0.00736
G1 X118.446 Y110.870 E0.01893
G1 X117.825 Y110.756 E0.01980
G1 X117.282 Y110.492 E0.01895
G1 X116.762 Y110.111 E0.02021
G1 X116.220 Y109.560 E0.02423
G1 X115.843 Y108.922 E0.02324
G1 X115.674 Y108.385 E0.01767
G1 X115.637 Y108.079 E0.00964
G1 X115.580 Y107.842 E0.00766
G1 X115.567 Y107.620 E0.00696
G1 X115.516 Y107.392 E0.00733
G1 X115.503 Y107.117 E0.00865
G1 X115.458 Y106.919 E0.00634
G1 X115.443 Y106.684 E0.00740
G1 X115.393 Y106.466 E0.00702
G1 X115.380 Y106.241 E0.00705
G1 X115.329 Y106.021 E0.00709
G1 X115.312 Y105.709 E0.00979
G1 X115.032 Y105.648 E0.00900
G1 X114.753 Y106.177 E0.01877
G1 X114.079 Y107.070 E0.03505
G1 X113.387 Y107.656 E0.02844
G1 X113.084 Y107.847 E0.01125
G1 X112.814 Y108.473 E0.02135
G1 X112.491 Y108.848 E0.01554
G1 X112.090 Y109.204 E0.01680
G1 X111.552 Y109.504 E0.01934
G1 X110.850 Y109.742 E0.02325
G1 X110.575 Y109.777 E0.00869
G1 X110.336 Y109.929 E0.00887
G1 X109.747 Y110.169 E0.01993
G1 X109.044 Y110.249 E0.02218
G1 X108.342 Y110.162 E0.02220
G1 X107.790 Y109.933 E0.01872
G1 X107.287 Y109.582 E0.01923
G1 X106.861 Y109.078 E0.02071
G1 X106.596 Y108.570 E0.01796
G1 X106.394 Y107.817 E0.02444
G1 X106.375 Y107.496 E0.01007
G1 X106.327 Y107.293 E0.00655
G1 X106.313 Y107.060 E0.00733
G1 X106.263 Y106.847 E0.00684
G1 X106.250 Y106.617 E0.00723
G1 X106.199 Y106.394 E0.00716
G1 X106.186 Y106.126 E0.00843
G1 X106.144 Y105.943 E0.00588
G1 X106.128 Y105.703 E0.00753
G1 X106.075 Y105.467 E0.00760
G1 X106.062 Y105.182 E0.00893
G1 X106.007 Y104.924 E0.00825
G1 X105.998 Y104.624 E0.00942
G1 X105.950 Y104.397 E0.00728
G1 X105.936 Y104.004 E0.01234
G1 X105.873 Y103.659 E0.01100
G1 X105.391 Y103.162 E0.02170
G1 X105.113 Y102.676 E0.01756
G1 X104.953 Y102.043 E0.02046
G1 X104.945 Y100.520 E0.04776
G1 X105.161 Y99.763 E0.02471
G1 X105.382 Y99.403 E0.01323
G1 X105.750 Y99.006 E0.01698
G1 X106.121 Y98.711 E0.01484
G1 X106.565 Y98.498 E0.01546
G1 X107.067 Y98.358 E0.01633
G1 X108.157 Y98.325 E0.03418
G1 X108.769 Y98.439 E0.01952
G1 X109.337 Y98.670 E0.01925
G1 X109.835 Y98.981 E0.01840
G1 X110.239 Y99.369 E0.01757
G1 X110.576 Y99.821 E0.01766
G1 X110.833 Y100.440 E0.02101
G1 X110.883 Y100.794 E0.01122
G1 X110.943 Y101.050 E0.00824
G1 X110.998 Y101.832 E0.02459
G1 X111.850 Y100.981 E0.03778
G1 X112.368 Y100.571 E0.02072
G1 X112.762 Y100.322 E0.01459
G1 X112.979 Y100.236 E0.00732
G1 X113.351 Y99.937 E0.01497
G1 X113.927 Y99.666 E0.01995
G1 X114.402 Y99.535 E0.01546
G1 X114.610 Y99.396 E0.00783
G1 X114.926 Y99.265 E0.01074
G1 X115.054 Y99.091 E0.00677
G1 X115.435 Y98.717 E0.01673
G1 X115.794 Y98.496 E0.01323
G1 X116.258 Y98.288 E0.01593
G1 X116.801 Y98.156 E0.01753
G1 X117.576 Y98.184 E0.02431
G1 X118.118 Y98.365 E0.01790
G1 X118.581 Y98.612 E0.01649
G1 X119.021 Y98.980 E0.01796
G1 X119.371 Y99.439 E0.01811
G1 X119.635 Y99.990 E0.01915
G1 X120.055 Y101.251 E0.04166
M73 P13 R4
G1 X120.135 Y101.632 E0.01224
G1 X120.152 Y101.899 E0.00838
G1 X120.199 Y102.119 E0.00706
G1 X120.217 Y102.562 E0.01388
G1 X120.476 Y102.638 E0.00846
G1 X120.629 Y102.421 E0.00834
G1 X121.025 Y101.985 E0.01846
G1 X121.505 Y101.604 E0.01920
G1 X122.014 Y101.377 E0.01749
G1 X122.593 Y100.732 E0.02715
G1 X122.906 Y100.493 E0.01236
G1 X123.184 Y100.238 E0.01183
