; generated by PrusaSlicer 2.3.3+win64 on 2021-10-12 at 15:17:31 UTC

; 

; external perimeters extrusion width = 0.45mm
; perimeters extrusion width = 0.45mm
; infill extrusion width = 0.45mm
; solid infill extrusion width = 0.45mm
; top infill extrusion width = 0.40mm
; first layer extrusion width = 0.42mm

M73 P0 R4
M201 X1250 Y1250 Z400 E5000 ; sets maximum accelerations, mm/sec^2
M203 X180 Y180 Z12 E80 ; sets maximum feedrates, mm/sec
M204 P1250 R1250 T1250 ; sets acceleration (P, T) and retract acceleration (R), mm/sec^2
M205 X8.00 Y8.00 Z2.00 E10.00 ; sets the jerk limits, mm/sec
M205 S0 T0 ; sets the minimum extruding and travel feed rate, mm/sec
M107
;TYPE:Custom
G90 ; use absolute coordinates
M83 ; extruder relative mode
M104 S170 ; set extruder temp for bed leveling
M140 S60 ; set bed temp
M109 R170 ; wait for bed leveling temp
M190 S60 ; wait for bed temp
G28 ; home all without mesh bed level
G29 ; mesh bed leveling 
M104 S215 ; set extruder temp
G92 E0.0
G1 Y-2.0 X179 F2400
M73 P1 R4
G1 Z3 F720
M109 S215 ; wait for extruder temp

; intro line
G1 X170 F1000
M73 P2 R4
G1 Z0.2 F720
G1 X110.0 E8.0 F900
M73 P3 R4
G1 X40.0 E10.0 F700
G92 E0.0

M221 S95 ; set flow
G21 ; set units to millimeters
G90 ; use absolute coordinates
M83 ; use relative distances for extrusion
M900 K0.2 ; Filament gcode LA 1.5
; ; Filament gcode LA 1.0
;LAYER_CHANGE
;Z:0.5
;HEIGHT:0.5
;BEFORE_LAYER_CHANGE
G92 E0.0
;0.5


M73 P5 R4
G1 Z0.500 F9000.000
;AFTER_LAYER_CHANGE
;0.5
G1 E-3.20000 F4200.000
G1 Z0.700 F9000.000
G1 X-24.890 Y1.766
M73 P6 R4
G1 Z0.500
G1 E3.20000 F2400.000
M204 S800
;TYPE:Skirt
;WIDTH:0.42
G1 F1200.000
G1 X-25.197 Y0.665 E0.07431
G1 X-25.162 Y-0.949 E0.10495
G1 X-24.957 Y-1.640 E0.04686
G1 X-24.683 Y-2.162 E0.03830
G1 X-24.272 Y-2.645 E0.04122
G1 X-23.758 Y-3.024 E0.04148
G1 X-23.165 Y-3.279 E0.04197
G1 X-22.459 Y-3.433 E0.04698
G1 X21.957 Y-3.447 E2.88717
M73 P7 R4
G1 X22.567 Y-3.418 E0.03967
G1 X23.134 Y-3.285 E0.03789
G1 X23.684 Y-3.047 E0.03894
G1 X24.153 Y-2.718 E0.03724
G1 X24.566 Y-2.287 E0.03880
G1 X24.867 Y-1.814 E0.03645
G1 X25.086 Y-1.250 E0.03934
G1 X25.200 Y-0.628 E0.04109
G1 X25.160 Y0.961 E0.10335
G1 X24.952 Y1.652 E0.04686
G1 X24.676 Y2.173 E0.03830
G1 X24.263 Y2.654 E0.04122
G1 X23.755 Y3.026 E0.04095
G1 X23.161 Y3.280 E0.04198
G1 X22.459 Y3.433 E0.04672
G1 X-22.350 Y3.439 E2.91274
M73 P8 R4
G1 X-23.434 Y3.170 E0.07257
G1 X-24.268 Y2.613 E0.06520
G1 X-24.855 Y1.815 E0.06440
M204 S1250
G1 X-24.553 Y1.596 F9000.000
M204 S800
G1 F1200.000
G1 X-24.823 Y0.613 E0.06628
G1 X-24.795 Y-0.861 E0.09581
G1 X-24.612 Y-1.487 E0.04238
G1 X-24.381 Y-1.936 E0.03287
G1 X-24.021 Y-2.364 E0.03631
G1 X-23.568 Y-2.698 E0.03656
G1 X-22.925 Y-2.959 E0.04512
G1 X-22.407 Y-3.059 E0.03434
G1 X21.957 Y-3.070 E2.88375
M73 P9 R4
G1 X23.001 Y-2.932 E0.06847
G1 X23.488 Y-2.725 E0.03442
G1 X23.898 Y-2.441 E0.03238
G1 X24.262 Y-2.064 E0.03406
G1 X24.527 Y-1.651 E0.03188
G1 X24.721 Y-1.152 E0.03482
G1 X24.823 Y-0.601 E0.03640
G1 X24.793 Y0.868 E0.09556
G1 X24.610 Y1.490 E0.04214
G1 X24.376 Y1.943 E0.03311
G1 X24.016 Y2.369 E0.03631
G1 X23.565 Y2.700 E0.03631
G1 X22.922 Y2.960 E0.04513
G1 X22.407 Y3.059 E0.03410
G1 X-22.313 Y3.064 E2.90690
M73 P10 R4
G1 X-23.280 Y2.826 E0.06468
G1 X-24.007 Y2.340 E0.05687
G1 X-24.518 Y1.645 E0.05609
M204 S1250
G1 E-2.24000 F4200.000
;WIPE_START
G1 F7200.000
G1 X-24.823 Y0.613 E-0.59620
G1 X-24.812 Y0.043 E-0.31580
;WIPE_END
G1 E-0.04800 F4200.000
G1 Z0.700 F9000.000
G1 X-24.342 Y-1.575
G1 Z0.500
G1 E3.20000 F2400.000
M204 S800
;HEIGHT:0.2
G1 F1200.000
G1 X-24.234 Y-1.725 E0.00579
G1 X-23.699 Y-2.259 E0.02370
G1 X-23.370 Y-2.484 E0.01249
G1 X-22.748 Y-2.697 E0.02063
G1 X-22.273 Y-2.762 E0.01503
G1 X22.015 Y-2.766 E1.38864
M73 P11 R4
G1 X22.506 Y-2.739 E0.01539
G1 X22.984 Y-2.620 E0.01546
G1 X23.703 Y-2.215 E0.02587
G1 X24.000 Y-1.909 E0.01337
G1 X24.224 Y-1.585 E0.01236
G1 X24.519 Y-0.623 E0.03153
G1 X24.526 Y0.585 E0.03788
G1 X24.258 Y1.587 E0.03253
G1 X24.011 Y1.948 E0.01371
G1 X23.501 Y2.408 E0.02153
G1 X23.107 Y2.596 E0.01369
G1 X22.353 Y2.762 E0.02422
G1 X-22.164 Y2.767 E1.39578
M73 P12 R4
G1 X-22.823 Y2.671 E0.02089
G1 X-23.292 Y2.487 E0.01579
G1 X-23.732 Y2.183 E0.01677
G1 X-24.281 Y1.520 E0.02700
G1 X-24.435 Y1.131 E0.01312
G1 X-24.529 Y0.603 E0.01680
G1 X-24.527 Y-1.030 E0.05122
G1 X-24.361 Y-1.518 E0.01616
M204 S1250
G1 X-24.018 Y-1.380 F9000.000
M204 S800
G1 F1200.000
G1 X-23.955 Y-1.470 E0.00344
G1 X-23.446 Y-1.979 E0.02255
G1 X-23.183 Y-2.156 E0.00995
G1 X-22.648 Y-2.333 E0.01767
G1 X-22.237 Y-2.386 E0.01299
G1 X22.000 Y-2.389 E1.38703
M73 P13 R4
G1 X22.466 Y-2.364 E0.01463
G1 X22.866 Y-2.261 E0.01295
G1 X23.454 Y-1.931 E0.02112
G1 X23.699 Y-1.682 E0.01099
G1 X23.897 Y-1.395 E0.01092
G1 X24.142 Y-0.594 E0.02626
G1 X24.149 Y0.562 E0.03625
G1 X23.927 Y1.405 E0.02731
G1 X23.738 Y1.687 E0.01065
G1 X23.309 Y2.082 E0.01828
G1 X23.000 Y2.233 E0.01077
G1 X22.331 Y2.385 E0.02152
G1 X-22.151 Y2.390 E1.39470
M73 P14 R4
G1 X-22.709 Y2.311 E0.01768
G1 X-23.101 Y2.161 E0.01316
G1 X-23.463 Y1.919 E0.01365
G1 X-23.944 Y1.349 E0.02337
G1 X-24.068 Y1.042 E0.01038
G1 X-24.152 Y0.586 E0.01455
G1 X-24.150 Y-0.998 E0.04966
G1 X-24.038 Y-1.324 E0.01080
M204 S1250
G1 X-23.692 Y-1.191 F9000.000
M204 S800
G1 F1200.000
G1 X-23.194 Y-1.698 E0.02227
G1 X-22.999 Y-1.825 E0.00730
G1 X-22.552 Y-1.968 E0.01472
G1 X-22.203 Y-2.011 E0.01101
G1 X21.988 Y-2.012 E1.38559
M73 P15 R4
G1 X22.392 Y-1.994 E0.01267
G1 X22.749 Y-1.902 E0.01156
G1 X23.206 Y-1.646 E0.01643
G1 X23.399 Y-1.453 E0.00856
G1 X23.570 Y-1.205 E0.00944
G1 X23.765 Y-0.564 E0.02100
G1 X23.771 Y0.540 E0.03463
G1 X23.593 Y1.226 E0.02223
G1 X23.461 Y1.430 E0.00762
G1 X23.112 Y1.759 E0.01504
G1 X22.890 Y1.872 E0.00779
G1 X22.309 Y2.008 E0.01874
G1 X-22.139 Y2.013 E1.39362
M73 P16 R4
G1 X-22.599 Y1.950 E0.01455
G1 X-22.916 Y1.832 E0.01060
G1 X-23.197 Y1.650 E0.01052
G1 X-23.608 Y1.175 E0.01971
G1 X-23.701 Y0.950 E0.00761
G1 X-23.775 Y0.568 E0.01222
G1 X-23.773 Y-0.964 E0.04802
G1 X-23.712 Y-1.135 E0.00569
M204 S1250
G1 X-23.368 Y-0.991 F9000.000
M204 S800
G1 F1200.000
G1 X-22.943 Y-1.415 E0.01881
G1 X-22.822 Y-1.492 E0.00451
G1 X-22.461 Y-1.602 E0.01183
G1 X-22.172 Y-1.635 E0.00911
G1 X21.975 Y-1.635 E1.38420
M73 P17 R4
G1 X22.353 Y-1.618 E0.01187
G1 X22.628 Y-1.544 E0.00893
G1 X22.958 Y-1.361 E0.01184
G1 X23.119 Y-1.200 E0.00713
G1 X23.241 Y-1.018 E0.00686
G1 X23.388 Y-0.535 E0.01585
G1 X23.394 Y0.518 E0.03303
G1 X23.257 Y1.054 E0.01732
G1 X23.180 Y1.178 E0.00459
G1 X22.909 Y1.441 E0.01184
G1 X22.776 Y1.512 E0.00473
G1 X22.285 Y1.631 E0.01583
G1 X-22.127 Y1.635 E1.39253
M73 P18 R4
G1 X-22.492 Y1.588 E0.01153
G1 X-22.736 Y1.500 E0.00815
G1 X-22.936 Y1.377 E0.00735
G1 X-23.276 Y0.995 E0.01602
G1 X-23.336 Y0.854 E0.00480
G1 X-23.398 Y0.548 E0.00979
G1 X-23.391 Y-0.936 E0.04653
M204 S1250
G1 X-23.019 Y-0.806 F9000.000
M204 S800
G1 F1200.000
G1 X-22.654 Y-1.154 E0.01581
G1 X-22.373 Y-1.235 E0.00917
G1 X-22.162 Y-1.258 E0.00666
G1 X21.962 Y-1.258 E1.38349
M73 P19 R4
G1 X22.312 Y-1.242 E0.01100
G1 X22.504 Y-1.188 E0.00624
G1 X22.711 Y-1.075 E0.00740
G1 X22.837 Y-0.948 E0.00560
G1 X22.910 Y-0.836 E0.00419
G1 X23.011 Y-0.505 E0.01085
G1 X23.017 Y0.497 E0.03142
G1 X22.893 Y0.932 E0.01419
G1 X22.653 Y1.154 E0.01024
G1 X22.261 Y1.254 E0.01271
G1 X-22.117 Y1.258 E1.39142
M73 P20 R4
G1 X-22.389 Y1.225 E0.00860
G1 X-22.567 Y1.163 E0.00591
G1 X-22.681 Y1.097 E0.00413
G1 X-22.947 Y0.807 E0.01235
G1 X-22.973 Y0.752 E0.00191
G1 X-23.021 Y0.528 E0.00720
G1 X-23.019 Y-0.746 E0.03993
M204 S1250
G1 X-22.480 Y-0.811 F9000.000
M204 S800
G1 F1200.000
G1 X-22.286 Y-0.868 E0.00633
G1 X-22.154 Y-0.881 E0.00417
G1 X21.954 Y-0.882 E1.38296
M73 P20 R3
G1 X22.239 Y-0.872 E0.00894
G1 X22.356 Y-0.841 E0.00379
G1 X22.468 Y-0.784 E0.00393
G1 X22.576 Y-0.662 E0.00513
G1 X22.634 Y-0.474 E0.00615
G1 X22.640 Y0.472 E0.02967
G1 X22.573 Y0.719 E0.00801
G1 X22.481 Y0.810 E0.00407
G1 X22.234 Y0.877 E0.00802
G1 X-22.107 Y0.881 E1.39031
M73 P21 R3
G1 X-22.286 Y0.862 E0.00564
G1 X-22.422 Y0.814 E0.00451
G1 X-22.608 Y0.623 E0.00838
G1 X-22.644 Y0.464 E0.00509
G1 X-22.643 Y-0.538 E0.03143
G1 X-22.623 Y-0.538 E0.00063
G1 X-22.573 Y-0.718 E0.00586
G1 X-22.523 Y-0.769 E0.00225
M204 S1250
; printing object ppg_selection.stl id:0 copy 0
G1 X-22.082 Y-0.483 F9000.000
M204 S800
;TYPE:External perimeter
;HEIGHT:0.15
G1 F1200.000
G1 X22.155 Y-0.480 E1.06988
M73 P22 R3
G1 X22.222 Y-0.459 E0.00169
G1 X22.243 Y-0.394 E0.00165
G1 X22.242 Y0.422 E0.01975
G1 X22.228 Y0.465 E0.00109
G1 X22.185 Y0.479 E0.00109
G1 X-22.098 Y0.483 E1.07098
M73 P23 R3
G1 X-22.221 Y0.464 E0.00301
G1 X-22.244 Y0.390 E0.00186
G1 X-22.246 Y0.235 E0.00377
G1 X-22.184 Y0.239 E0.00149
G1 X-22.090 Y-0.423 E0.01617
M204 S1250
G1 X-21.751 Y-0.257 F9000.000
G1 X-21.745 Y-0.095
M204 S800
;TYPE:Perimeter
G1 F1200.000
G1 X21.855 Y-0.095 E1.05446
M73 P24 R3
G1 X21.855 Y0.091 E0.00451
G1 X-21.772 Y0.095 E1.05511
M73 P25 R3
G1 X-21.754 Y-0.035 E0.00318
M204 S1250
; stop printing object ppg_selection.stl id:0 copy 0
M106 S84.15
;LAYER_CHANGE
;Z:0.65
;HEIGHT:0.15
;BEFORE_LAYER_CHANGE
G92 E0.0
;0.65


G1 Z0.650 F9000.000
;AFTER_LAYER_CHANGE
;0.65
G1 E-3.20000 F4200.000
G1 Z0.850 F9000.000
G1 X-24.890 Y1.766
G1 Z0.650
G1 E3.20000 F2400.000
;TYPE:Skirt
G1 F1640
G1 X-25.197 Y0.665 E0.02765
G1 X-25.162 Y-0.949 E0.03905
G1 X-24.957 Y-1.640 E0.01743
G1 X-24.683 Y-2.162 E0.01425
G1 X-24.272 Y-2.645 E0.01534
G1 X-23.758 Y-3.024 E0.01543
G1 X-23.165 Y-3.279 E0.01562
G1 X-22.459 Y-3.433 E0.01748
G1 X21.957 Y-3.447 E1.07420
M73 P26 R3
G1 X22.567 Y-3.418 E0.01476
G1 X23.134 Y-3.285 E0.01410
G1 X23.684 Y-3.047 E0.01449
G1 X24.153 Y-2.718 E0.01386
G1 X24.566 Y-2.287 E0.01443
G1 X24.867 Y-1.814 E0.01356
G1 X25.086 Y-1.250 E0.01464
G1 X25.200 Y-0.628 E0.01529
G1 X25.160 Y0.961 E0.03845
G1 X24.952 Y1.652 E0.01743
G1 X24.676 Y2.173 E0.01425
G1 X24.263 Y2.654 E0.01534
G1 X23.755 Y3.026 E0.01524
G1 X23.161 Y3.280 E0.01562
G1 X22.459 Y3.433 E0.01738
G1 X-22.350 Y3.439 E1.08372
G1 X-23.434 Y3.170 E0.02700
G1 X-24.268 Y2.613 E0.02426
G1 X-24.855 Y1.815 E0.02396
G1 X-24.553 Y1.596 F9000.000
G1 F1640
G1 X-24.823 Y0.613 E0.02466
G1 X-24.795 Y-0.861 E0.03565
M73 P27 R3
G1 X-24.612 Y-1.487 E0.01577
G1 X-24.381 Y-1.936 E0.01223
G1 X-24.021 Y-2.364 E0.01351
G1 X-23.568 Y-2.698 E0.01360
G1 X-22.925 Y-2.959 E0.01679
G1 X-22.407 Y-3.059 E0.01278
G1 X21.957 Y-3.070 E1.07293
G1 X23.001 Y-2.932 E0.02547
G1 X23.488 Y-2.725 E0.01281
G1 X23.898 Y-2.441 E0.01205
G1 X24.262 Y-2.064 E0.01267
G1 X24.527 Y-1.651 E0.01186
G1 X24.721 Y-1.152 E0.01295
G1 X24.823 Y-0.601 E0.01354
G1 X24.793 Y0.868 E0.03555
G1 X24.610 Y1.490 E0.01568
G1 X24.376 Y1.943 E0.01232
G1 X24.016 Y2.369 E0.01351
G1 X23.565 Y2.700 E0.01351
G1 X22.922 Y2.960 E0.01679
G1 X22.407 Y3.059 E0.01269
G1 X-22.313 Y3.064 E1.08154
M73 P28 R3
G1 X-23.280 Y2.826 E0.02407
G1 X-24.007 Y2.340 E0.02116
G1 X-24.518 Y1.645 E0.02087
; printing object ppg_selection.stl id:0 copy 0
G1 E-2.24000 F4200.000
;WIPE_START
G1 F7200.000
G1 X-24.823 Y0.613 E-0.59620
G1 X-24.812 Y0.043 E-0.31580
;WIPE_END
G1 E-0.04800 F4200.000
G1 Z0.850 F9000.000
G1 X-21.771 Y0.009
G1 Z0.650
G1 E3.20000 F2400.000
M204 S800
;TYPE:Perimeter
;WIDTH:0.45
G1 F1640
G1 X-21.771 Y-0.008 E0.00044
G1 X21.763 Y-0.009 E1.13431
M73 P29 R3
G1 X21.764 Y0.009 E0.00047
G1 X-21.711 Y0.009 E1.13275
M204 S1250
G1 X-22.104 Y0.427 F9000.000
M204 S800
;TYPE:External perimeter
G1 F1640
G1 X-22.188 Y0.413 E0.00222
G1 X-22.189 Y-0.404 E0.02128
G1 X-22.167 Y-0.426 E0.00081
G1 X22.179 Y-0.419 E1.15546
M73 P30 R3
G1 X22.184 Y0.417 E0.02176
G1 X22.027 Y0.427 E0.00409
G1 X-22.044 Y0.427 E1.14831
M204 S1250
M73 P31 R3
G1 X-22.138 Y0.349 F9000.000
; stop printing object ppg_selection.stl id:0 copy 0
M106 S170.85
;LAYER_CHANGE
;Z:0.8
;HEIGHT:0.15
;BEFORE_LAYER_CHANGE
G92 E0.0
;0.8


G1 Z0.800 F9000.000
;AFTER_LAYER_CHANGE
;0.8
G1 E-3.20000 F4200.000
G1 Z1.000 F9000.000
G1 X-24.890 Y1.766
G1 Z0.800
G1 E3.20000 F2400.000
;TYPE:Skirt
;WIDTH:0.42
G1 F1516
G1 X-25.197 Y0.665 E0.02765
G1 X-25.162 Y-0.949 E0.03905
G1 X-24.957 Y-1.640 E0.01743
G1 X-24.683 Y-2.162 E0.01425
G1 X-24.272 Y-2.645 E0.01534
G1 X-23.758 Y-3.024 E0.01543
G1 X-23.165 Y-3.279 E0.01562
G1 X-22.459 Y-3.433 E0.01748
G1 X21.957 Y-3.447 E1.07420
M73 P32 R3
G1 X22.567 Y-3.418 E0.01476
G1 X23.134 Y-3.285 E0.01410
G1 X23.684 Y-3.047 E0.01449
G1 X24.153 Y-2.718 E0.01386
G1 X24.566 Y-2.287 E0.01443
G1 X24.867 Y-1.814 E0.01356
G1 X25.086 Y-1.250 E0.01464
G1 X25.200 Y-0.628 E0.01529
G1 X25.160 Y0.961 E0.03845
G1 X24.952 Y1.652 E0.01743
G1 X24.676 Y2.173 E0.01425
G1 X24.263 Y2.654 E0.01534
G1 X23.755 Y3.026 E0.01524
G1 X23.161 Y3.280 E0.01562
G1 X22.459 Y3.433 E0.01738
G1 X-22.350 Y3.439 E1.08372
G1 X-23.434 Y3.170 E0.02700
G1 X-24.268 Y2.613 E0.02426
G1 X-24.855 Y1.815 E0.02396
G1 X-24.553 Y1.596 F9000.000
G1 F1516
G1 X-24.823 Y0.613 E0.02466
G1 X-24.795 Y-0.861 E0.03565
G1 X-24.612 Y-1.487 E0.01577
G1 X-24.381 Y-1.936 E0.01223
G1 X-24.021 Y-2.364 E0.01351
G1 X-23.568 Y-2.698 E0.01360
G1 X-22.925 Y-2.959 E0.01679
M73 P33 R3
G1 X-22.407 Y-3.059 E0.01278
G1 X21.957 Y-3.070 E1.07293
G1 X23.001 Y-2.932 E0.02547
G1 X23.488 Y-2.725 E0.01281
G1 X23.898 Y-2.441 E0.01205
G1 X24.262 Y-2.064 E0.01267
G1 X24.527 Y-1.651 E0.01186
G1 X24.721 Y-1.152 E0.01295
G1 X24.823 Y-0.601 E0.01354
G1 X24.793 Y0.868 E0.03555
G1 X24.610 Y1.490 E0.01568
G1 X24.376 Y1.943 E0.01232
G1 X24.016 Y2.369 E0.01351
G1 X23.565 Y2.700 E0.01351
G1 X22.922 Y2.960 E0.01679
G1 X22.407 Y3.059 E0.01269
G1 X-22.313 Y3.064 E1.08154
M73 P34 R3
G1 X-23.280 Y2.826 E0.02407
G1 X-24.007 Y2.340 E0.02116
G1 X-24.518 Y1.645 E0.02087
; printing object ppg_selection.stl id:0 copy 0
G1 E-2.24000 F4200.000
;WIPE_START
G1 F7200.000
G1 X-24.823 Y0.613 E-0.59620
G1 X-24.812 Y0.043 E-0.31580
;WIPE_END
G1 E-0.04800 F4200.000
G1 Z1.000 F9000.000
G1 X-22.167 Y0.404
G1 Z0.800
G1 E3.20000 F2400.000
M204 S800
;TYPE:External perimeter
;WIDTH:0.45
G1 F1516
G1 X-22.169 Y-0.407 E0.02114
G1 X-22.148 Y-0.411 E0.00056
G1 X21.973 Y-0.412 E1.14960
M73 P35 R3
G1 X22.167 Y-0.400 E0.00508
G1 X22.174 Y-0.337 E0.00164
G1 X22.169 Y0.406 E0.01936
G1 X-22.107 Y0.411 E1.15366
M204 S1250
M73 P36 R3
G1 X-21.969 Y0.056 F9000.000
G1 E-2.24000 F4200.000
;WIPE_START
G1 F7200.000
G1 X-22.169 Y-0.407 E-0.45460
G1 X-22.148 Y-0.411 E-0.01200
G1 X-21.344 Y-0.411 E-0.44539
;WIPE_END
G1 E-0.04800 F4200.000
G1 Z1.000 F9000.000
G1 X21.963 Y-0.003
G1 Z0.800
G1 E3.20000 F2400.000
;TYPE:Gap fill
;WIDTH:0.436636
G1 F1516
G1 X-21.963 Y0.000 E1.10793
; stop printing object ppg_selection.stl id:0 copy 0
M106 S255
;LAYER_CHANGE
;Z:0.95
;HEIGHT:0.15
;BEFORE_LAYER_CHANGE
G92 E0.0
;0.95


G1 Z0.950 F9000.000
;AFTER_LAYER_CHANGE
;0.95
; printing object ppg_selection.stl id:0 copy 0
M73 P37 R3
G1 X-22.159 Y0.345
M204 S800
;TYPE:External perimeter
;WIDTH:0.45
G1 F900
G1 X-22.143 Y-0.396 E0.01931
G1 X22.156 Y-0.390 E1.15425
M73 P38 R3
G1 X22.154 Y0.391 E0.02036
G1 X-22.138 Y0.390 E1.15407
M204 S1250
M73 P39 R3
G1 X-21.956 Y0.000 F9000.000
G1 E-2.24000 F4200.000
;WIPE_START
G1 F7200.000
G1 X-22.143 Y-0.396 E-0.43521
G1 X-21.283 Y-0.396 E-0.47679
;WIPE_END
G1 E-0.04800 F4200.000
G1 Z1.150 F9000.000
G1 X21.946 Y-0.003
G1 Z0.950
G1 E3.20000 F2400.000
;TYPE:Gap fill
;WIDTH:0.406425
G1 F900
G1 X-21.948 Y0.000 E1.02441
; stop printing object ppg_selection.stl id:0 copy 0
;LAYER_CHANGE
;Z:1.1
;HEIGHT:0.15
;BEFORE_LAYER_CHANGE
G92 E0.0
;1.1


M73 P40 R3
G1 Z1.100 F9000.000
;AFTER_LAYER_CHANGE
;1.1
; printing object ppg_selection.stl id:0 copy 0
G1 X-22.144 Y0.330
M204 S800
;TYPE:External perimeter
;WIDTH:0.45
G1 F900
G1 X-22.128 Y-0.381 E0.01852
G1 X22.140 Y-0.378 E1.15344
M73 P41 R3
G1 X22.139 Y0.376 E0.01964
G1 X-22.120 Y0.376 E1.15321
M204 S1250
M73 P42 R3
G1 X-21.941 Y-0.015 F9000.000
M73 P43 R2
G1 E-2.24000 F4200.000
;WIPE_START
G1 F7200.000
G1 X-22.128 Y-0.381 E-0.41937
G1 X-21.239 Y-0.381 E-0.49263
;WIPE_END
G1 E-0.04800 F4200.000
G1 Z1.300 F9000.000
G1 X21.930 Y-0.003
G1 Z1.100
G1 E3.20000 F2400.000
;TYPE:Gap fill
;WIDTH:0.376213
G1 F900
G1 X-21.933 Y0.000 E0.94105
; stop printing object ppg_selection.stl id:0 copy 0
;LAYER_CHANGE
;Z:1.25
;HEIGHT:0.15
